; generated by Slic3r 0.9.9-dev on 2013-08-11 at 13:45:36

; layer_height = 0.3
; perimeters = 2
; top_solid_layers = 4
; bottom_solid_layers = 4
; fill_density = 0.25
; perimeter_speed = 50
; infill_speed = 50
; travel_speed = 165
; nozzle_diameter = 0.5
; filament_diameter = 3.2
; extrusion_multiplier = 1
; perimeters extrusion width = 0.70mm
; infill extrusion width = 0.70mm
; solid infill extrusion width = 0.70mm
; top infill extrusion width = 0.70mm
; first layer extrusion width = 0.80mm

G21 ; set units to millimeters
M107
M190 S70 ; wait for bed temperature to be reached
M104 S185 ; set temperature
;G28 ; home all axes
;G1 Z5 F5000 ; lift nozzle
M109 S185 ; wait for temperature to be reached
G90 ; use absolute coordinates
G92 E0
M82 ; use absolute distances for extrusion
G1 F1800.000 E-1.00000
G1 Z0.700
G92 E0
G1 X87.441 Y35.589 F9900.000
G1 Z0.400
G1 F1800.000 E1.00000
G1 X87.551 Y35.339 F900.000 E1.00999
G1 X87.811 Y34.859 E1.02997
G1 X88.251 Y34.179 E1.05960
G1 X88.601 Y33.759 E1.07960
G1 X88.971 Y33.369 E1.09927
G1 X89.591 Y32.849 E1.12888
G1 X90.271 Y32.399 E1.15871
G1 X90.751 Y32.139 E1.17868
G1 X91.001 Y32.029 E1.18867
G1 X91.511 Y31.839 E1.20859
G1 X92.031 Y31.689 E1.22839
G1 X92.831 Y31.539 E1.25817
G1 X93.641 Y31.489 E1.28786
G1 X114.841 Y31.489 E2.06350
G1 X115.681 Y31.549 E2.09431
G1 X116.501 Y31.699 E2.12481
G1 X117.301 Y31.959 E2.15558
G1 X117.811 Y32.179 E2.17590
G1 X118.061 Y32.309 E2.18621
G1 X118.531 Y32.599 E2.20642
G1 X118.991 Y32.919 E2.22692
G1 X119.411 Y33.289 E2.24740
G1 X119.811 Y33.679 E2.26784
G1 X151.311 Y68.079 E3.97437
G1 X151.671 Y68.509 E3.99489
G1 X151.991 Y68.959 E4.01509
G1 X152.131 Y69.189 E4.02494
G1 X152.401 Y69.679 E4.04541
G1 X152.511 Y69.929 E4.05540
G1 X152.621 Y70.189 E4.06573
G1 X152.801 Y70.719 E4.08621
G1 X152.931 Y71.249 E4.10618
G1 X153.021 Y71.799 E4.12657
G1 X153.081 Y72.629 E4.15701
G1 X153.071 Y93.219 E4.91033
G1 X152.961 Y94.419 E4.95442
G1 X152.781 Y95.249 E4.98549
G1 X143.331 Y128.749 E6.25898
G1 X143.091 Y129.479 E6.28709
G1 X142.951 Y129.809 E6.30021
G1 X142.621 Y130.439 E6.32623
G1 X142.421 Y130.749 E6.33973
G1 X142.151 Y131.149 E6.35738
G1 X141.761 Y131.629 E6.38001
G1 X141.331 Y132.069 E6.40252
G1 X140.771 Y132.549 E6.42951
G1 X140.371 Y132.849 E6.44780
G1 X139.951 Y133.109 E6.46587
G1 X122.631 Y143.109 E7.19759
G1 X122.341 Y143.269 E7.20971
G1 X121.761 Y143.539 E7.23311
G1 X121.151 Y143.749 E7.25672
G1 X120.561 Y143.909 E7.27908
G1 X119.991 Y144.019 E7.30032
G1 X119.411 Y144.079 E7.32166
G1 X118.831 Y144.089 E7.34288
G1 X118.541 Y144.079 E7.35350
G1 X117.751 Y143.989 E7.38259
G1 X117.131 Y143.859 E7.40576
G1 X116.531 Y143.679 E7.42868
G1 X115.941 Y143.429 E7.45213
G1 X115.471 Y143.199 E7.47127
G1 X114.881 Y142.849 E7.49637
G1 X114.601 Y142.649 E7.50896
G1 X113.941 Y142.099 E7.54039
G1 X113.681 Y141.849 E7.55359
G1 X113.211 Y141.309 E7.57978
G1 X113.001 Y141.019 E7.59288
G1 X112.621 Y140.429 E7.61856
G1 X87.821 Y97.479 E9.43310
G1 X87.431 Y96.689 E9.46534
G1 X87.231 Y96.139 E9.48675
G1 X87.071 Y95.569 E9.50841
G1 X86.971 Y94.989 E9.52994
G1 X86.911 Y94.109 E9.56221
G1 X86.901 Y38.229 E11.60668
G1 X86.951 Y37.419 E11.63637
G1 X87.041 Y36.879 E11.65640
G1 X87.171 Y36.359 E11.67601
G1 X87.400 Y35.691 E11.70183
G1 F1800.000 E10.70183
G1 Z0.700
G92 E0
G1 X103.288 Y80.588 F9900.000
G1 Z0.400
G1 F1800.000 E1.00000
G1 X103.761 Y80.460 F540.000 E1.01790
G1 X104.249 Y80.417 E1.03583
G1 X104.739 Y80.460 E1.05383
G1 X105.212 Y80.588 E1.07175
G1 X105.657 Y80.794 E1.08970
G1 X106.058 Y81.079 E1.10768
G1 X106.400 Y81.422 E1.12542
G1 X106.681 Y81.824 E1.14336
G1 X106.888 Y82.269 E1.16132
G1 X107.013 Y82.737 E1.17905
G1 X107.059 Y83.224 E1.19693
G1 X107.013 Y83.719 E1.21511
G1 X106.888 Y84.184 E1.23275
G1 X106.681 Y84.632 E1.25081
G1 X106.399 Y85.034 E1.26875
G1 X106.058 Y85.375 E1.28640
G1 X105.654 Y85.662 E1.30451
G1 X105.212 Y85.863 E1.32231
G1 X104.735 Y85.995 E1.34039
G1 X104.249 Y86.032 E1.35825
G1 X103.764 Y85.995 E1.37602
G1 X103.289 Y85.863 E1.39409
G1 X102.846 Y85.662 E1.41189
G1 X102.444 Y85.376 E1.42990
G1 X102.101 Y85.036 E1.44760
G1 X101.815 Y84.630 E1.46576
G1 X101.611 Y84.181 E1.48380
G1 X101.487 Y83.719 E1.50131
G1 X101.441 Y83.224 E1.51949
G1 X101.487 Y82.737 E1.53738
G1 X101.611 Y82.272 E1.55498
G1 X101.815 Y81.827 E1.57291
G1 X102.099 Y81.420 E1.59106
G1 X102.444 Y81.078 E1.60885
G1 X102.843 Y80.794 E1.62674
G1 X103.188 Y80.635 E1.64066
G1 X103.541 Y81.282 F9900.000
G1 X103.890 Y81.187 F540.000 E1.65391
G1 X104.249 Y81.156 E1.66708
G1 X104.610 Y81.187 E1.68033
G1 X104.959 Y81.282 E1.69358
G1 X105.286 Y81.433 E1.70677
G1 X105.581 Y81.643 E1.72000
G1 X105.834 Y81.896 E1.73309
G1 X106.041 Y82.193 E1.74632
G1 X106.194 Y82.521 E1.75958
G1 X106.286 Y82.868 E1.77270
G1 X106.320 Y83.225 E1.78582
G1 X106.286 Y83.588 E1.79918
G1 X106.194 Y83.933 E1.81223
G1 X106.041 Y84.263 E1.82556
G1 X105.834 Y84.559 E1.83876
G1 X105.581 Y84.811 E1.85182
G1 X105.285 Y85.021 E1.86509
G1 X104.959 Y85.170 E1.87821
G1 X104.608 Y85.267 E1.89153
G1 X104.249 Y85.294 E1.90472
G1 X103.891 Y85.267 E1.91783
G1 X103.541 Y85.170 E1.93115
G1 X103.215 Y85.021 E1.94426
G1 X102.919 Y84.811 E1.95751
G1 X102.665 Y84.559 E1.97062
G1 X102.456 Y84.263 E1.98389
G1 X102.306 Y83.932 E1.99719
G1 X102.214 Y83.588 E2.01020
G1 X102.180 Y83.225 E2.02356
G1 X102.214 Y82.868 E2.03667
G1 X102.306 Y82.522 E2.04976
G1 X102.456 Y82.194 E2.06298
G1 X102.664 Y81.895 E2.07629
G1 X102.919 Y81.643 E2.08943
G1 X103.214 Y81.433 E2.10263
G1 X103.441 Y81.328 E2.11178
G1 X103.614 Y80.928 F9900.000
G1 X104.249 Y80.818
G1 X120.501 Y80.818
G1 X134.343 Y83.224
G1 X133.941 Y83.224
G1 X133.987 Y82.737 F540.000 E2.12967
G1 X134.112 Y82.269 E2.14740
G1 X134.318 Y81.827 E2.16525
G1 X134.595 Y81.424 E2.18314
G1 X134.943 Y81.076 E2.20115
G1 X135.347 Y80.794 E2.21919
G1 X135.786 Y80.589 E2.23689
G1 X136.258 Y80.460 E2.25480
G1 X136.752 Y80.417 E2.27293
G1 X137.237 Y80.460 E2.29073
G1 X137.712 Y80.588 E2.30876
G1 X138.156 Y80.795 E2.32668
G1 X138.554 Y81.078 E2.34451
G1 X138.897 Y81.418 E2.36218
G1 X139.183 Y81.824 E2.38038
G1 X139.389 Y82.272 E2.39843
G1 X139.513 Y82.737 E2.41603
G1 X139.559 Y83.224 E2.43392
G1 X139.513 Y83.719 E2.45209
G1 X139.389 Y84.181 E2.46961
G1 X139.183 Y84.632 E2.48776
G1 X138.895 Y85.038 E2.50596
G1 X138.554 Y85.376 E2.52355
G1 X138.153 Y85.661 E2.54151
G1 X137.712 Y85.863 E2.55927
G1 X137.233 Y85.995 E2.57746
G1 X136.752 Y86.031 E2.59511
G1 X136.262 Y85.995 E2.61309
G1 X135.786 Y85.862 E2.63116
G1 X135.350 Y85.662 E2.64870
G1 X134.943 Y85.378 E2.66688
G1 X134.597 Y85.031 E2.68480
G1 X134.318 Y84.630 E2.70269
G1 X134.112 Y84.184 E2.72064
G1 X133.987 Y83.719 E2.73828
G1 X133.951 Y83.334 E2.75242
G1 X134.680 Y83.225 F9900.000
G1 X134.714 Y82.868 F540.000 E2.76554
G1 X134.806 Y82.521 E2.77866
G1 X134.959 Y82.194 E2.79188
G1 X135.163 Y81.897 E2.80507
G1 X135.418 Y81.642 E2.81825
G1 X135.716 Y81.433 E2.83158
G1 X136.040 Y81.282 E2.84464
G1 X136.388 Y81.187 E2.85784
G1 X136.751 Y81.156 E2.87118
G1 X137.108 Y81.187 E2.88427
G1 X137.459 Y81.282 E2.89760
G1 X137.785 Y81.434 E2.91073
G1 X138.079 Y81.643 E2.92392
G1 X138.333 Y81.895 E2.93702
G1 X138.543 Y82.193 E2.95037
G1 X138.694 Y82.522 E2.96363
G1 X138.786 Y82.868 E2.97671
G1 X138.820 Y83.225 E2.98983
G1 X138.786 Y83.588 E3.00319
G1 X138.694 Y83.932 E3.01620
G1 X138.543 Y84.263 E3.02954
G1 X138.332 Y84.560 E3.04285
G1 X138.079 Y84.811 E3.05592
G1 X137.784 Y85.021 E3.06915
G1 X137.459 Y85.170 E3.08221
G1 X137.106 Y85.267 E3.09561
G1 X136.751 Y85.294 E3.10864
G1 X136.389 Y85.267 E3.12192
G1 X136.040 Y85.169 E3.13518
G1 X135.717 Y85.021 E3.14817
G1 X135.418 Y84.812 E3.16155
G1 X135.164 Y84.558 E3.17470
G1 X134.959 Y84.263 E3.18785
G1 X134.806 Y83.933 E3.20114
G1 X134.714 Y83.588 E3.21419
G1 X134.690 Y83.335 E3.22351
G1 X134.375 Y83.035 F9900.000
G1 X123.309 Y83.224
G1 X123.266 Y83.715 F540.000 E3.24155
G1 X123.140 Y84.184 E3.25933
G1 X122.931 Y84.635 E3.27751
G1 X122.645 Y85.038 E3.29559
G1 X122.304 Y85.376 E3.31317
G1 X121.903 Y85.661 E3.33113
G1 X121.462 Y85.863 E3.34889
G1 X120.983 Y85.995 E3.36709
G1 X120.502 Y86.031 E3.38474
G1 X120.011 Y85.995 E3.40275
G1 X119.540 Y85.863 E3.42064
G1 X119.099 Y85.663 E3.43835
G1 X118.692 Y85.376 E3.45658
G1 X118.347 Y85.031 E3.47442
G1 X118.068 Y84.630 E3.49232
G1 X117.862 Y84.184 E3.51027
G1 X117.736 Y83.715 E3.52805
G1 X117.693 Y83.224 E3.54608
G1 X117.736 Y82.741 E3.56382
G1 X117.862 Y82.269 E3.58169
G1 X118.068 Y81.827 E3.59953
G1 X118.345 Y81.424 E3.61743
G1 X118.692 Y81.078 E3.63536
G1 X119.096 Y80.793 E3.65346
G1 X119.540 Y80.589 E3.67133
G1 X120.007 Y80.460 E3.68906
G1 X120.502 Y80.417 E3.70723
G1 X120.987 Y80.460 E3.72502
G1 X121.462 Y80.588 E3.74305
G1 X121.906 Y80.795 E3.76097
G1 X122.304 Y81.078 E3.77880
G1 X122.647 Y81.418 E3.79648
G1 X122.931 Y81.821 E3.81455
G1 X123.140 Y82.269 E3.83262
G1 X123.266 Y82.741 E3.85049
G1 X123.299 Y83.114 E3.86419
G1 X122.570 Y83.225 F9900.000
G1 X122.539 Y83.587 F540.000 E3.87750
G1 X122.446 Y83.933 E3.89059
G1 X122.292 Y84.264 E3.90397
G1 X122.082 Y84.560 E3.91723
G1 X121.829 Y84.811 E3.93031
G1 X121.534 Y85.021 E3.94353
G1 X121.209 Y85.170 E3.95659
G1 X120.856 Y85.267 E3.96999
G1 X120.501 Y85.294 E3.98302
G1 X120.139 Y85.267 E3.99631
G1 X119.793 Y85.170 E4.00947
G1 X119.466 Y85.022 E4.02260
G1 X119.167 Y84.811 E4.03596
G1 X118.914 Y84.558 E4.04908
G1 X118.709 Y84.263 E4.06223
G1 X118.556 Y83.933 E4.07553
G1 X118.463 Y83.587 E4.08862
G1 X118.432 Y83.225 E4.10193
G1 X118.463 Y82.869 E4.11500
G1 X118.556 Y82.521 E4.12817
G1 X118.709 Y82.194 E4.14139
G1 X118.913 Y81.897 E4.15458
G1 X119.167 Y81.643 E4.16773
G1 X119.465 Y81.433 E4.18104
G1 X119.793 Y81.282 E4.19425
G1 X120.138 Y81.187 E4.20734
G1 X120.501 Y81.156 E4.22069
G1 X120.858 Y81.187 E4.23378
G1 X121.209 Y81.282 E4.24711
G1 X121.535 Y81.434 E4.26024
G1 X121.829 Y81.643 E4.27343
G1 X122.083 Y81.895 E4.28653
G1 X122.292 Y82.192 E4.29983
G1 X122.446 Y82.521 E4.31312
G1 X122.539 Y82.869 E4.32630
G1 X122.560 Y83.115 E4.33532
G1 X122.880 Y83.415 F9900.000
G1 X113.850 Y103.530
G1 X114.305 Y103.744 F540.000 E4.35373
G1 X114.714 Y104.029 E4.37195
G1 X115.068 Y104.386 E4.39037
G1 X115.350 Y104.791 E4.40840
G1 X115.562 Y105.241 E4.42661
G1 X115.690 Y105.725 E4.44493
G1 X115.732 Y106.219 E4.46306
G1 X115.690 Y106.712 E4.48117
G1 X115.562 Y107.198 E4.49955
G1 X115.350 Y107.649 E4.51781
G1 X115.065 Y108.058 E4.53603
G1 X114.712 Y108.408 E4.55422
G1 X114.302 Y108.696 E4.57254
G1 X113.853 Y108.901 E4.59061
G1 X113.372 Y109.034 E4.60886
G1 X112.875 Y109.077 E4.62712
G1 X112.375 Y109.034 E4.64549
G1 X111.895 Y108.901 E4.66371
G1 X111.448 Y108.695 E4.68169
G1 X111.040 Y108.408 E4.69996
G1 X110.689 Y108.060 E4.71804
G1 X110.400 Y107.649 E4.73643
G1 X110.189 Y107.195 E4.75476
G1 X110.064 Y106.719 E4.77275
G1 X110.014 Y106.219 E4.79113
G1 X110.064 Y105.718 E4.80955
G1 X110.189 Y105.244 E4.82748
G1 X110.400 Y104.791 E4.84577
G1 X110.686 Y104.384 E4.86397
G1 X111.038 Y104.029 E4.88227
G1 X111.445 Y103.745 E4.90043
G1 X111.898 Y103.531 E4.91875
G1 X112.382 Y103.406 E4.93704
G1 X112.875 Y103.361 E4.95516
G1 X113.365 Y103.406 E4.97318
G1 X113.743 Y103.503 E4.98743
G1 X113.600 Y104.225 F9900.000
G1 X113.936 Y104.383 F540.000 E5.00101
G1 X114.239 Y104.594 E5.01451
G1 X114.501 Y104.859 E5.02814
G1 X114.711 Y105.160 E5.04158
G1 X114.868 Y105.494 E5.05509
G1 X114.963 Y105.852 E5.06861
G1 X114.994 Y106.219 E5.08210
G1 X114.963 Y106.586 E5.09558
G1 X114.868 Y106.945 E5.10917
G1 X114.711 Y107.280 E5.12270
G1 X114.500 Y107.583 E5.13620
G1 X114.238 Y107.842 E5.14968
G1 X113.935 Y108.055 E5.16324
G1 X113.601 Y108.208 E5.17667
G1 X113.242 Y108.307 E5.19029
G1 X112.875 Y108.338 E5.20377
G1 X112.506 Y108.307 E5.21733
G1 X112.148 Y108.208 E5.23090
G1 X111.817 Y108.055 E5.24425
G1 X111.514 Y107.842 E5.25780
G1 X111.253 Y107.583 E5.27124
G1 X111.039 Y107.280 E5.28483
G1 X110.884 Y106.944 E5.29836
G1 X110.790 Y106.588 E5.31182
G1 X110.753 Y106.219 E5.32540
G1 X110.790 Y105.849 E5.33899
G1 X110.884 Y105.495 E5.35238
G1 X111.039 Y105.160 E5.36590
G1 X111.252 Y104.858 E5.37943
G1 X111.513 Y104.594 E5.39301
G1 X111.816 Y104.384 E5.40649
G1 X112.149 Y104.226 E5.42000
G1 X112.508 Y104.133 E5.43355
G1 X112.875 Y104.100 E5.44704
G1 X113.240 Y104.133 E5.46044
G1 X113.493 Y104.198 E5.47000
G1 X113.891 Y103.995 F9900.000
G1 X120.900 Y119.124
G1 X121.377 Y118.997 F540.000 E5.48807
G1 X121.877 Y118.951 E5.50646
G1 X122.374 Y118.997 E5.52471
G1 X122.855 Y119.124 E5.54289
G1 X123.308 Y119.338 E5.56123
G1 X123.712 Y119.622 E5.57929
G1 X124.065 Y119.972 E5.59749
G1 X124.348 Y120.378 E5.61560
G1 X124.565 Y120.832 E5.63401
G1 X124.690 Y121.318 E5.65235
G1 X124.735 Y121.809 E5.67039
G1 X124.690 Y122.301 E5.68849
G1 X124.565 Y122.789 E5.70691
G1 X124.348 Y123.244 E5.72535
G1 X124.065 Y123.650 E5.74345
G1 X123.712 Y124.000 E5.76165
G1 X123.308 Y124.284 E5.77973
G1 X122.855 Y124.498 E5.79806
G1 X122.367 Y124.627 E5.81650
G1 X121.877 Y124.666 E5.83449
G1 X121.384 Y124.627 E5.85259
G1 X120.900 Y124.498 E5.87093
G1 X120.445 Y124.285 E5.88929
G1 X120.038 Y123.999 E5.90751
G1 X119.687 Y123.648 E5.92565
G1 X119.406 Y123.244 E5.94366
G1 X119.189 Y122.789 E5.96211
G1 X119.064 Y122.301 E5.98053
G1 X119.019 Y121.809 E5.99862
G1 X119.064 Y121.318 E6.01667
G1 X119.189 Y120.832 E6.03500
G1 X119.406 Y120.378 E6.05342
G1 X119.687 Y119.974 E6.07143
G1 X120.038 Y119.624 E6.08956
G1 X120.445 Y119.337 E6.10779
G1 X120.800 Y119.171 E6.12211
G1 X121.153 Y119.818 F9900.000
G1 X121.506 Y119.724 F540.000 E6.13551
G1 X121.877 Y119.690 E6.14913
G1 X122.245 Y119.724 E6.16266
G1 X122.602 Y119.818 E6.17614
G1 X122.937 Y119.976 E6.18969
G1 X123.238 Y120.188 E6.20317
G1 X123.500 Y120.447 E6.21666
G1 X123.710 Y120.749 E6.23012
G1 X123.870 Y121.085 E6.24372
G1 X123.963 Y121.444 E6.25729
G1 X123.996 Y121.809 E6.27070
G1 X123.963 Y122.176 E6.28418
G1 X123.870 Y122.537 E6.29782
G1 X123.710 Y122.873 E6.31143
G1 X123.500 Y123.175 E6.32489
G1 X123.238 Y123.434 E6.33838
G1 X122.937 Y123.646 E6.35186
G1 X122.602 Y123.804 E6.36541
G1 X122.243 Y123.899 E6.37898
G1 X121.877 Y123.928 E6.39241
G1 X121.509 Y123.899 E6.40593
G1 X121.153 Y123.804 E6.41941
G1 X120.816 Y123.646 E6.43302
G1 X120.513 Y123.434 E6.44655
G1 X120.254 Y123.174 E6.45998
G1 X120.044 Y122.873 E6.47341
G1 X119.884 Y122.537 E6.48702
G1 X119.791 Y122.176 E6.50067
G1 X119.758 Y121.809 E6.51414
G1 X119.791 Y121.444 E6.52756
G1 X119.884 Y121.085 E6.54112
G1 X120.044 Y120.749 E6.55472
G1 X120.254 Y120.448 E6.56815
G1 X120.513 Y120.189 E6.58158
G1 X120.816 Y119.976 E6.59512
G1 X121.053 Y119.865 E6.60468
G1 X121.227 Y119.460 F9900.000
G1 X124.732 Y107.770
G1 X135.589 Y126.584 F900.000 E7.39940
G1 X119.154 Y136.073 E8.09372
G1 X94.758 Y93.823 E9.87868
G1 X94.753 Y39.332 E11.87232
G1 X113.745 Y39.332 E12.56716
G1 X113.740 Y57.261 E13.22310
G1 X113.855 Y59.216 E13.29477
G1 X114.214 Y61.180 E13.36780
G1 X114.809 Y63.082 E13.44071
G1 X115.628 Y64.902 E13.51374
G1 X116.660 Y66.608 E13.58669
G1 X117.887 Y68.177 E13.65954
G1 X119.299 Y69.587 E13.73258
G1 X120.868 Y70.819 E13.80554
G1 X122.575 Y71.851 E13.87854
G1 X124.395 Y72.668 E13.95154
G1 X126.297 Y73.260 E14.02440
G1 X128.259 Y73.621 E14.09738
G1 X130.218 Y73.739 E14.16921
G1 X145.243 Y73.734 E14.71891
G1 X145.237 Y92.714 E15.41333
G1 X133.422 Y92.720 E15.84560
G1 X131.953 Y93.206 E15.90221
G1 X130.490 Y93.897 E15.96141
G1 X129.128 Y94.786 E16.02092
G1 X127.894 Y95.845 E16.08041
G1 X126.814 Y97.067 E16.14006
G1 X125.908 Y98.413 E16.19943
G1 X125.190 Y99.878 E16.25914
G1 X124.677 Y101.420 E16.31859
G1 X124.372 Y103.020 E16.37816
G1 X124.287 Y104.642 E16.43761
G1 X124.418 Y106.260 E16.49699
G1 X124.710 Y107.662 E16.54940
G1 X125.428 Y107.506 F9900.000
G1 X136.476 Y126.649 F630.000 E17.35807
G1 X136.509 Y126.736 E17.36147
G1 X136.505 Y126.832 E17.36500
G1 X136.450 Y126.923 E17.36889
G1 X136.390 Y126.971 E17.37167
G1 X119.092 Y136.958 E18.10249
G1 X118.974 Y136.998 E18.10702
G1 X118.858 Y136.968 E18.11142
G1 X118.765 Y136.870 E18.11635
G1 X94.023 Y94.020 E19.92667
G1 X94.017 Y38.597 E21.95444
G1 X114.480 Y38.597 E22.70311
G1 X114.475 Y57.238 E23.38514
G1 X114.587 Y59.128 E23.45441
