; generated by Slic3r 0.9.9-dev on 2013-08-11 at 10:47:40

; layer_height = 0.3
; perimeters = 2
; top_solid_layers = 4
; bottom_solid_layers = 4
; fill_density = 0.25
; perimeter_speed = 50
; infill_speed = 50
; travel_speed = 165
; nozzle_diameter = 0.5
; filament_diameter = 3.2
; extrusion_multiplier = 1
; perimeters extrusion width = 0.70mm
; infill extrusion width = 0.70mm
; solid infill extrusion width = 0.70mm
; top infill extrusion width = 0.70mm
; first layer extrusion width = 0.80mm

G21 ; set units to millimeters
M107
M190 S70 ; wait for bed temperature to be reached
M104 S187 ; set temperature
;G28 ; home all axes
;G1 Z5 F5000 ; lift nozzle
M109 S187 ; wait for temperature to be reached
G90 ; use absolute coordinates
G92 E0
M82 ; use absolute distances for extrusion
G1 F1800.000 E-1.00000
G1 Z0.700
G92 E0
G1 X88.322 Y68.509 F9900.000
G1 Z0.400
G1 F1800.000 E1.00000
G1 X88.682 Y68.079 F900.000 E1.02052
G1 X120.182 Y33.679 E2.72705
G1 X120.582 Y33.289 E2.74749
G1 X121.002 Y32.919 E2.76797
G1 X121.462 Y32.599 E2.78847
G1 X121.932 Y32.309 E2.80867
G1 X122.182 Y32.179 E2.81898
G1 X122.692 Y31.959 E2.83930
G1 X123.492 Y31.699 E2.87008
G1 X124.312 Y31.549 E2.90058
G1 X125.152 Y31.489 E2.93139
G1 X146.332 Y31.489 E3.70630
G1 X147.142 Y31.539 E3.73599
G1 X147.942 Y31.689 E3.76577
G1 X148.462 Y31.839 E3.78557
G1 X148.972 Y32.029 E3.80548
G1 X149.222 Y32.139 E3.81547
G1 X149.702 Y32.399 E3.83545
G1 X150.382 Y32.839 E3.86508
G1 X151.002 Y33.369 E3.89492
G1 X151.552 Y33.969 E3.92470
G1 X151.872 Y34.399 E3.94431
G1 X152.292 Y35.099 E3.97418
G1 X152.532 Y35.589 E3.99414
G1 X152.632 Y35.839 E4.00399
G1 X152.872 Y36.619 E4.03385
G1 X153.022 Y37.419 E4.06363
G1 X153.072 Y38.229 E4.09332
G1 X153.082 Y94.119 E6.13815
G1 X153.022 Y94.999 E6.17042
G1 X152.922 Y95.579 E6.19196
G1 X152.852 Y95.859 E6.20252
G1 X152.672 Y96.419 E6.22404
G1 X152.562 Y96.699 E6.23504
G1 X152.172 Y97.489 E6.26728
G1 X127.372 Y140.429 E8.08151
G1 X127.082 Y140.889 E8.10140
G1 X126.682 Y141.429 E8.12599
G1 X126.232 Y141.929 E8.15060
G1 X125.982 Y142.159 E8.16303
G1 X125.572 Y142.509 E8.18275
G1 X124.992 Y142.929 E8.20895
G1 X124.692 Y143.109 E8.22175
G1 X124.062 Y143.439 E8.24777
G1 X123.662 Y143.599 E8.26353
G1 X123.042 Y143.809 E8.28748
G1 X122.302 Y143.979 E8.31526
G1 X121.712 Y144.059 E8.33705
G1 X121.112 Y144.099 E8.35905
G1 X120.512 Y144.079 E8.38101
G1 X120.222 Y144.049 E8.39168
G1 X119.442 Y143.919 E8.42061
G1 X118.842 Y143.759 E8.44333
G1 X118.142 Y143.499 E8.47065
G1 X117.362 Y143.109 E8.50256
G1 X100.042 Y133.109 E9.23427
G1 X99.622 Y132.849 E9.25235
G1 X99.222 Y132.549 E9.27064
G1 X98.662 Y132.069 E9.29762
G1 X98.232 Y131.629 E9.32013
G1 X97.842 Y131.149 E9.34276
G1 X97.572 Y130.749 E9.36042
G1 X97.012 Y129.749 E9.40235
G1 X96.652 Y128.749 E9.44124
G1 X87.172 Y95.159 E10.71819
G1 X87.092 Y94.859 E10.72955
G1 X86.982 Y94.249 E10.75223
G1 X86.942 Y93.949 E10.76330
G1 X86.912 Y93.329 E10.78601
G1 X86.922 Y72.349 E11.55360
G1 X86.972 Y71.799 E11.57381
G1 X87.062 Y71.249 E11.59420
G1 X87.192 Y70.709 E11.61452
G1 X87.372 Y70.189 E11.63465
G1 X87.592 Y69.679 E11.65497
G1 X87.722 Y69.429 E11.66528
G1 X88.002 Y68.959 E11.68530
G1 X88.257 Y68.598 E11.70146
G1 F1800.000 E10.70146
G1 Z0.700
G92 E0
G1 X101.098 Y81.420 F9900.000
G1 Z0.400
G1 F1800.000 E1.00000
G1 X101.446 Y81.075 F540.000 E1.01794
G1 X101.848 Y80.794 E1.03588
G1 X102.288 Y80.589 E1.05362
G1 X102.762 Y80.460 E1.07158
G1 X103.250 Y80.417 E1.08951
G1 X103.741 Y80.460 E1.10755
G1 X104.212 Y80.589 E1.12540
G1 X104.654 Y80.794 E1.14323
G1 X105.055 Y81.076 E1.16118
G1 X105.404 Y81.422 E1.17916
G1 X105.683 Y81.827 E1.19715
G1 X105.888 Y82.266 E1.21487
G1 X106.016 Y82.737 E1.23275
G1 X106.060 Y83.224 E1.25063
G1 X106.017 Y83.719 E1.26880
G1 X105.888 Y84.188 E1.28659
G1 X105.683 Y84.630 E1.30441
G1 X105.403 Y85.034 E1.32240
G1 X105.055 Y85.378 E1.34030
G1 X104.651 Y85.662 E1.35837
G1 X104.212 Y85.863 E1.37605
G1 X103.737 Y85.995 E1.39406
G1 X103.250 Y86.032 E1.41196
G1 X102.765 Y85.995 E1.42972
G1 X102.288 Y85.863 E1.44785
G1 X101.851 Y85.662 E1.46542
G1 X101.446 Y85.379 E1.48350
G1 X101.100 Y85.036 E1.50136
G1 X100.812 Y84.627 E1.51964
G1 X100.614 Y84.184 E1.53738
G1 X100.483 Y83.719 E1.55509
G1 X100.443 Y83.224 E1.57324
G1 X100.483 Y82.738 E1.59110
G1 X100.614 Y82.269 E1.60890
G1 X100.812 Y81.830 E1.62653
G1 X101.035 Y81.510 E1.64079
G1 X101.663 Y81.895 F9900.000
G1 X101.919 Y81.642 F540.000 E1.65397
G1 X102.217 Y81.433 E1.66728
G1 X102.541 Y81.282 E1.68035
G1 X102.891 Y81.187 E1.69361
G1 X103.250 Y81.156 E1.70679
G1 X103.611 Y81.187 E1.72005
G1 X103.959 Y81.282 E1.73323
G1 X104.285 Y81.433 E1.74638
G1 X104.581 Y81.642 E1.75964
G1 X104.837 Y81.896 E1.77284
G1 X105.042 Y82.194 E1.78607
G1 X105.195 Y82.520 E1.79924
G1 X105.289 Y82.868 E1.81243
G1 X105.321 Y83.225 E1.82554
G1 X105.290 Y83.588 E1.83889
G1 X105.195 Y83.934 E1.85201
G1 X105.042 Y84.263 E1.86526
G1 X104.837 Y84.559 E1.87844
G1 X104.581 Y84.812 E1.89162
G1 X104.284 Y85.021 E1.90492
G1 X103.959 Y85.170 E1.91800
G1 X103.610 Y85.267 E1.93124
G1 X103.250 Y85.294 E1.94445
G1 X102.892 Y85.267 E1.95756
G1 X102.541 Y85.170 E1.97089
G1 X102.218 Y85.021 E1.98389
G1 X101.919 Y84.812 E1.99724
G1 X101.664 Y84.559 E2.01040
G1 X101.455 Y84.262 E2.02371
G1 X101.307 Y83.933 E2.03689
G1 X101.210 Y83.588 E2.04999
G1 X101.181 Y83.225 E2.06333
G1 X101.210 Y82.868 E2.07643
G1 X101.307 Y82.521 E2.08961
G1 X101.455 Y82.195 E2.10272
G1 X101.600 Y81.986 E2.11203
G1 X101.551 Y81.553 F9900.000
G1 X100.844 Y83.224
G1 X103.012 Y85.409
G1 X103.441 Y85.441
G1 X119.694 Y85.441
G1 X133.347 Y83.224
G1 X132.946 Y83.224
G1 X132.982 Y82.745 F540.000 E2.12961
G1 X133.111 Y82.269 E2.14766
G1 X133.316 Y81.824 E2.16556
G1 X133.602 Y81.418 E2.18376
G1 X133.945 Y81.078 E2.20144
G1 X134.345 Y80.794 E2.21938
G1 X134.792 Y80.588 E2.23738
G1 X135.260 Y80.461 E2.25513
G1 X135.747 Y80.417 E2.27301
G1 X136.242 Y80.460 E2.29117
G1 X136.709 Y80.589 E2.30890
G1 X137.153 Y80.793 E2.32677
G1 X137.557 Y81.078 E2.34488
G1 X137.899 Y81.420 E2.36257
G1 X138.186 Y81.827 E2.38081
G1 X138.386 Y82.269 E2.39855
G1 X138.518 Y82.741 E2.41648
G1 X138.554 Y83.224 E2.43421
G1 X138.518 Y83.715 E2.45222
G1 X138.386 Y84.184 E2.47006
G1 X138.186 Y84.630 E2.48792
G1 X137.898 Y85.036 E2.50614
G1 X137.557 Y85.376 E2.52376
G1 X137.150 Y85.663 E2.54199
G1 X136.709 Y85.863 E2.55969
G1 X136.238 Y85.995 E2.57759
G1 X135.747 Y86.031 E2.59560
G1 X135.264 Y85.995 E2.61333
G1 X134.792 Y85.863 E2.63126
G1 X134.348 Y85.662 E2.64908
G1 X133.945 Y85.376 E2.66716
G1 X133.604 Y85.038 E2.68475
G1 X133.316 Y84.632 E2.70295
G1 X133.111 Y84.184 E2.72097
G1 X132.981 Y83.711 E2.73891
G1 X132.954 Y83.334 E2.75275
G1 X133.683 Y83.225 F9900.000
G1 X133.710 Y82.870 F540.000 E2.76575
G1 X133.805 Y82.521 E2.77900
G1 X133.956 Y82.193 E2.79221
G1 X134.166 Y81.895 E2.80556
G1 X134.420 Y81.643 E2.81866
G1 X134.715 Y81.433 E2.83189
G1 X135.044 Y81.282 E2.84513
G1 X135.391 Y81.188 E2.85828
G1 X135.748 Y81.156 E2.87139
G1 X136.111 Y81.187 E2.88474
G1 X136.456 Y81.282 E2.89784
G1 X136.784 Y81.433 E2.91104
G1 X137.082 Y81.643 E2.92436
G1 X137.334 Y81.895 E2.93743
G1 X137.545 Y82.194 E2.95079
G1 X137.693 Y82.521 E2.96393
G1 X137.790 Y82.869 E2.97715
G1 X137.817 Y83.225 E2.99020
G1 X137.790 Y83.587 E3.00349
G1 X137.693 Y83.933 E3.01664
G1 X137.545 Y84.263 E3.02986
G1 X137.334 Y84.559 E3.04318
G1 X137.082 Y84.811 E3.05622
G1 X136.783 Y85.022 E3.06958
G1 X136.456 Y85.170 E3.08271
G1 X136.110 Y85.267 E3.09587
G1 X135.748 Y85.294 E3.10917
G1 X135.392 Y85.267 E3.12222
G1 X135.044 Y85.170 E3.13544
G1 X134.716 Y85.021 E3.14861
G1 X134.420 Y84.811 E3.16187
G1 X134.167 Y84.560 E3.17495
G1 X133.956 Y84.263 E3.18825
G1 X133.805 Y83.933 E3.20155
G1 X133.710 Y83.586 E3.21471
G1 X133.691 Y83.335 E3.22393
G1 X133.380 Y83.039 F9900.000
G1 X122.307 Y83.224
G1 X122.267 Y83.719 F540.000 E3.24208
G1 X122.136 Y84.184 E3.25978
G1 X121.938 Y84.627 E3.27752
G1 X121.649 Y85.038 E3.29590
G1 X121.302 Y85.378 E3.31366
G1 X120.903 Y85.662 E3.33158
G1 X120.461 Y85.863 E3.34937
G1 X119.985 Y85.995 E3.36743
G1 X119.503 Y86.031 E3.38512
G1 X119.013 Y85.995 E3.40309
G1 X118.537 Y85.862 E3.42117
G1 X118.099 Y85.662 E3.43879
G1 X117.699 Y85.379 E3.45671
G1 X117.351 Y85.038 E3.47454
G1 X117.064 Y84.630 E3.49280
G1 X116.860 Y84.181 E3.51083
G1 X116.736 Y83.719 E3.52835
G1 X116.690 Y83.224 E3.54653
G1 X116.736 Y82.737 E3.56441
G1 X116.860 Y82.272 E3.58201
G1 X117.064 Y81.827 E3.59994
G1 X117.350 Y81.418 E3.61820
G1 X117.699 Y81.075 E3.63612
G1 X118.097 Y80.795 E3.65390
G1 X118.537 Y80.589 E3.67168
G1 X119.009 Y80.460 E3.68960
G1 X119.503 Y80.417 E3.70773
G1 X119.989 Y80.461 E3.72556
G1 X120.461 Y80.588 E3.74346
G1 X120.906 Y80.794 E3.76141
G1 X121.302 Y81.076 E3.77920
G1 X121.650 Y81.418 E3.79704
G1 X121.938 Y81.830 E3.81542
G1 X122.136 Y82.269 E3.83306
G1 X122.267 Y82.737 E3.85085
G1 X122.298 Y83.114 E3.86468
G1 X121.569 Y83.225 F9900.000
G1 X121.540 Y83.588 F540.000 E3.87802
G1 X121.443 Y83.933 E3.89112
G1 X121.295 Y84.262 E3.90431
G1 X121.086 Y84.560 E3.91765
G1 X120.829 Y84.812 E3.93081
G1 X120.534 Y85.021 E3.94402
G1 X120.208 Y85.170 E3.95714
G1 X119.858 Y85.267 E3.97045
G1 X119.502 Y85.294 E3.98349
G1 X119.140 Y85.267 E3.99677
G1 X118.791 Y85.169 E4.01004
G1 X118.468 Y85.021 E4.02304
G1 X118.172 Y84.812 E4.03630
G1 X117.914 Y84.560 E4.04949
G1 X117.705 Y84.263 E4.06279
G1 X117.555 Y83.932 E4.07609
G1 X117.463 Y83.588 E4.08910
G1 X117.429 Y83.225 E4.10246
G1 X117.463 Y82.868 E4.11558
G1 X117.555 Y82.522 E4.12866
G1 X117.705 Y82.194 E4.14188
G1 X117.914 Y81.895 E4.15522
G1 X118.172 Y81.642 E4.16844
G1 X118.467 Y81.434 E4.18165
G1 X118.791 Y81.282 E4.19474
G1 X119.139 Y81.187 E4.20794
G1 X119.502 Y81.156 E4.22128
G1 X119.859 Y81.188 E4.23437
G1 X120.208 Y81.282 E4.24761
G1 X120.535 Y81.433 E4.26080
G1 X120.829 Y81.642 E4.27398
G1 X121.086 Y81.895 E4.28716
G1 X121.295 Y82.195 E4.30055
G1 X121.443 Y82.521 E4.31365
G1 X121.540 Y82.868 E4.32682
G1 X121.560 Y83.115 E4.33589
G1 X121.880 Y83.415 F9900.000
G1 X126.630 Y103.406
G1 X127.124 Y103.361 F540.000 E4.35403
G1 X127.618 Y103.406 E4.37218
G1 X128.098 Y103.531 E4.39034
G1 X128.552 Y103.744 E4.40869
G1 X128.961 Y104.029 E4.42691
G1 X129.311 Y104.382 E4.44510
G1 X129.602 Y104.791 E4.46346
G1 X129.808 Y105.241 E4.48158
G1 X129.942 Y105.722 E4.49982
G1 X129.981 Y106.219 E4.51807
G1 X129.942 Y106.716 E4.53630
G1 X129.808 Y107.198 E4.55461
G1 X129.602 Y107.649 E4.57277
G1 X129.308 Y108.062 E4.59132
G1 X128.959 Y108.408 E4.60929
G1 X128.549 Y108.696 E4.62761
G1 X128.102 Y108.901 E4.64561
G1 X127.625 Y109.034 E4.66373
G1 X127.124 Y109.076 E4.68213
G1 X126.623 Y109.034 E4.70052
G1 X126.148 Y108.901 E4.71857
G1 X125.696 Y108.696 E4.73672
G1 X125.288 Y108.406 E4.75504
G1 X124.936 Y108.058 E4.77315
G1 X124.649 Y107.646 E4.79150
G1 X124.443 Y107.201 E4.80946
G1 X124.309 Y106.719 E4.82776
G1 X124.267 Y106.219 E4.84612
G1 X124.309 Y105.718 E4.86452
G1 X124.443 Y105.238 E4.88275
G1 X124.649 Y104.794 E4.90067
G1 X124.933 Y104.386 E4.91883
G1 X125.286 Y104.030 E4.93716
G1 X125.693 Y103.744 E4.95538
G1 X126.151 Y103.530 E4.97388
G1 X126.523 Y103.434 E4.98795
G1 X126.757 Y104.133 F9900.000
G1 X127.124 Y104.100 F540.000 E5.00144
G1 X127.491 Y104.133 E5.01494
G1 X127.847 Y104.226 E5.02839
G1 X128.183 Y104.383 E5.04195
G1 X128.486 Y104.594 E5.05546
G1 X128.746 Y104.857 E5.06900
G1 X128.962 Y105.160 E5.08261
G1 X129.115 Y105.494 E5.09605
G1 X129.214 Y105.851 E5.10957
G1 X129.243 Y106.219 E5.12310
G1 X129.214 Y106.587 E5.13661
G1 X129.115 Y106.945 E5.15021
G1 X128.962 Y107.280 E5.16366
G1 X128.745 Y107.584 E5.17733
G1 X128.485 Y107.842 E5.19073
G1 X128.182 Y108.055 E5.20430
G1 X127.849 Y108.208 E5.21770
G1 X127.494 Y108.307 E5.23118
G1 X127.124 Y108.338 E5.24476
G1 X126.754 Y108.307 E5.25833
G1 X126.400 Y108.208 E5.27179
G1 X126.064 Y108.055 E5.28529
G1 X125.763 Y107.841 E5.29881
G1 X125.501 Y107.583 E5.31226
G1 X125.290 Y107.279 E5.32581
G1 X125.136 Y106.946 E5.33922
G1 X125.036 Y106.588 E5.35281
G1 X125.005 Y106.219 E5.36637
G1 X125.036 Y105.849 E5.37995
G1 X125.136 Y105.493 E5.39347
G1 X125.290 Y105.161 E5.40686
G1 X125.500 Y104.859 E5.42034
G1 X125.762 Y104.595 E5.43394
G1 X126.063 Y104.383 E5.44740
G1 X126.401 Y104.225 E5.46105
G1 X126.650 Y104.161 E5.47046
G1 X126.893 Y103.791 F9900.000
G1 X127.124 Y103.937
G1 X125.635 Y104.478
G1 X124.833 Y106.195
G1 X119.863 Y120.319
G1 X119.554 Y119.339
G1 X119.955 Y119.620 F540.000 E5.48837
G1 X120.311 Y119.970 E5.50663
G1 X120.599 Y120.384 E5.52507
G1 X120.807 Y120.832 E5.54316
G1 X120.936 Y121.311 E5.56129
G1 X120.982 Y121.809 E5.57959
G1 X120.936 Y122.308 E5.59794
G1 X120.807 Y122.789 E5.61616
G1 X120.599 Y123.238 E5.63428
G1 X120.311 Y123.652 E5.65272
G1 X119.955 Y124.001 E5.67097
G1 X119.554 Y124.284 E5.68890
G1 X119.102 Y124.498 E5.70719
G1 X118.612 Y124.627 E5.72575
G1 X118.125 Y124.666 E5.74363
G1 X117.631 Y124.627 E5.76174
G1 X117.148 Y124.498 E5.78003
G1 X116.691 Y124.286 E5.79845
G1 X116.281 Y123.997 E5.81683
G1 X115.937 Y123.650 E5.83470
G1 X115.648 Y123.244 E5.85294
G1 X115.437 Y122.789 E5.87129
G1 X115.306 Y122.301 E5.88977
G1 X115.267 Y121.809 E5.90784
G1 X115.306 Y121.318 E5.92586
G1 X115.437 Y120.832 E5.94426
G1 X115.648 Y120.378 E5.96257
G1 X115.937 Y119.972 E5.98081
G1 X116.281 Y119.625 E5.99868
G1 X116.692 Y119.336 E6.01706
G1 X117.148 Y119.124 E6.03548
G1 X117.624 Y118.997 E6.05350
G1 X118.125 Y118.951 E6.07189
G1 X118.619 Y118.997 E6.09005
G1 X119.102 Y119.124 E6.10834
G1 X119.455 Y119.291 E6.12261
G1 X119.182 Y119.976 F9900.000
G1 X119.482 Y120.187 F540.000 E6.13604
G1 X119.746 Y120.447 E6.14957
G1 X119.958 Y120.751 E6.16315
G1 X120.113 Y121.085 E6.17660
G1 X120.209 Y121.442 E6.19012
G1 X120.243 Y121.809 E6.20362
G1 X120.209 Y122.178 E6.21718
G1 X120.113 Y122.537 E6.23078
G1 X119.958 Y122.871 E6.24424
G1 X119.746 Y123.175 E6.25782
G1 X119.482 Y123.434 E6.27135
G1 X119.182 Y123.646 E6.28479
G1 X118.849 Y123.804 E6.29828
G1 X118.488 Y123.899 E6.31193
G1 X118.124 Y123.928 E6.32528
G1 X117.756 Y123.899 E6.33881
G1 X117.400 Y123.804 E6.35227
G1 X117.061 Y123.647 E6.36595
G1 X116.758 Y123.433 E6.37953
G1 X116.502 Y123.175 E6.39283
G1 X116.287 Y122.873 E6.40640
G1 X116.131 Y122.537 E6.41993
G1 X116.034 Y122.176 E6.43362
G1 X116.005 Y121.809 E6.44708
G1 X116.034 Y121.444 E6.46048
G1 X116.131 Y121.085 E6.47409
G1 X116.287 Y120.749 E6.48761
G1 X116.502 Y120.447 E6.50118
G1 X116.758 Y120.189 E6.51448
G1 X117.061 Y119.975 E6.52807
G1 X117.400 Y119.818 E6.54174
G1 X117.753 Y119.724 E6.55511
G1 X118.124 Y119.690 E6.56874
G1 X118.490 Y119.724 E6.58219
G1 X118.849 Y119.818 E6.59576
G1 X119.082 Y119.929 E6.60522
G1 X119.506 Y119.803 F9900.000
G1 X124.135 Y130.378
G1 X120.847 Y136.072 F900.000 E6.84576
G1 X104.411 Y126.582 E7.54015
G1 X115.267 Y107.771 E8.33477
G1 X115.583 Y106.257 E8.39137
G1 X115.714 Y104.642 E8.45064
G1 X115.626 Y103.019 E8.51013
G1 X115.325 Y101.421 E8.56961
G1 X114.810 Y99.877 E8.62916
G1 X114.090 Y98.413 E8.68885
G1 X113.970 Y98.235 E8.69671
G1 X113.184 Y97.065 E8.74828
G1 X112.105 Y95.846 E8.80785
G1 X110.875 Y94.785 E8.86727
G1 X109.511 Y93.899 E8.92678
G1 X108.039 Y93.203 E8.98634
G1 X106.577 Y92.719 E9.04269
G1 X94.756 Y92.721 E9.47519
G1 X94.759 Y73.735 E10.16985
G1 X109.783 Y73.736 E10.71951
G1 X111.739 Y73.621 E10.79121
G1 X113.702 Y73.260 E10.86422
G1 X115.604 Y72.668 E10.93709
G1 X117.425 Y71.851 E11.01013
G1 X119.132 Y70.819 E11.08310
G1 X120.700 Y69.588 E11.15605
G1 X121.588 Y68.700 E11.20199
G1 X122.111 Y68.177 E11.22905
G1 X123.340 Y66.608 E11.30195
G1 X124.374 Y64.902 E11.37495
G1 X125.191 Y63.082 E11.44795
G1 X125.785 Y61.179 E11.52090
G1 X126.143 Y59.218 E11.59382
G1 X126.261 Y57.259 E11.66560
G1 X126.261 Y39.332 E12.32149
G1 X145.238 Y39.332 E13.01582
G1 X145.241 Y93.824 E15.00947
G1 X124.190 Y130.283 E16.54977
G1 X124.772 Y130.746 F9900.000
G1 X121.236 Y136.870 F630.000 E16.80849
G1 X121.146 Y136.962 E16.81319
G1 X120.998 Y136.988 E16.81868
G1 X120.904 Y136.955 E16.82232
G1 X103.614 Y126.972 E17.55277
G1 X103.543 Y126.922 E17.55595
G1 X103.499 Y126.840 E17.55936
G1 X103.498 Y126.702 E17.56441
G1 X103.526 Y126.643 E17.56678
