; generated by Slic3r 0.9.9-dev on 2013-08-08 at 21:11:45

; layer_height = 0.3
; perimeters = 2
; top_solid_layers = 4
; bottom_solid_layers = 4
; fill_density = 0.25
; perimeter_speed = 50
; infill_speed = 50
; travel_speed = 165
; nozzle_diameter = 0.5
; filament_diameter = 3
; extrusion_multiplier = 1
; perimeters extrusion width = 0.70mm
; infill extrusion width = 0.70mm
; solid infill extrusion width = 0.70mm
; top infill extrusion width = 0.70mm
; first layer extrusion width = 0.80mm

G21 ; set units to millimeters
M107
M190 S70 ; wait for bed temperature to be reached
M104 S195 ; set temperature
;G28 ; home all axes
;G1 Z5 F5000 ; lift nozzle
M109 S195 ; wait for temperature to be reached
G90 ; use absolute coordinates
G92 E0
M82 ; use absolute distances for extrusion
G1 F1800.000 E-1.00000
G1 Z0.700
G92 E0
G1 X88.322 Y68.509 F9900.000
G1 Z0.400
G1 F1800.000 E1.00000
G1 X88.682 Y68.079 F900.000 E1.02334
G1 X120.182 Y33.679 E2.96500
G1 X120.582 Y33.289 E2.98825
G1 X121.002 Y32.919 E3.01155
G1 X121.462 Y32.599 E3.03488
G1 X121.932 Y32.309 E3.05787
G1 X122.182 Y32.179 E3.06960
G1 X122.692 Y31.959 E3.09272
G1 X123.492 Y31.699 E3.12774
G1 X124.312 Y31.549 E3.16244
G1 X125.152 Y31.489 E3.19749
G1 X146.332 Y31.489 E4.07916
G1 X147.142 Y31.539 E4.11295
G1 X147.942 Y31.689 E4.14683
G1 X148.462 Y31.839 E4.16936
G1 X148.972 Y32.029 E4.19201
G1 X149.222 Y32.139 E4.20338
G1 X149.702 Y32.399 E4.22611
G1 X150.382 Y32.839 E4.25982
G1 X151.002 Y33.369 E4.29378
G1 X151.552 Y33.969 E4.32766
G1 X151.872 Y34.399 E4.34997
G1 X152.292 Y35.099 E4.38395
G1 X152.532 Y35.589 E4.40667
G1 X152.632 Y35.839 E4.41788
G1 X152.872 Y36.619 E4.45185
G1 X153.022 Y37.419 E4.48573
G1 X153.072 Y38.229 E4.51951
G1 X153.082 Y94.119 E6.84608
G1 X153.022 Y94.999 E6.88279
G1 X152.922 Y95.579 E6.90729
G1 X152.852 Y95.859 E6.91931
G1 X152.672 Y96.419 E6.94379
G1 X152.562 Y96.699 E6.95632
G1 X152.172 Y97.489 E6.99299
G1 X127.372 Y140.429 E9.05718
G1 X127.082 Y140.889 E9.07982
G1 X126.682 Y141.429 E9.10779
G1 X126.232 Y141.929 E9.13579
G1 X125.982 Y142.159 E9.14994
G1 X125.572 Y142.509 E9.17238
G1 X124.992 Y142.929 E9.20219
G1 X124.692 Y143.109 E9.21675
G1 X124.062 Y143.439 E9.24635
G1 X123.662 Y143.599 E9.26429
G1 X123.042 Y143.809 E9.29154
G1 X122.302 Y143.979 E9.32314
G1 X121.712 Y144.059 E9.34793
G1 X121.112 Y144.099 E9.37296
G1 X120.512 Y144.079 E9.39795
G1 X120.222 Y144.049 E9.41009
G1 X119.442 Y143.919 E9.44301
G1 X118.842 Y143.759 E9.46885
G1 X118.142 Y143.499 E9.49994
G1 X117.362 Y143.109 E9.53624
G1 X100.042 Y133.109 E10.36877
G1 X99.622 Y132.849 E10.38934
G1 X99.222 Y132.549 E10.41015
G1 X98.662 Y132.069 E10.44085
G1 X98.232 Y131.629 E10.46646
G1 X97.842 Y131.149 E10.49221
G1 X97.572 Y130.749 E10.51230
G1 X97.012 Y129.749 E10.56001
G1 X96.652 Y128.749 E10.60425
G1 X87.172 Y95.159 E12.05714
G1 X87.092 Y94.859 E12.07007
G1 X86.982 Y94.249 E12.09587
G1 X86.942 Y93.949 E12.10847
G1 X86.912 Y93.329 E12.13431
G1 X86.922 Y72.349 E13.00765
G1 X86.972 Y71.799 E13.03064
G1 X87.062 Y71.249 E13.05384
G1 X87.192 Y70.709 E13.07696
G1 X87.372 Y70.189 E13.09987
G1 X87.592 Y69.679 E13.12299
G1 X87.722 Y69.429 E13.13472
G1 X88.002 Y68.959 E13.15749
G1 X88.257 Y68.598 E13.17589
G1 F1800.000 E12.17589
G1 Z0.700
G92 E0
G1 X101.098 Y81.420 F9900.000
G1 Z0.400
G1 F1800.000 E1.00000
G1 X101.446 Y81.075 F540.000 E1.02041
G1 X101.848 Y80.794 E1.04083
G1 X102.288 Y80.589 E1.06101
G1 X102.762 Y80.460 E1.08144
G1 X103.250 Y80.417 E1.10184
G1 X103.741 Y80.460 E1.12237
G1 X104.212 Y80.589 E1.14267
G1 X104.654 Y80.794 E1.16297
G1 X105.055 Y81.076 E1.18339
G1 X105.404 Y81.422 E1.20384
G1 X105.683 Y81.827 E1.22432
G1 X105.888 Y82.266 E1.24447
G1 X106.016 Y82.737 E1.26482
G1 X106.060 Y83.224 E1.28516
G1 X106.017 Y83.719 E1.30583
G1 X105.888 Y84.188 E1.32607
G1 X105.683 Y84.630 E1.34635
G1 X105.403 Y85.034 E1.36682
G1 X105.055 Y85.378 E1.38718
G1 X104.651 Y85.662 E1.40775
G1 X104.212 Y85.863 E1.42786
G1 X103.737 Y85.995 E1.44835
G1 X103.250 Y86.032 E1.46871
G1 X102.765 Y85.995 E1.48893
G1 X102.288 Y85.863 E1.50955
G1 X101.851 Y85.662 E1.52955
G1 X101.446 Y85.379 E1.55012
G1 X101.100 Y85.036 E1.57044
G1 X100.812 Y84.627 E1.59123
G1 X100.614 Y84.184 E1.61142
G1 X100.483 Y83.719 E1.63157
G1 X100.443 Y83.224 E1.65222
G1 X100.483 Y82.738 E1.67254
G1 X100.614 Y82.269 E1.69280
G1 X100.812 Y81.830 E1.71286
G1 X101.035 Y81.510 E1.72907
G1 X101.663 Y81.895 F9900.000
G1 X101.919 Y81.642 F540.000 E1.74408
G1 X102.217 Y81.433 E1.75921
G1 X102.541 Y81.282 E1.77409
G1 X102.891 Y81.187 E1.78917
G1 X103.250 Y81.156 E1.80417
G1 X103.611 Y81.187 E1.81925
G1 X103.959 Y81.282 E1.83425
G1 X104.285 Y81.433 E1.84921
G1 X104.581 Y81.642 E1.86430
G1 X104.837 Y81.896 E1.87932
G1 X105.042 Y82.194 E1.89437
G1 X105.195 Y82.520 E1.90936
G1 X105.289 Y82.868 E1.92437
G1 X105.321 Y83.225 E1.93928
G1 X105.290 Y83.588 E1.95447
G1 X105.195 Y83.934 E1.96939
G1 X105.042 Y84.263 E1.98447
G1 X104.837 Y84.559 E1.99947
G1 X104.581 Y84.812 E2.01446
G1 X104.284 Y85.021 E2.02960
G1 X103.959 Y85.170 E2.04448
G1 X103.610 Y85.267 E2.05955
G1 X103.250 Y85.294 E2.07457
G1 X102.892 Y85.267 E2.08949
G1 X102.541 Y85.170 E2.10466
G1 X102.218 Y85.021 E2.11945
G1 X101.919 Y84.812 E2.13464
G1 X101.664 Y84.559 E2.14961
G1 X101.455 Y84.262 E2.16475
G1 X101.307 Y83.933 E2.17975
G1 X101.210 Y83.588 E2.19466
G1 X101.181 Y83.225 E2.20984
G1 X101.210 Y82.868 E2.22474
G1 X101.307 Y82.521 E2.23974
G1 X101.455 Y82.195 E2.25464
G1 X101.600 Y81.986 E2.26524
G1 X101.551 Y81.553 F9900.000
G1 X100.844 Y83.224
G1 X103.012 Y85.409
G1 X103.441 Y85.441
G1 X119.694 Y85.441
G1 X133.347 Y83.224
G1 X132.946 Y83.224
G1 X132.982 Y82.745 F540.000 E2.28525
G1 X133.111 Y82.269 E2.30578
G1 X133.316 Y81.824 E2.32615
G1 X133.602 Y81.418 E2.34686
G1 X133.945 Y81.078 E2.36697
G1 X134.345 Y80.794 E2.38738
G1 X134.792 Y80.588 E2.40786
G1 X135.260 Y80.461 E2.42806
G1 X135.747 Y80.417 E2.44840
G1 X136.242 Y80.460 E2.46906
G1 X136.709 Y80.589 E2.48924
G1 X137.153 Y80.793 E2.50957
G1 X137.557 Y81.078 E2.53017
G1 X137.899 Y81.420 E2.55031
G1 X138.186 Y81.827 E2.57105
G1 X138.386 Y82.269 E2.59124
G1 X138.518 Y82.741 E2.61164
G1 X138.554 Y83.224 E2.63181
G1 X138.518 Y83.715 E2.65230
G1 X138.386 Y84.184 E2.67260
G1 X138.186 Y84.630 E2.69292
G1 X137.898 Y85.036 E2.71366
G1 X137.557 Y85.376 E2.73370
G1 X137.150 Y85.663 E2.75444
G1 X136.709 Y85.863 E2.77458
G1 X136.238 Y85.995 E2.79494
G1 X135.747 Y86.031 E2.81544
G1 X135.264 Y85.995 E2.83561
G1 X134.792 Y85.863 E2.85601
G1 X134.348 Y85.662 E2.87629
G1 X133.945 Y85.376 E2.89686
G1 X133.604 Y85.038 E2.91687
G1 X133.316 Y84.632 E2.93758
G1 X133.111 Y84.184 E2.95808
G1 X132.981 Y83.711 E2.97849
G1 X132.954 Y83.334 E2.99424
G1 X133.683 Y83.225 F9900.000
G1 X133.710 Y82.870 F540.000 E3.00904
G1 X133.805 Y82.521 E3.02411
G1 X133.956 Y82.193 E3.03914
G1 X134.166 Y81.895 E3.05433
G1 X134.420 Y81.643 E3.06924
G1 X134.715 Y81.433 E3.08428
G1 X135.044 Y81.282 E3.09935
G1 X135.391 Y81.188 E3.11431
G1 X135.748 Y81.156 E3.12923
G1 X136.111 Y81.187 E3.14442
G1 X136.456 Y81.282 E3.15932
G1 X136.784 Y81.433 E3.17434
G1 X137.082 Y81.643 E3.18949
G1 X137.334 Y81.895 E3.20436
G1 X137.545 Y82.194 E3.21956
G1 X137.693 Y82.521 E3.23451
G1 X137.790 Y82.869 E3.24956
G1 X137.817 Y83.225 E3.26441
G1 X137.790 Y83.587 E3.27953
G1 X137.693 Y83.933 E3.29448
G1 X137.545 Y84.263 E3.30953
G1 X137.334 Y84.559 E3.32468
G1 X137.082 Y84.811 E3.33953
G1 X136.783 Y85.022 E3.35472
G1 X136.456 Y85.170 E3.36966
G1 X136.110 Y85.267 E3.38464
G1 X135.748 Y85.294 E3.39976
G1 X135.392 Y85.267 E3.41461
G1 X135.044 Y85.170 E3.42965
G1 X134.716 Y85.021 E3.44464
G1 X134.420 Y84.811 E3.45973
G1 X134.167 Y84.560 E3.47460
G1 X133.956 Y84.263 E3.48975
G1 X133.805 Y83.933 E3.50488
G1 X133.710 Y83.586 E3.51985
G1 X133.691 Y83.335 E3.53033
G1 X133.380 Y83.039 F9900.000
G1 X122.307 Y83.224
G1 X122.267 Y83.719 F540.000 E3.55098
G1 X122.136 Y84.184 E3.57113
G1 X121.938 Y84.627 E3.59132
G1 X121.649 Y85.038 E3.61223
G1 X121.302 Y85.378 E3.63243
G1 X120.903 Y85.662 E3.65282
G1 X120.461 Y85.863 E3.67306
G1 X119.985 Y85.995 E3.69361
G1 X119.503 Y86.031 E3.71374
G1 X119.013 Y85.995 E3.73419
G1 X118.537 Y85.862 E3.75476
G1 X118.099 Y85.662 E3.77480
G1 X117.699 Y85.379 E3.79519
G1 X117.351 Y85.038 E3.81548
G1 X117.064 Y84.630 E3.83625
G1 X116.860 Y84.181 E3.85677
G1 X116.736 Y83.719 E3.87670
G1 X116.690 Y83.224 E3.89738
G1 X116.736 Y82.737 E3.91773
G1 X116.860 Y82.272 E3.93776
G1 X117.064 Y81.827 E3.95816
G1 X117.350 Y81.418 E3.97893
G1 X117.699 Y81.075 E3.99931
G1 X118.097 Y80.795 E4.01955
G1 X118.537 Y80.589 E4.03978
G1 X119.009 Y80.460 E4.06016
G1 X119.503 Y80.417 E4.08079
G1 X119.989 Y80.461 E4.10109
G1 X120.461 Y80.588 E4.12144
G1 X120.906 Y80.794 E4.14187
G1 X121.302 Y81.076 E4.16212
G1 X121.650 Y81.418 E4.18241
G1 X121.938 Y81.830 E4.20332
G1 X122.136 Y82.269 E4.22339
G1 X122.267 Y82.737 E4.24363
G1 X122.298 Y83.114 E4.25937
G1 X121.569 Y83.225 F9900.000
G1 X121.540 Y83.588 F540.000 E4.27455
G1 X121.443 Y83.933 E4.28945
G1 X121.295 Y84.262 E4.30445
G1 X121.086 Y84.560 E4.31963
G1 X120.829 Y84.812 E4.33461
G1 X120.534 Y85.021 E4.34965
G1 X120.208 Y85.170 E4.36456
G1 X119.858 Y85.267 E4.37971
G1 X119.502 Y85.294 E4.39454
G1 X119.140 Y85.267 E4.40965
G1 X118.791 Y85.169 E4.42475
G1 X118.468 Y85.021 E4.43955
G1 X118.172 Y84.812 E4.45463
G1 X117.914 Y84.560 E4.46964
G1 X117.705 Y84.263 E4.48477
G1 X117.555 Y83.932 E4.49991
G1 X117.463 Y83.588 E4.51471
G1 X117.429 Y83.225 E4.52991
G1 X117.463 Y82.868 E4.54483
G1 X117.555 Y82.522 E4.55972
G1 X117.705 Y82.194 E4.57477
G1 X117.914 Y81.895 E4.58994
G1 X118.172 Y81.642 E4.60498
G1 X118.467 Y81.434 E4.62001
G1 X118.791 Y81.282 E4.63490
G1 X119.139 Y81.187 E4.64992
G1 X119.502 Y81.156 E4.66510
G1 X119.859 Y81.188 E4.68000
G1 X120.208 Y81.282 E4.69506
G1 X120.535 Y81.433 E4.71007
G1 X120.829 Y81.642 E4.72506
G1 X121.086 Y81.895 E4.74006
G1 X121.295 Y82.195 E4.75529
G1 X121.443 Y82.521 E4.77020
G1 X121.540 Y82.868 E4.78519
G1 X121.560 Y83.115 E4.79550
G1 X121.880 Y83.415 F9900.000
G1 X126.630 Y103.406
G1 X127.124 Y103.361 F540.000 E4.81614
G1 X127.618 Y103.406 E4.83680
G1 X128.098 Y103.531 E4.85745
G1 X128.552 Y103.744 E4.87833
G1 X128.961 Y104.029 E4.89906
G1 X129.311 Y104.382 E4.91976
G1 X129.602 Y104.791 E4.94065
G1 X129.808 Y105.241 E4.96127
G1 X129.942 Y105.722 E4.98202
G1 X129.981 Y106.219 E5.00278
G1 X129.942 Y106.716 E5.02352
G1 X129.808 Y107.198 E5.04436
G1 X129.602 Y107.649 E5.06501
G1 X129.308 Y108.062 E5.08612
G1 X128.959 Y108.408 E5.10657
G1 X128.549 Y108.696 E5.12742
G1 X128.102 Y108.901 E5.14790
G1 X127.625 Y109.034 E5.16851
G1 X127.124 Y109.076 E5.18944
G1 X126.623 Y109.034 E5.21037
G1 X126.148 Y108.901 E5.23090
G1 X125.696 Y108.696 E5.25156
G1 X125.288 Y108.406 E5.27240
G1 X124.936 Y108.058 E5.29301
G1 X124.649 Y107.646 E5.31388
G1 X124.443 Y107.201 E5.33432
G1 X124.309 Y106.719 E5.35514
G1 X124.267 Y106.219 E5.37603
G1 X124.309 Y105.718 E5.39696
G1 X124.443 Y105.238 E5.41770
G1 X124.649 Y104.794 E5.43810
G1 X124.933 Y104.386 E5.45876
G1 X125.286 Y104.030 E5.47962
G1 X125.693 Y103.744 E5.50035
G1 X126.151 Y103.530 E5.52139
G1 X126.523 Y103.434 E5.53740
G1 X126.757 Y104.133 F9900.000
G1 X127.124 Y104.100 F540.000 E5.55275
G1 X127.491 Y104.133 E5.56810
G1 X127.847 Y104.226 E5.58342
G1 X128.183 Y104.383 E5.59884
G1 X128.486 Y104.594 E5.61421
G1 X128.746 Y104.857 E5.62962
G1 X128.962 Y105.160 E5.64510
G1 X129.115 Y105.494 E5.66039
G1 X129.214 Y105.851 E5.67578
G1 X129.243 Y106.219 E5.69117
G1 X129.214 Y106.587 E5.70654
G1 X129.115 Y106.945 E5.72201
G1 X128.962 Y107.280 E5.73732
G1 X128.745 Y107.584 E5.75287
G1 X128.485 Y107.842 E5.76812
G1 X128.182 Y108.055 E5.78356
G1 X127.849 Y108.208 E5.79880
G1 X127.494 Y108.307 E5.81415
G1 X127.124 Y108.338 E5.82959
G1 X126.754 Y108.307 E5.84504
G1 X126.400 Y108.208 E5.86035
G1 X126.064 Y108.055 E5.87570
G1 X125.763 Y107.841 E5.89109
G1 X125.501 Y107.583 E5.90640
G1 X125.290 Y107.279 E5.92181
G1 X125.136 Y106.946 E5.93707
G1 X125.036 Y106.588 E5.95253
G1 X125.005 Y106.219 E5.96796
G1 X125.036 Y105.849 E5.98340
G1 X125.136 Y105.493 E5.99879
G1 X125.290 Y105.161 E6.01403
G1 X125.500 Y104.859 E6.02937
G1 X125.762 Y104.595 E6.04484
G1 X126.063 Y104.383 E6.06016
G1 X126.401 Y104.225 E6.07569
G1 X126.650 Y104.161 E6.08639
G1 X126.893 Y103.791 F9900.000
G1 X127.124 Y103.937
G1 X125.635 Y104.478
G1 X124.833 Y106.195
G1 X119.863 Y120.319
G1 X119.554 Y119.339
G1 X119.955 Y119.620 F540.000 E6.10677
G1 X120.311 Y119.970 E6.12754
G1 X120.599 Y120.384 E6.14852
G1 X120.807 Y120.832 E6.16910
G1 X120.936 Y121.311 E6.18974
G1 X120.982 Y121.809 E6.21056
G1 X120.936 Y122.308 E6.23143
G1 X120.807 Y122.789 E6.25216
G1 X120.599 Y123.238 E6.27278
G1 X120.311 Y123.652 E6.29376
G1 X119.955 Y124.001 E6.31453
G1 X119.554 Y124.284 E6.33492
G1 X119.102 Y124.498 E6.35574
G1 X118.612 Y124.627 E6.37686
G1 X118.125 Y124.666 E6.39720
G1 X117.631 Y124.627 E6.41781
G1 X117.148 Y124.498 E6.43861
G1 X116.691 Y124.286 E6.45958
G1 X116.281 Y123.997 E6.48048
G1 X115.937 Y123.650 E6.50082
G1 X115.648 Y123.244 E6.52157
G1 X115.437 Y122.789 E6.54244
G1 X115.306 Y122.301 E6.56347
G1 X115.267 Y121.809 E6.58403
G1 X115.306 Y121.318 E6.60453
G1 X115.437 Y120.832 E6.62547
G1 X115.648 Y120.378 E6.64630
G1 X115.937 Y119.972 E6.66705
G1 X116.281 Y119.625 E6.68739
G1 X116.692 Y119.336 E6.70830
G1 X117.148 Y119.124 E6.72926
G1 X117.624 Y118.997 E6.74976
G1 X118.125 Y118.951 E6.77069
G1 X118.619 Y118.997 E6.79134
G1 X119.102 Y119.124 E6.81216
G1 X119.455 Y119.291 E6.82839
G1 X119.182 Y119.976 F9900.000
G1 X119.482 Y120.187 F540.000 E6.84367
G1 X119.746 Y120.447 E6.85907
G1 X119.958 Y120.751 E6.87451
G1 X120.113 Y121.085 E6.88982
G1 X120.209 Y121.442 E6.90520
G1 X120.243 Y121.809 E6.92056
G1 X120.209 Y122.178 E6.93599
G1 X120.113 Y122.537 E6.95147
G1 X119.958 Y122.871 E6.96678
G1 X119.746 Y123.175 E6.98223
G1 X119.482 Y123.434 E6.99763
G1 X119.182 Y123.646 E7.01291
G1 X118.849 Y123.804 E7.02827
G1 X118.488 Y123.899 E7.04380
G1 X118.124 Y123.928 E7.05899
G1 X117.756 Y123.899 E7.07437
G1 X117.400 Y123.804 E7.08970
G1 X117.061 Y123.647 E7.10525
G1 X116.758 Y123.433 E7.12071
G1 X116.502 Y123.175 E7.13585
G1 X116.287 Y122.873 E7.15128
G1 X116.131 Y122.537 E7.16668
G1 X116.034 Y122.176 E7.18225
G1 X116.005 Y121.809 E7.19757
G1 X116.034 Y121.444 E7.21281
G1 X116.131 Y121.085 E7.22830
G1 X116.287 Y120.749 E7.24368
G1 X116.502 Y120.447 E7.25912
G1 X116.758 Y120.189 E7.27426
G1 X117.061 Y119.975 E7.28971
G1 X117.400 Y119.818 E7.30527
G1 X117.753 Y119.724 E7.32049
G1 X118.124 Y119.690 E7.33599
G1 X118.490 Y119.724 E7.35129
G1 X118.849 Y119.818 E7.36673
G1 X119.082 Y119.929 E7.37749
G1 X119.506 Y119.803 F9900.000
G1 X124.135 Y130.378
G1 X120.847 Y136.072 F900.000 E7.65117
G1 X104.411 Y126.582 E8.44124
G1 X115.267 Y107.771 E9.34534
G1 X115.583 Y106.257 E9.40974
G1 X115.714 Y104.642 E9.47718
G1 X115.626 Y103.019 E9.54486
G1 X115.325 Y101.421 E9.61254
G1 X114.810 Y99.877 E9.68029
G1 X114.090 Y98.413 E9.74821
G1 X113.970 Y98.235 E9.75714
G1 X113.184 Y97.065 E9.81583
G1 X112.105 Y95.846 E9.88360
G1 X110.875 Y94.785 E9.95120
G1 X109.511 Y93.899 E10.01891
G1 X108.039 Y93.203 E10.08668
G1 X106.577 Y92.719 E10.15079
G1 X94.756 Y92.721 E10.64289
G1 X94.759 Y73.735 E11.43325
G1 X109.783 Y73.736 E12.05865
G1 X111.739 Y73.621 E12.14022
G1 X113.702 Y73.260 E12.22329
G1 X115.604 Y72.668 E12.30620
G1 X117.425 Y71.851 E12.38930
G1 X119.132 Y70.819 E12.47233
G1 X120.700 Y69.588 E12.55533
G1 X121.588 Y68.700 E12.60760
G1 X122.111 Y68.177 E12.63839
G1 X123.340 Y66.608 E12.72133
G1 X124.374 Y64.902 E12.80438
G1 X125.191 Y63.082 E12.88744
G1 X125.785 Y61.179 E12.97044
G1 X126.143 Y59.218 E13.05341
G1 X126.261 Y57.259 E13.13508
G1 X126.261 Y39.332 E13.88134
G1 X145.238 Y39.332 E14.67133
G1 X145.241 Y93.824 E16.93967
G1 X124.190 Y130.283 E18.69219
G1 X124.772 Y130.746 F9900.000
G1 X121.236 Y136.870 F630.000 E18.98655
G1 X121.146 Y136.962 E18.99190
G1 X120.998 Y136.988 E18.99814
G1 X120.904 Y136.955 E19.00228
G1 X103.614 Y126.972 E19.83338
G1 X103.543 Y126.922 E19.83699
G1 X103.499 Y126.840 E19.84088
G1 X103.498 Y126.702 E19.84661
G1 X103.526 Y126.643 E19.84931
