; generated by Slic3r 0.9.9-dev on 2013-08-11 at 22:34:37

; layer_height = 0.3
; perimeters = 2
; top_solid_layers = 4
; bottom_solid_layers = 4
; fill_density = 0.25
; perimeter_speed = 50
; infill_speed = 50
; travel_speed = 165
; nozzle_diameter = 0.5
; filament_diameter = 3.2
; extrusion_multiplier = 1
; perimeters extrusion width = 0.70mm
; infill extrusion width = 0.70mm
; solid infill extrusion width = 0.70mm
; top infill extrusion width = 0.70mm
; support material extrusion width = 0.70mm
; first layer extrusion width = 0.80mm

G21 ; set units to millimeters
M107
M190 S70 ; wait for bed temperature to be reached
M104 S185 ; set temperature
;G28 ; home all axes
;G1 Z5 F5000 ; lift nozzle
M109 S185 ; wait for temperature to be reached
G90 ; use absolute coordinates
G92 E0
M82 ; use absolute distances for extrusion
G1 F1800.000 E-1.00000
G1 Z0.700
G92 E0
G1 X92.982 Y70.554 F9900.000
G1 Z0.400
G1 F1800.000 E1.00000
G1 X93.702 Y69.704 F900.000 E1.04076
G1 X93.952 Y69.454 E1.05369
G1 X94.802 Y68.734 E1.09445
G1 X95.482 Y68.264 E1.12469
G1 X95.912 Y68.024 E1.14271
G1 X96.452 Y67.764 E1.16464
G1 X97.542 Y67.364 E1.20712
G1 X98.142 Y67.204 E1.22983
G1 X98.972 Y67.074 E1.26057
G1 X99.922 Y67.014 E1.29540
G1 X116.012 Y66.844 E1.88411
G1 X123.982 Y66.844 E2.17571
G1 X140.062 Y67.014 E2.76405
G1 X141.002 Y67.074 E2.79852
G1 X141.532 Y67.144 E2.81808
G1 X141.802 Y67.194 E2.82812
G1 X142.652 Y67.424 E2.86034
G1 X143.382 Y67.694 E2.88882
G1 X143.922 Y67.954 E2.91074
G1 X144.812 Y68.474 E2.94846
G1 X145.502 Y68.964 E2.97942
G1 X145.872 Y69.284 E2.99732
G1 X146.292 Y69.704 E3.01905
G1 X147.012 Y70.554 E3.05980
G1 X147.522 Y71.294 E3.09268
G1 X147.662 Y71.544 E3.10317
G1 X148.042 Y72.364 E3.13623
G1 X148.372 Y73.294 E3.17234
G1 X148.572 Y74.094 E3.20251
G1 X148.652 Y74.574 E3.22031
G1 X148.702 Y75.164 E3.24198
G1 X148.732 Y75.744 E3.26322
G1 X148.732 Y100.244 E4.15960
G1 X148.652 Y101.414 E4.20251
G1 X148.572 Y101.894 E4.22031
G1 X148.462 Y102.364 E4.23797
G1 X148.372 Y102.694 E4.25048
G1 X148.042 Y103.624 E4.28659
G1 X147.662 Y104.444 E4.31965
G1 X147.522 Y104.694 E4.33014
G1 X147.012 Y105.434 E4.36302
G1 X146.292 Y106.284 E4.40377
G1 X145.872 Y106.704 E4.42551
G1 X145.502 Y107.024 E4.44340
G1 X144.812 Y107.514 E4.47437
G1 X143.922 Y108.034 E4.51208
G1 X143.382 Y108.294 E4.53401
G1 X142.902 Y108.484 E4.55289
G1 X142.062 Y108.724 E4.58486
G1 X140.922 Y108.924 E4.62720
G1 X140.572 Y108.954 E4.64005
G1 X123.912 Y109.334 E5.24975
G1 X116.082 Y109.334 E5.53622
G1 X99.842 Y108.974 E6.13054
G1 X98.822 Y108.904 E6.16794
G1 X98.102 Y108.774 E6.19471
G1 X97.542 Y108.624 E6.21592
G1 X96.452 Y108.224 E6.25840
G1 X95.912 Y107.964 E6.28033
G1 X95.482 Y107.724 E6.29835
G1 X94.802 Y107.254 E6.32859
G1 X93.952 Y106.534 E6.36935
G1 X93.702 Y106.284 E6.38228
G1 X92.982 Y105.434 E6.42304
G1 X92.512 Y104.754 E6.45328
G1 X92.272 Y104.324 E6.47130
G1 X92.012 Y103.784 E6.49322
G1 X91.612 Y102.694 E6.53570
G1 X91.452 Y102.094 E6.55842
G1 X91.322 Y101.264 E6.58916
G1 X91.262 Y100.244 E6.62654
G1 X91.262 Y75.744 E7.52292
G1 X91.352 Y74.454 E7.57023
G1 X91.452 Y73.894 E7.59104
G1 X91.612 Y73.294 E7.61376
G1 X92.012 Y72.204 E7.65624
G1 X92.162 Y71.884 E7.66917
G1 X92.512 Y71.234 E7.69618
G1 X92.918 Y70.644 E7.72239
G1 F1800.000 E6.72239
G1 Z0.700
G92 E0
G1 X116.085 Y73.578 F9900.000
G1 Z0.400
G1 F1800.000 E1.00000
G1 X123.913 Y73.578 F1080.000 E1.28642
G1 X123.913 Y75.050 E1.34024
G1 X116.085 Y75.050 E1.62666
G1 X116.085 Y76.521 E1.68049
G1 X123.913 Y76.521 E1.96691
G1 X123.913 Y77.992 E2.02073
G1 X116.085 Y77.992 E2.30715
G1 X116.085 Y79.463 E2.36098
G1 X123.913 Y79.463 E2.64740
G1 X123.913 Y80.935 E2.70122
G1 X116.085 Y80.935 E2.98764
G1 X116.085 Y82.406 E3.04147
G1 X123.913 Y82.406 E3.32789
G1 X123.913 Y83.877 E3.38171
G1 X116.085 Y83.877 E3.66813
G1 X116.085 Y85.348 E3.72196
G1 X123.913 Y85.348 E4.00837
G1 F1800.000 E3.00837
G1 Z0.700
G92 E0
G1 X125.459 Y84.500 F9900.000
G1 X132.670 Y79.502
G1 X132.525 Y80.804
G1 Z0.400
G1 F1800.000 E1.00000
G1 X132.313 Y80.354 F540.000 E1.01819
G1 X132.186 Y79.876 E1.03630
G1 X132.140 Y79.376 E1.05469
G1 X132.186 Y78.879 E1.07295
G1 X132.313 Y78.400 E1.09107
G1 X132.525 Y77.945 E1.10943
G1 X132.811 Y77.537 E1.12766
G1 X133.163 Y77.189 E1.14577
G1 X133.570 Y76.903 E1.16397
G1 X134.017 Y76.695 E1.18201
G1 X134.497 Y76.561 E1.20024
G1 X134.998 Y76.519 E1.21862
G1 X135.500 Y76.561 E1.23705
G1 X135.983 Y76.695 E1.25542
G1 X136.429 Y76.904 E1.27343
G1 X136.835 Y77.189 E1.29157
G1 X137.187 Y77.537 E1.30969
G1 X137.473 Y77.945 E1.32791
G1 X137.685 Y78.400 E1.34627
G1 X137.813 Y78.882 E1.36452
G1 X137.855 Y79.376 E1.38265
G1 X137.813 Y79.873 E1.40090
G1 X137.684 Y80.355 E1.41915
G1 X137.473 Y80.804 E1.43733
G1 X137.190 Y81.211 E1.45546
G1 X136.839 Y81.561 E1.47360
G1 X136.429 Y81.853 E1.49200
G1 X135.980 Y82.060 E1.51008
G1 X135.500 Y82.193 E1.52833
G1 X134.998 Y82.235 E1.54676
G1 X134.497 Y82.193 E1.56515
G1 X134.020 Y82.060 E1.58325
G1 X133.570 Y81.854 E1.60137
G1 X133.159 Y81.561 E1.61983
G1 X132.808 Y81.211 E1.63797
G1 X132.588 Y80.895 E1.65206
G1 X133.164 Y80.435 F9900.000
G1 X133.007 Y80.101 F540.000 E1.66556
G1 X132.913 Y79.747 E1.67897
G1 X132.879 Y79.376 E1.69259
G1 X132.913 Y79.008 E1.70613
G1 X133.007 Y78.652 E1.71959
G1 X133.164 Y78.315 E1.73319
G1 X133.376 Y78.014 E1.74666
G1 X133.637 Y77.755 E1.76011
G1 X133.939 Y77.542 E1.77364
G1 X134.272 Y77.388 E1.78707
G1 X134.628 Y77.288 E1.80059
G1 X134.998 Y77.257 E1.81416
G1 X135.369 Y77.288 E1.82779
G1 X135.728 Y77.388 E1.84141
G1 X136.059 Y77.543 E1.85479
G1 X136.361 Y77.755 E1.86829
G1 X136.622 Y78.014 E1.88175
G1 X136.834 Y78.315 E1.89521
G1 X136.991 Y78.652 E1.90882
G1 X137.086 Y79.009 E1.92232
G1 X137.117 Y79.376 E1.93581
G1 X137.086 Y79.746 E1.94938
G1 X136.991 Y80.101 E1.96283
G1 X136.834 Y80.435 E1.97634
G1 X136.623 Y80.737 E1.98981
G1 X136.362 Y80.998 E2.00330
G1 X136.059 Y81.214 E2.01692
G1 X135.727 Y81.367 E2.03031
G1 X135.369 Y81.466 E2.04388
G1 X134.998 Y81.497 E2.05752
G1 X134.628 Y81.466 E2.07109
G1 X134.273 Y81.367 E2.08457
G1 X133.939 Y81.214 E2.09801
G1 X133.636 Y80.998 E2.11164
G1 X133.375 Y80.737 E2.12514
G1 X133.227 Y80.525 E2.13458
G1 X132.795 Y80.425 F9900.000
G1 X126.062 Y83.897
G1 X126.062 Y74.857 F900.000 E2.46529
G1 X139.954 Y74.857 E2.97354
G1 X140.158 Y74.874 E2.98105
G1 X140.307 Y74.913 E2.98666
G1 X140.445 Y74.978 E2.99225
G1 X140.570 Y75.065 E2.99785
G1 X140.685 Y75.181 E3.00378
G1 X140.775 Y75.308 E3.00948
G1 X140.839 Y75.445 E3.01503
G1 X140.878 Y75.592 E3.02059
G1 X140.895 Y75.796 E3.02810
G1 X140.895 Y82.956 E3.29004
G1 X140.878 Y83.162 E3.29760
G1 X140.840 Y83.305 E3.30302
G1 X140.774 Y83.445 E3.30867
G1 X140.682 Y83.576 E3.31454
G1 X140.572 Y83.687 E3.32024
G1 X140.447 Y83.773 E3.32580
G1 X140.307 Y83.839 E3.33148
G1 X140.155 Y83.879 E3.33721
G1 X139.951 Y83.897 E3.34473
G1 X126.172 Y83.897 E3.84882
G1 X125.326 Y84.632 F9900.000
G1 X125.326 Y74.122 F630.000 E4.23336
G1 X139.983 Y74.122 E4.76961
G1 X140.283 Y74.146 E4.78063
G1 X140.558 Y74.219 E4.79103
G1 X140.814 Y74.338 E4.80134
G1 X141.046 Y74.500 E4.81172
G1 X141.250 Y74.706 E4.82229
G1 X141.413 Y74.936 E4.83262
G1 X141.533 Y75.192 E4.84298
G1 X141.606 Y75.467 E4.85336
G1 X141.630 Y75.767 E4.86438
G1 X141.630 Y82.985 E5.12849
G1 X141.606 Y83.287 E5.13957
G1 X141.533 Y83.559 E5.14986
G1 X141.413 Y83.815 E5.16021
G1 X141.249 Y84.049 E5.17068
G1 X141.047 Y84.253 E5.18117
G1 X140.814 Y84.414 E5.19150
G1 X140.558 Y84.533 E5.20184
G1 X140.282 Y84.606 E5.21229
G1 X139.982 Y84.632 E5.22331
G1 X125.437 Y84.632 E5.75548
G1 X125.694 Y83.995 F9900.000
G1 X126.595 Y83.363
G1 X126.595 Y82.306 F900.000 E5.79482
G1 X127.653 Y83.363 E5.85046
G1 X128.710 Y83.363 E5.88979
G1 X126.595 Y81.248 E6.00104
G1 X126.595 Y80.191 E6.04037
G1 X129.768 Y83.363 E6.20725
G1 X130.825 Y83.363 E6.24658
G1 X126.595 Y79.133 E6.46909
G1 X126.595 Y78.076 E6.50842
G1 X131.883 Y83.363 E6.78654
G1 X132.941 Y83.363 E6.82587
G1 X126.595 Y77.018 E7.15962
G1 X126.595 Y75.960 E7.19895
G1 X133.998 Y83.363 E7.58832
G1 X131.659 Y79.966 F9900.000
G1 X127.083 Y75.391 F900.000 E7.82899
G1 X128.140 Y75.391 E7.86832
G1 X131.648 Y78.899 E8.05284
G1 X131.878 Y78.071 E8.08479
G1 X129.198 Y75.391 E8.22576
G1 X130.255 Y75.391 E8.26509
G1 X132.260 Y77.395 E8.37052
G1 X132.760 Y76.838 E8.39837
G1 X131.313 Y75.391 E8.47448
G1 X132.370 Y75.391 E8.51381
G1 X133.371 Y76.391 E8.56642
G1 X133.991 Y75.954 E8.59465
G1 X133.428 Y75.391 E8.62427
G1 X134.486 Y75.391 E8.66362
G1 X134.998 Y77.074 F9900.000
G1 X136.739 Y77.887
G1 X139.911 Y84.500
G1 X134.753 Y81.609
G1 X134.609 Y83.129
G1 X134.608 Y83.129 F360.000 E8.66362
G1 X135.521 Y83.363 F9900.000
G1 X136.023 Y82.797 F900.000 E8.69203
G1 X136.589 Y83.363 E8.72209
G1 X136.646 Y82.353 E8.76009
G1 X137.657 Y83.363 E8.81373
G1 X138.724 Y83.363 E8.85383
G1 X137.258 Y81.897 E8.93171
G1 X137.757 Y81.329 E8.96012
G1 X139.792 Y83.363 E9.06817
G1 X140.361 Y82.865 E9.09658
G1 X138.138 Y80.642 E9.21463
G1 X138.355 Y79.791 E9.24761
G1 X140.361 Y81.797 E9.35414
G1 X140.361 Y80.730 E9.39424
G1 X138.311 Y78.679 E9.50312
G1 X140.361 Y78.594 F9900.000
G1 X137.158 Y75.391 F900.000 E9.67324
G1 X136.090 Y75.391 E9.71333
G1 X140.361 Y79.662 E9.94015
G1 X140.361 Y77.526 F9900.000
G1 X138.226 Y75.391 F900.000 E10.05357
G1 X139.293 Y75.391 E10.09366
G1 X140.361 Y76.459 E10.15037
G1 X140.361 Y75.391 E10.19048
G1 X134.662 Y75.777 F9900.000
G1 X134.662 Y75.776 F360.000 E10.19049
G1 F1800.000 E9.19049
G1 Z0.700
G92 E0
G1 X134.998 Y77.074 F9900.000
G1 X125.459 Y74.254
G1 X114.540 Y74.254
G1 X107.288 Y79.399
G1 X107.813 Y78.882
G1 Z0.400
G1 F1800.000 E1.00000
G1 X107.855 Y79.376 F540.000 E1.01812
G1 X107.813 Y79.873 E1.03637
G1 X107.684 Y80.355 E1.05462
G1 X107.473 Y80.804 E1.07281
G1 X107.191 Y81.209 E1.09084
G1 X106.843 Y81.560 E1.10893
G1 X106.430 Y81.854 E1.12748
G1 X105.979 Y82.060 E1.14563
G1 X105.500 Y82.193 E1.16382
G1 X104.998 Y82.235 E1.18225
G1 X104.497 Y82.193 E1.20063
G1 X104.020 Y82.060 E1.21874
G1 X103.570 Y81.854 E1.23686
G1 X103.157 Y81.560 E1.25541
G1 X102.811 Y81.211 E1.27339
G1 X102.527 Y80.807 E1.29146
G1 X102.314 Y80.355 E1.30976
G1 X102.186 Y79.876 E1.32788
G1 X102.140 Y79.376 E1.34626
G1 X102.186 Y78.879 E1.36453
G1 X102.313 Y78.400 E1.38265
G1 X102.527 Y77.943 E1.40112
G1 X102.814 Y77.538 E1.41929
G1 X103.161 Y77.190 E1.43724
G1 X103.570 Y76.903 E1.45553
G1 X104.017 Y76.695 E1.47357
G1 X104.497 Y76.561 E1.49180
G1 X104.998 Y76.519 E1.51019
G1 X105.500 Y76.561 E1.52862
G1 X105.982 Y76.695 E1.54693
G1 X106.430 Y76.903 E1.56500
G1 X106.839 Y77.190 E1.58330
G1 X107.188 Y77.540 E1.60136
G1 X107.473 Y77.945 E1.61949
G1 X107.685 Y78.400 E1.63785
G1 X107.785 Y78.775 E1.65207
G1 X107.086 Y79.009 F9900.000
G1 X107.117 Y79.376 F540.000 E1.66555
G1 X107.086 Y79.746 E1.67912
G1 X106.991 Y80.101 E1.69258
G1 X106.834 Y80.435 E1.70608
G1 X106.624 Y80.736 E1.71952
G1 X106.365 Y80.997 E1.73297
G1 X106.061 Y81.214 E1.74664
G1 X105.726 Y81.367 E1.76009
G1 X105.369 Y81.466 E1.77364
G1 X104.998 Y81.497 E1.78728
G1 X104.628 Y81.466 E1.80085
G1 X104.273 Y81.367 E1.81433
G1 X103.939 Y81.214 E1.82777
G1 X103.635 Y80.997 E1.84144
G1 X103.377 Y80.737 E1.85484
G1 X103.165 Y80.436 E1.86833
G1 X103.007 Y80.101 E1.88187
G1 X102.913 Y79.747 E1.89528
G1 X102.879 Y79.376 E1.90890
G1 X102.913 Y79.008 E1.92244
G1 X103.007 Y78.652 E1.93590
G1 X103.165 Y78.314 E1.94954
G1 X103.378 Y78.014 E1.96301
G1 X103.636 Y77.755 E1.97638
G1 X103.939 Y77.542 E1.98993
G1 X104.272 Y77.388 E2.00337
G1 X104.628 Y77.288 E2.01689
G1 X104.998 Y77.257 E2.03046
G1 X105.369 Y77.288 E2.04409
G1 X105.727 Y77.388 E2.05769
G1 X106.061 Y77.542 E2.07113
G1 X106.364 Y77.755 E2.08469
G1 X106.623 Y78.015 E2.09809
G1 X106.834 Y78.315 E2.11152
G1 X106.991 Y78.652 E2.12513
G1 X107.057 Y78.902 E2.13460
G1 X107.428 Y79.145 F9900.000
G1 X113.937 Y74.857
G1 X113.937 Y83.897 F900.000 E2.46531
G1 X100.047 Y83.897 E2.97346
G1 X99.843 Y83.879 E2.98098
G1 X99.691 Y83.839 E2.98671
G1 X99.552 Y83.774 E2.99232
G1 X99.427 Y83.687 E2.99791
G1 X99.315 Y83.574 E3.00372
G1 X99.226 Y83.447 E3.00940
G1 X99.161 Y83.308 E3.01502
G1 X99.122 Y83.162 E3.02055
G1 X99.105 Y82.956 E3.02811
G1 X99.105 Y75.796 E3.29005
G1 X99.122 Y75.592 E3.29756
G1 X99.162 Y75.442 E3.30323
G1 X99.225 Y75.305 E3.30874
G1 X99.312 Y75.182 E3.31426
G1 X99.429 Y75.065 E3.32031
G1 X99.555 Y74.977 E3.32593
G1 X99.691 Y74.913 E3.33145
G1 X99.840 Y74.874 E3.33706
G1 X100.044 Y74.857 E3.34457
G1 X113.826 Y74.857 E3.84880
G1 X114.672 Y74.122 F9900.000
G1 X114.672 Y84.632 F630.000 E4.23334
G1 X100.016 Y84.632 E4.76957
G1 X99.716 Y84.606 E4.78059
G1 X99.440 Y84.533 E4.79104
G1 X99.184 Y84.414 E4.80135
G1 X98.953 Y84.253 E4.81166
G1 X98.749 Y84.049 E4.82222
G1 X98.586 Y83.816 E4.83263
G1 X98.467 Y83.560 E4.84295
G1 X98.394 Y83.287 E4.85327
G1 X98.370 Y82.985 E4.86436
G1 X98.370 Y75.767 E5.12846
G1 X98.394 Y75.467 E5.13948
G1 X98.467 Y75.191 E5.14990
G1 X98.586 Y74.935 E5.16023
G1 X98.748 Y74.706 E5.17050
G1 X98.954 Y74.500 E5.18114
G1 X99.185 Y74.338 E5.19148
G1 X99.440 Y74.219 E5.20177
G1 X99.715 Y74.146 E5.21217
G1 X100.015 Y74.122 E5.22319
G1 X114.562 Y74.122 E5.75542
G1 X114.304 Y74.759 F9900.000
G1 X113.403 Y75.391
G1 X113.403 Y76.448 F900.000 E5.79471
G1 X112.346 Y75.391 E5.85027
G1 X111.289 Y75.391 E5.88955
G1 X113.403 Y77.505 E6.00066
G1 X113.403 Y78.561 E6.03995
G1 X110.233 Y75.391 E6.20661
G1 X109.176 Y75.391 E6.24589
G1 X113.403 Y79.618 E6.46811
G1 X113.403 Y82.789 F9900.000
G1 X106.005 Y75.391 F900.000 E6.85699
G1 X107.062 Y75.391 E6.89627
G1 X113.403 Y81.732 E7.22959
G1 X113.403 Y80.675 E7.26887
G1 X108.119 Y75.391 E7.54664
G1 X108.338 Y78.780 F9900.000
G1 X112.921 Y83.363 F900.000 E7.78755
G1 X111.864 Y83.363 E7.82684
G1 X108.350 Y79.849 E8.01154
G1 X108.122 Y80.678 E8.04347
G1 X110.807 Y83.363 E8.18464
G1 X109.750 Y83.363 E8.22392
G1 X107.740 Y81.353 E8.32959
G1 X107.244 Y81.913 E8.35741
G1 X108.694 Y83.363 E8.43363
G1 X107.637 Y83.363 E8.47291
G1 X106.636 Y82.362 E8.52553
G1 X106.580 Y83.363 E8.56280
G1 X106.018 Y82.802 E8.59232
G1 X105.523 Y83.363 E8.62015
G1 X104.609 Y83.129 F9900.000
G1 X104.608 Y83.129 F360.000 E8.62016
G1 X99.639 Y83.363 F9900.000
G1 X99.639 Y82.295 F900.000 E8.66030
G1 X100.707 Y83.363 E8.71708
G1 X101.775 Y83.363 E8.75721
G1 X99.639 Y81.227 E8.87074
G1 X99.639 Y80.158 E8.91088
G1 X102.844 Y83.363 E9.08117
G1 X103.912 Y83.363 E9.12131
G1 X99.639 Y79.090 E9.34836
G1 X99.639 Y78.022 E9.38849
G1 X101.685 Y80.068 E9.49723
G1 X101.643 Y78.958 E9.53898
G1 X99.639 Y76.953 E9.64548
G1 X99.639 Y75.885 E9.68561
G1 X101.861 Y78.107 E9.80368
G1 X102.243 Y77.421 E9.83319
G1 X100.212 Y75.391 E9.94107
G1 X101.281 Y75.391 E9.98121
G1 X102.744 Y76.854 E10.05895
G1 X103.358 Y76.400 E10.08764
G1 X102.349 Y75.391 E10.14126
G1 X103.417 Y75.391 E10.18139
G1 X103.985 Y75.958 E10.21156
G1 X104.486 Y75.391 E10.23999
G1 X104.662 Y75.777 F9900.000
G1 X104.662 Y75.776 F360.000 E10.24001
G1 F1800.000 E9.24001
G1 Z0.700
G92 E0
G1 X99.613 Y70.753 F9900.000
G1 X96.526 Y71.938
G1 X94.993 Y75.319
G1 X95.178 Y84.636
G1 X96.835 Y87.000
G1 X99.613 Y87.999
G1 X116.085 Y90.824
G1 Z0.400
G1 F1800.000 E1.00000
G1 X123.913 Y90.824 F1080.000 E1.28642
G1 X123.913 Y92.296 E1.34024
G1 X116.085 Y92.296 E1.62666
G1 X116.085 Y93.767 E1.68049
G1 X123.913 Y93.767 E1.96691
G1 X123.913 Y95.238 E2.02073
G1 X116.085 Y95.238 E2.30715
G1 X116.085 Y96.709 E2.36098
G1 X123.913 Y96.709 E2.64740
G1 X123.913 Y98.181 E2.70122
G1 X116.085 Y98.181 E2.98764
G1 X116.085 Y99.652 E3.04147
G1 X123.913 Y99.652 E3.32789
G1 X123.913 Y101.123 E3.38171
G1 X116.085 Y101.123 E3.66813
G1 X116.085 Y102.594 E3.72196
G1 X123.913 Y102.594 E4.00837
G1 F1800.000 E3.00837
G1 Z0.700
G92 E0
G1 X125.459 Y101.746 F9900.000
G1 X132.670 Y96.748
G1 X132.525 Y98.050
G1 Z0.400
G1 F1800.000 E1.00000
G1 X132.313 Y97.600 F540.000 E1.01819
G1 X132.186 Y97.122 E1.03630
G1 X132.140 Y96.622 E1.05469
G1 X132.186 Y96.125 E1.07295
G1 X132.313 Y95.646 E1.09107
G1 X132.525 Y95.191 E1.10943
G1 X132.811 Y94.783 E1.12766
G1 X133.163 Y94.435 E1.14577
G1 X133.570 Y94.149 E1.16397
G1 X134.017 Y93.941 E1.18201
G1 X134.497 Y93.807 E1.20024
G1 X134.998 Y93.765 E1.21862
