; generated by Slic3r 0.9.9-dev on 2013-08-04 at 22:26:48

; layer_height = 0.3
; perimeters = 2
; top_solid_layers = 4
; bottom_solid_layers = 4
; fill_density = 0.25
; perimeter_speed = 50
; infill_speed = 70
; travel_speed = 165
; nozzle_diameter = 0.5
; filament_diameter = 3
; extrusion_multiplier = 1
; perimeters extrusion width = 0.70mm
; infill extrusion width = 0.70mm
; solid infill extrusion width = 0.70mm
; top infill extrusion width = 0.70mm
; first layer extrusion width = 0.80mm

G21 ; set units to millimeters
M107
M190 S70 ; wait for bed temperature to be reached
M104 S185 ; set temperature
;G28 ; home all axes
;G1 Z5 F5000 ; lift nozzle
M109 S185 ; wait for temperature to be reached
G90 ; use absolute coordinates
G92 E0
M82 ; use absolute distances for extrusion
G1 F1800.000 E-1.00000
G1 Z0.700
G92 E0
G1 X88.680 Y89.850 F9900.000
G1 Z0.400
G1 F1800.000 E1.00000
G1 X120.180 Y55.450 F900.000 E2.94165
G1 X120.580 Y55.060 E2.96491
G1 X121.000 Y54.690 E2.98821
G1 X121.690 Y54.220 E3.02296
G1 X122.180 Y53.950 E3.04625
G1 X122.960 Y53.630 E3.08135
G1 X123.490 Y53.470 E3.10439
G1 X124.310 Y53.320 E3.13909
G1 X125.150 Y53.260 E3.17415
G1 X146.340 Y53.260 E4.05624
G1 X147.150 Y53.310 E4.09002
G1 X147.950 Y53.460 E4.12390
G1 X148.730 Y53.700 E4.15787
G1 X149.230 Y53.910 E4.18045
G1 X149.710 Y54.170 E4.20317
G1 X150.170 Y54.460 E4.22581
G1 X150.600 Y54.780 E4.24812
G1 X151.010 Y55.140 E4.27083
G1 X151.560 Y55.740 E4.30472
G1 X152.030 Y56.400 E4.33845
G1 X152.430 Y57.110 E4.37237
G1 X152.730 Y57.870 E4.40638
G1 X152.940 Y58.650 E4.44001
G1 X153.030 Y59.190 E4.46280
G1 X153.080 Y60.000 E4.49658
G1 X153.080 Y114.990 E6.78568
G1 X152.980 Y116.150 E6.83414
G1 X152.860 Y116.790 E6.86125
G1 X152.770 Y117.100 E6.87469
G1 X152.560 Y117.710 E6.90154
G1 X152.440 Y118.000 E6.91461
G1 X152.140 Y118.570 E6.94142
G1 X151.870 Y119.020 E6.96327
G1 X151.530 Y119.510 E6.98809
G1 X151.340 Y119.750 E7.00084
G1 X150.710 Y120.400 E7.03852
G1 X150.080 Y120.900 E7.07200
G1 X149.310 Y121.400 E7.11022
G1 X148.950 Y121.590 E7.12716
G1 X148.680 Y121.720 E7.13964
G1 X148.120 Y121.940 E7.16468
G1 X147.540 Y122.110 E7.18984
G1 X146.750 Y122.250 E7.22324
G1 X145.750 Y122.330 E7.26500
G1 X94.250 Y122.330 E9.40882
G1 X93.300 Y122.260 E9.44847
G1 X92.780 Y122.180 E9.47037
G1 X92.190 Y122.040 E9.49561
G1 X91.600 Y121.840 E9.52155
G1 X90.770 Y121.450 E9.55972
G1 X90.470 Y121.280 E9.57408
G1 X90.080 Y121.020 E9.59359
G1 X89.700 Y120.740 E9.61324
G1 X89.290 Y120.400 E9.63541
G1 X88.830 Y119.940 E9.66249
G1 X88.610 Y119.690 E9.67635
G1 X88.220 Y119.170 E9.70341
G1 X87.930 Y118.710 E9.72605
G1 X87.780 Y118.450 E9.73854
G1 X87.510 Y117.900 E9.76405
G1 X87.390 Y117.620 E9.77673
G1 X87.200 Y117.040 E9.80213
G1 X87.060 Y116.450 E9.82738
G1 X86.980 Y115.940 E9.84887
G1 X86.910 Y114.990 E9.88852
G1 X86.920 Y94.120 E10.75729
G1 X86.970 Y93.570 E10.78028
G1 X87.060 Y93.020 E10.80348
G1 X87.190 Y92.480 E10.82660
G1 X87.370 Y91.960 E10.84950
G1 X87.590 Y91.450 E10.87262
G1 X88.000 Y90.730 E10.90712
G1 X88.320 Y90.280 E10.93010
G1 X88.608 Y89.934 E10.94885
G1 F1800.000 E9.94885
G1 Z0.700
G92 E0
G1 X133.112 Y104.040 F9900.000
G1 Z0.400
G1 F1800.000 E1.00000
G1 X133.318 Y103.596 F540.000 E1.02038
G1 X133.599 Y103.195 E1.04075
G1 X133.945 Y102.849 E1.06112
G1 X134.346 Y102.568 E1.08150
G1 X134.790 Y102.362 E1.10187
G1 X135.262 Y102.235 E1.12224
G1 X135.373 Y102.225 E1.12687
G1 X135.750 Y102.192 E1.14261
G1 X136.238 Y102.235 E1.16299
G1 X136.710 Y102.362 E1.18335
G1 X137.154 Y102.569 E1.20373
G1 X137.555 Y102.849 E1.22410
G1 X137.901 Y103.195 E1.24447
G1 X138.181 Y103.596 E1.26484
G1 X138.229 Y103.697 E1.26948
G1 X138.388 Y104.040 E1.28522
G1 X138.515 Y104.512 E1.30559
G1 X138.558 Y105.000 E1.32597
G1 X138.515 Y105.488 E1.34634
G1 X138.388 Y105.960 E1.36671
G1 X138.181 Y106.404 E1.38709
G1 X137.901 Y106.805 E1.40746
G1 X137.555 Y107.151 E1.42783
G1 X137.154 Y107.431 E1.44820
G1 X137.053 Y107.479 E1.45284
G1 X136.710 Y107.638 E1.46857
G1 X136.238 Y107.765 E1.48895
G1 X135.750 Y107.808 E1.50932
G1 X135.262 Y107.765 E1.52970
G1 X134.790 Y107.638 E1.55006
G1 X134.346 Y107.431 E1.57044
G1 X133.945 Y107.151 E1.59081
G1 X133.599 Y106.805 E1.61118
G1 X133.319 Y106.404 E1.63156
G1 X133.112 Y105.960 E1.65193
G1 X132.985 Y105.488 E1.67230
G1 X132.942 Y105.000 E1.69268
G1 X132.985 Y104.512 E1.71305
G1 X133.083 Y104.146 E1.72882
G1 X133.806 Y104.292 F9900.000
G1 X133.958 Y103.965 F540.000 E1.74384
G1 X134.165 Y103.670 E1.75885
G1 X134.420 Y103.415 E1.77387
G1 X134.715 Y103.208 E1.78888
G1 X135.042 Y103.056 E1.80390
G1 X135.437 Y102.958 E1.82084
G1 X135.750 Y102.931 E1.83390
G1 X136.109 Y102.962 E1.84892
G1 X136.458 Y103.056 E1.86393
G1 X136.785 Y103.208 E1.87895
G1 X137.080 Y103.415 E1.89396
G1 X137.335 Y103.670 E1.90897
G1 X137.562 Y104.008 E1.92592
G1 X137.694 Y104.292 E1.93898
G1 X137.788 Y104.641 E1.95399
G1 X137.819 Y105.000 E1.96901
G1 X137.788 Y105.359 E1.98402
G1 X137.694 Y105.708 E1.99903
G1 X137.542 Y106.035 E2.01405
G1 X137.335 Y106.330 E2.02906
G1 X137.080 Y106.585 E2.04408
G1 X136.742 Y106.812 E2.06102
G1 X136.458 Y106.944 E2.07408
G1 X136.109 Y107.038 E2.08910
G1 X135.750 Y107.069 E2.10411
G1 X135.391 Y107.038 E2.11913
G1 X135.042 Y106.944 E2.13414
G1 X134.715 Y106.792 E2.14915
G1 X134.420 Y106.585 E2.16417
G1 X134.165 Y106.330 E2.17918
G1 X133.958 Y106.035 E2.19420
G1 X133.806 Y105.708 E2.20921
G1 X133.712 Y105.359 E2.22423
G1 X133.681 Y105.000 E2.23924
G1 X133.712 Y104.641 E2.25426
G1 X133.777 Y104.399 E2.26468
G1 X133.582 Y104.009 F9900.000
G1 X122.308 Y105.000
G1 X122.265 Y105.488 F540.000 E2.28505
G1 X122.138 Y105.960 E2.30542
G1 X121.931 Y106.404 E2.32580
G1 X121.651 Y106.805 E2.34617
G1 X121.572 Y106.883 E2.35080
G1 X121.305 Y107.151 E2.36654
G1 X120.904 Y107.431 E2.38691
G1 X120.460 Y107.638 E2.40729
G1 X119.988 Y107.765 E2.42766
G1 X119.500 Y107.808 E2.44803
G1 X119.012 Y107.765 E2.46841
G1 X118.540 Y107.638 E2.48878
G1 X118.096 Y107.432 E2.50915
G1 X117.695 Y107.151 E2.52953
G1 X117.349 Y106.805 E2.54990
G1 X117.068 Y106.404 E2.57027
G1 X116.862 Y105.960 E2.59064
G1 X116.833 Y105.853 E2.59527
G1 X116.735 Y105.488 E2.61101
G1 X116.692 Y105.000 E2.63138
G1 X116.735 Y104.512 E2.65176
G1 X116.862 Y104.040 E2.67213
G1 X117.068 Y103.596 E2.69250
G1 X117.349 Y103.195 E2.71288
G1 X117.428 Y103.117 E2.71751
G1 X117.695 Y102.849 E2.73325
G1 X118.096 Y102.568 E2.75362
G1 X118.540 Y102.362 E2.77400
G1 X119.012 Y102.235 E2.79437
G1 X119.500 Y102.192 E2.81474
G1 X119.988 Y102.235 E2.83512
G1 X120.460 Y102.362 E2.85548
G1 X120.904 Y102.569 E2.87586
G1 X121.305 Y102.849 E2.89623
G1 X121.651 Y103.195 E2.91661
G1 X121.932 Y103.596 E2.93698
G1 X122.138 Y104.040 E2.95735
G1 X122.265 Y104.512 E2.97772
G1 X122.298 Y104.890 E2.99350
G1 X121.569 Y105.000 F9900.000
G1 X121.538 Y105.359 F540.000 E3.00852
G1 X121.444 Y105.708 E3.02353
G1 X121.292 Y106.035 E3.03854
G1 X121.052 Y106.363 E3.05549
G1 X120.830 Y106.585 E3.06855
G1 X120.535 Y106.792 E3.08356
G1 X120.208 Y106.944 E3.09858
G1 X119.859 Y107.038 E3.11359
G1 X119.500 Y107.069 E3.12861
G1 X119.141 Y107.038 E3.14362
G1 X118.792 Y106.944 E3.15863
G1 X118.465 Y106.792 E3.17365
G1 X118.170 Y106.585 E3.18866
G1 X117.915 Y106.330 E3.20368
G1 X117.708 Y106.035 E3.21869
G1 X117.543 Y105.662 E3.23564
G1 X117.462 Y105.359 E3.24870
G1 X117.431 Y105.000 E3.26371
G1 X117.462 Y104.641 E3.27872
G1 X117.556 Y104.292 E3.29374
G1 X117.708 Y103.965 E3.30875
G1 X117.948 Y103.637 E3.32570
G1 X118.170 Y103.415 E3.33876
G1 X118.465 Y103.208 E3.35377
G1 X118.792 Y103.056 E3.36879
G1 X119.141 Y102.962 E3.38380
G1 X119.500 Y102.931 E3.39882
G1 X119.859 Y102.962 E3.41383
G1 X120.208 Y103.056 E3.42884
G1 X120.535 Y103.208 E3.44386
G1 X120.830 Y103.415 E3.45887
G1 X121.085 Y103.670 E3.47389
G1 X121.292 Y103.965 E3.48890
G1 X121.444 Y104.292 E3.50392
G1 X121.538 Y104.641 E3.51893
G1 X121.560 Y104.890 E3.52935
G1 X121.876 Y105.189 F9900.000
G1 X121.907 Y105.000
G1 X119.689 Y107.218
G1 X119.259 Y107.181
G1 X105.657 Y105.000
G1 X106.058 Y105.000
G1 X106.015 Y105.488 F540.000 E3.54972
G1 X105.888 Y105.960 E3.57010
G1 X105.682 Y106.404 E3.59047
G1 X105.401 Y106.805 E3.61084
G1 X105.055 Y107.151 E3.63121
G1 X104.654 Y107.432 E3.65159
G1 X104.210 Y107.638 E3.67196
G1 X103.738 Y107.765 E3.69233
G1 X103.250 Y107.808 E3.71271
G1 X102.762 Y107.765 E3.73308
G1 X102.290 Y107.638 E3.75345
G1 X101.846 Y107.431 E3.77382
G1 X101.445 Y107.151 E3.79419
G1 X101.099 Y106.805 E3.81457
G1 X100.818 Y106.404 E3.83494
G1 X100.612 Y105.960 E3.85531
G1 X100.485 Y105.488 E3.87569
G1 X100.442 Y105.000 E3.89606
G1 X100.485 Y104.512 E3.91643
G1 X100.612 Y104.040 E3.93681
G1 X100.818 Y103.596 E3.95718
G1 X101.099 Y103.195 E3.97755
G1 X101.445 Y102.849 E3.99792
G1 X101.846 Y102.568 E4.01830
G1 X102.290 Y102.362 E4.03867
G1 X102.762 Y102.235 E4.05904
G1 X103.250 Y102.192 E4.07941
G1 X103.738 Y102.235 E4.09979
G1 X104.210 Y102.362 E4.12016
G1 X104.654 Y102.569 E4.14053
G1 X105.055 Y102.849 E4.16090
G1 X105.401 Y103.195 E4.18128
G1 X105.682 Y103.596 E4.20165
G1 X105.888 Y104.040 E4.22202
G1 X106.015 Y104.512 E4.24239
G1 X106.048 Y104.890 E4.25818
G1 X105.319 Y105.000 F9900.000
G1 X105.288 Y105.359 F540.000 E4.27319
G1 X105.194 Y105.708 E4.28821
G1 X105.042 Y106.035 E4.30322
G1 X104.835 Y106.330 E4.31823
G1 X104.580 Y106.585 E4.33325
G1 X104.285 Y106.792 E4.34826
G1 X103.958 Y106.944 E4.36328
G1 X103.609 Y107.038 E4.37829
G1 X103.250 Y107.069 E4.39331
G1 X102.891 Y107.038 E4.40832
G1 X102.542 Y106.944 E4.42333
G1 X102.215 Y106.792 E4.43835
G1 X101.920 Y106.585 E4.45336
G1 X101.665 Y106.330 E4.46838
G1 X101.458 Y106.035 E4.48339
G1 X101.306 Y105.708 E4.49841
G1 X101.212 Y105.359 E4.51342
G1 X101.181 Y105.000 E4.52844
G1 X101.212 Y104.641 E4.54345
G1 X101.306 Y104.292 E4.55847
G1 X101.458 Y103.965 E4.57348
G1 X101.665 Y103.670 E4.58850
G1 X101.920 Y103.415 E4.60351
G1 X102.215 Y103.208 E4.61852
G1 X102.542 Y103.056 E4.63354
G1 X102.891 Y102.962 E4.64855
G1 X103.250 Y102.931 E4.66357
G1 X103.609 Y102.962 E4.67858
G1 X103.958 Y103.056 E4.69360
G1 X104.285 Y103.208 E4.70861
G1 X104.580 Y103.415 E4.72363
G1 X104.835 Y103.670 E4.73864
G1 X105.042 Y103.965 E4.75366
G1 X105.194 Y104.292 E4.76867
G1 X105.288 Y104.641 E4.78368
G1 X105.310 Y104.890 E4.79411
G1 X105.626 Y105.189 F9900.000
G1 X106.657 Y95.509
G1 X109.777 Y95.509 F900.000 E4.92397
G1 X111.368 Y95.431 E4.99029
G1 X112.971 Y95.193 E5.05773
G1 X114.543 Y94.800 E5.12518
G1 X116.068 Y94.254 E5.19263
G1 X117.533 Y93.561 E5.26008
G1 X118.923 Y92.728 E5.32752
G1 X120.224 Y91.763 E5.39497
G1 X121.425 Y90.675 E5.46242
G1 X122.513 Y89.474 E5.52987
G1 X123.478 Y88.173 E5.59731
G1 X124.311 Y86.783 E5.66476
G1 X125.004 Y85.318 E5.73221
G1 X125.550 Y83.793 E5.79966
G1 X125.943 Y82.221 E5.86710
G1 X126.181 Y80.618 E5.93455
G1 X126.259 Y79.027 E6.00087
G1 X126.259 Y61.103 E6.74699
G1 X145.241 Y61.103 E7.53716
G1 X145.245 Y114.495 E9.75971
G1 X94.755 Y114.495 E11.86149
G1 X94.759 Y95.510 E12.65180
G1 X106.547 Y95.509 E13.14249
G1 X106.657 Y94.773 F9900.000
G1 X109.759 Y94.774 F630.000 E13.27160
G1 X111.296 Y94.698 E13.33567
G1 X112.827 Y94.471 E13.40010
G1 X114.329 Y94.095 E13.46454
G1 X115.786 Y93.573 E13.52898
G1 X117.186 Y92.911 E13.59342
G1 X118.514 Y92.116 E13.65786
G1 X119.757 Y91.193 E13.72230
G1 X120.904 Y90.154 E13.78674
G1 X121.943 Y89.007 E13.85117
G1 X122.866 Y87.764 E13.91561
G1 X123.661 Y86.436 E13.98005
G1 X124.323 Y85.036 E14.04449
G1 X124.845 Y83.579 E14.10893
G1 X125.221 Y82.077 E14.17337
G1 X125.448 Y80.546 E14.23781
G1 X125.524 Y79.009 E14.30187
G1 X125.524 Y60.368 E15.07786
G1 X145.977 Y60.368 E15.92927
G1 X145.981 Y114.984 E18.20280
G1 X145.965 Y115.078 E18.20678
G1 X145.897 Y115.176 E18.21172
G1 X145.828 Y115.215 E18.21503
G1 X145.734 Y115.231 E18.21901
G1 X94.266 Y115.231 E20.36150
G1 X94.135 Y115.198 E20.36710
G1 X94.052 Y115.115 E20.37203
G1 X94.019 Y114.984 E20.37763
G1 X94.024 Y94.774 E21.21892
G1 X106.547 Y94.773 E21.74023
G1 X107.025 Y95.410 F9900.000
G1 X106.739 Y96.042
G1 X116.201 Y105.505 F990.000 E22.30190
G1 X116.204 Y104.459 E22.34579
G1 X107.787 Y96.042 E22.84539
G1 X108.836 Y96.042 E22.88941
G1 X116.452 Y103.658 E23.34142
G1 X116.838 Y102.995 E23.37361
G1 X109.881 Y96.038 E23.78658
G1 X110.881 Y95.989 E23.82859
G1 X117.341 Y102.449 E24.21206
G1 X117.977 Y102.036 E24.24388
G1 X111.841 Y95.900 E24.60809
G1 X112.754 Y95.764 E24.64685
G1 X118.744 Y101.755 E25.00241
G1 X119.714 Y101.676 E25.04326
G1 X113.619 Y95.581 E25.40505
G1 X121.241 Y102.154 F9900.000
G1 X114.458 Y95.370 F990.000 E25.80770
G1 X115.249 Y95.113 E25.84263
G1 X134.098 Y113.962 E26.96142
G1 X135.147 Y113.962 E27.00544
G1 X116.022 Y94.837 E28.14064
G1 X116.754 Y94.519 E28.17411
G1 X136.196 Y113.962 E29.32813
G1 X137.245 Y113.962 E29.37216
G1 X117.466 Y94.183 E30.54617
G1 X118.147 Y93.815 E30.57866
G1 X138.294 Y113.962 E31.77451
G1 X139.343 Y113.962 E31.81853
G1 X118.803 Y93.422 E33.03772
G1 X119.439 Y93.009 E33.06955
G1 X132.640 Y106.210 E33.85310
G1 X132.413 Y104.934 E33.90749
G1 X120.041 Y92.562 E34.64183
G1 X120.636 Y92.109 E34.67325
G1 X132.561 Y104.034 E35.38106
G1 X132.876 Y103.299 E35.41460
G1 X121.187 Y91.610 E36.10842
G1 X121.737 Y91.111 E36.13958
G1 X133.333 Y102.707 E36.82789
G1 X133.903 Y102.228 E36.85913
G1 X122.242 Y90.567 E37.55128
G1 X122.740 Y90.017 E37.58245
G1 X134.590 Y101.867 E38.28579
G1 X135.455 Y101.683 E38.32292
G1 X123.206 Y89.434 E39.04996
G1 X123.653 Y88.832 E39.08143
G1 X136.602 Y101.781 E39.85002
G1 X138.969 Y104.148 F9900.000
G1 X144.711 Y109.890 F990.000 E40.19085
G1 X144.712 Y110.939 E40.23488
G1 X139.067 Y105.295 E40.56991
G1 X138.883 Y106.160 E40.60703
G1 X144.712 Y111.988 E40.95297
G1 X144.712 Y113.037 E40.99700
G1 X138.522 Y106.847 E41.36441
G1 X138.043 Y107.417 E41.39565
G1 X144.587 Y113.962 E41.78412
G1 X143.538 Y113.962 E41.82815
G1 X137.451 Y107.874 E42.18947
G1 X136.716 Y108.189 E42.22300
G1 X142.489 Y113.962 E42.56567
G1 X141.440 Y113.962 E42.60969
G1 X135.816 Y108.337 E42.94355
G1 X134.540 Y108.110 E42.99794
G1 X140.392 Y113.962 E43.34526
G1 X144.711 Y108.841 F9900.000
G1 X124.078 Y88.208 F990.000 E44.56996
G1 X124.471 Y87.552 E44.60205
G1 X144.711 Y107.792 E45.80342
G1 X144.711 Y106.743 E45.84745
G1 X124.853 Y86.885 E47.02618
G1 X125.189 Y86.173 E47.05924
G1 X144.711 Y105.694 E48.21798
G1 X144.711 Y104.645 E48.26201
G1 X125.521 Y85.455 E49.40106
G1 X125.797 Y84.683 E49.43550
G1 X144.711 Y103.596 E50.55814
G1 X144.711 Y102.547 E50.60216
G1 X126.071 Y83.907 E51.70859
G1 X126.281 Y83.068 E51.74488
G1 X144.711 Y101.498 E52.83882
G1 X144.711 Y100.449 E52.88285
G1 X126.482 Y82.221 E53.96483
G1 X126.618 Y81.308 E54.00358
G1 X144.711 Y99.400 E55.07751
G1 X144.711 Y98.351 E55.12154
G1 X126.727 Y80.368 E56.18897
G1 X126.776 Y79.368 E56.23098
G1 X144.711 Y97.302 E57.29550
G1 X144.710 Y96.253 E57.33952
G1 X126.792 Y78.335 E58.40307
G1 X126.792 Y77.286 E58.44710
G1 X144.710 Y95.204 E59.51065
G1 X144.710 Y94.155 E59.55467
G1 X126.792 Y76.238 E60.61821
G1 X126.792 Y75.189 E60.66224
G1 X144.710 Y93.106 E61.72578
G1 X144.710 Y92.057 E61.76980
G1 X126.792 Y74.140 E62.83334
G1 X126.792 Y73.091 E62.87736
G1 X144.710 Y91.009 E63.94089
G1 X144.710 Y89.960 E63.98492
G1 X126.792 Y72.042 E65.04844
G1 X126.792 Y70.993 E65.09246
G1 X144.710 Y88.911 E66.15598
G1 X144.710 Y87.862 E66.20001
G1 X126.792 Y69.944 E67.26352
G1 X126.792 Y68.895 E67.30755
G1 X144.710 Y86.813 E68.37106
G1 X144.710 Y85.764 E68.41508
G1 X126.792 Y67.846 E69.47859
G1 X126.792 Y66.797 E69.52261
G1 X144.710 Y84.715 E70.58611
G1 X144.709 Y83.666 E70.63014
G1 X126.792 Y65.748 E71.69363
G1 X126.792 Y64.700 E71.73766
G1 X144.709 Y82.617 E72.80115
G1 X144.709 Y81.568 E72.84518
G1 X126.792 Y63.651 E73.90866
G1 X126.792 Y62.602 E73.95269
G1 X144.709 Y80.519 E75.01617
G1 X144.709 Y79.470 E75.06020
G1 X126.876 Y61.637 E76.11869
G1 X127.925 Y61.637 E76.16272
G1 X144.709 Y78.421 E77.15895
G1 X144.709 Y77.372 E77.20298
G1 X128.974 Y61.637 E78.13695
G1 X130.023 Y61.637 E78.18098
G1 X144.709 Y76.323 E79.05268
G1 X144.709 Y75.274 E79.09671
G1 X131.072 Y61.637 E79.90615
G1 X132.121 Y61.637 E79.95018
G1 X144.709 Y74.225 E80.69735
G1 X144.709 Y73.176 E80.74138
