; generated by Slic3r 0.9.9-dev on 2013-08-04 at 20:01:28

; layer_height = 0.3
; perimeters = 2
; top_solid_layers = 4
; bottom_solid_layers = 4
; fill_density = 0.25
; perimeter_speed = 50
; infill_speed = 70
; travel_speed = 165
; nozzle_diameter = 0.5
; filament_diameter = 3
; extrusion_multiplier = 1
; perimeters extrusion width = 0.70mm
; infill extrusion width = 0.70mm
; solid infill extrusion width = 0.70mm
; top infill extrusion width = 0.70mm
; first layer extrusion width = 0.80mm

G21 ; set units to millimeters
M107
M190 S70 ; wait for bed temperature to be reached
M104 S185 ; set temperature
;G28 ; home all axes
;G1 Z5 F5000 ; lift nozzle
M109 S185 ; wait for temperature to be reached
G90 ; use absolute coordinates
G92 E0
M82 ; use absolute distances for extrusion
G1 F1800.000 E-1.00000
G1 Z0.700
G92 E0
G1 X87.960 Y56.400 F9900.000
G1 Z0.400
G1 F1800.000 E1.00000
G1 X88.430 Y55.740 F900.000 E1.03373
G1 X88.980 Y55.140 E1.06761
G1 X89.600 Y54.620 E1.10130
G1 X90.280 Y54.170 E1.13524
G1 X90.760 Y53.910 E1.15796
G1 X91.010 Y53.800 E1.16933
G1 X91.780 Y53.530 E1.20330
G1 X92.300 Y53.400 E1.22561
G1 X92.840 Y53.310 E1.24840
G1 X93.650 Y53.260 E1.28218
G1 X114.840 Y53.260 E2.16427
G1 X115.400 Y53.290 E2.18762
G1 X115.950 Y53.360 E2.21070
G1 X116.500 Y53.470 E2.23404
G1 X117.030 Y53.630 E2.25709
G1 X117.810 Y53.950 E2.29219
G1 X118.300 Y54.220 E2.31548
G1 X118.990 Y54.690 E2.35023
G1 X119.410 Y55.060 E2.37353
G1 X119.810 Y55.450 E2.39679
G1 X151.310 Y89.850 E4.33844
G1 X151.670 Y90.280 E4.36178
G1 X151.990 Y90.730 E4.38477
G1 X152.400 Y91.450 E4.41926
G1 X152.620 Y91.960 E4.44238
G1 X152.800 Y92.480 E4.46529
G1 X152.870 Y92.750 E4.47690
G1 X153.020 Y93.570 E4.51160
G1 X153.080 Y94.400 E4.54624
G1 X153.080 Y114.990 E5.40335
G1 X153.010 Y115.940 E5.44300
G1 X152.930 Y116.460 E5.46490
G1 X152.790 Y117.050 E5.49015
G1 X152.590 Y117.640 E5.51608
G1 X152.470 Y117.920 E5.52876
G1 X152.150 Y118.560 E5.55855
G1 X151.770 Y119.160 E5.58811
G1 X151.490 Y119.540 E5.60776
G1 X151.150 Y119.950 E5.62993
G1 X150.690 Y120.410 E5.65701
G1 X150.180 Y120.830 E5.68452
G1 X149.640 Y121.200 E5.71176
G1 X148.930 Y121.600 E5.74569
G1 X148.370 Y121.850 E5.77122
G1 X147.790 Y122.040 E5.79662
G1 X147.200 Y122.180 E5.82187
G1 X146.690 Y122.260 E5.84335
G1 X145.740 Y122.330 E5.88301
G1 X94.240 Y122.330 E8.02683
G1 X93.240 Y122.250 E8.06859
G1 X92.450 Y122.110 E8.10199
G1 X91.870 Y121.940 E8.12715
G1 X91.310 Y121.720 E8.15219
G1 X90.680 Y121.400 E8.18161
G1 X90.080 Y121.020 E8.21117
G1 X89.700 Y120.740 E8.23082
G1 X89.290 Y120.400 E8.25299
G1 X88.830 Y119.940 E8.28007
G1 X88.410 Y119.430 E8.30757
G1 X88.040 Y118.890 E8.33482
G1 X87.640 Y118.190 E8.36838
G1 X87.400 Y117.640 E8.39336
G1 X87.210 Y117.080 E8.41798
G1 X87.070 Y116.490 E8.44322
G1 X86.990 Y116.000 E8.46389
G1 X86.910 Y115.000 E8.50565
G1 X86.910 Y60.000 E10.79517
G1 X86.960 Y59.190 E10.82895
G1 X87.050 Y58.650 E10.85174
G1 X87.180 Y58.130 E10.87405
G1 X87.350 Y57.610 E10.89682
G1 X87.560 Y57.110 E10.91940
G1 X87.903 Y56.494 E10.94873
G1 F1800.000 E9.94873
G1 Z0.700
G92 E0
G1 X103.290 Y102.362 F9900.000
G1 Z0.400
G1 F1800.000 E1.00000
G1 X103.762 Y102.235 F540.000 E1.02037
G1 X104.250 Y102.192 E1.04075
G1 X104.738 Y102.235 E1.06112
G1 X105.210 Y102.362 E1.08149
G1 X105.311 Y102.409 E1.08612
G1 X105.654 Y102.569 E1.10187
G1 X106.055 Y102.849 E1.12224
G1 X106.401 Y103.195 E1.14261
G1 X106.682 Y103.596 E1.16299
G1 X106.888 Y104.040 E1.18336
G1 X107.015 Y104.512 E1.20373
G1 X107.058 Y105.000 E1.22410
G1 X107.015 Y105.488 E1.24447
G1 X106.888 Y105.960 E1.26485
G1 X106.682 Y106.404 E1.28522
G1 X106.401 Y106.805 E1.30560
G1 X106.055 Y107.151 E1.32596
G1 X105.654 Y107.432 E1.34634
G1 X105.210 Y107.638 E1.36671
G1 X104.738 Y107.765 E1.38708
G1 X104.250 Y107.808 E1.40746
G1 X103.762 Y107.765 E1.42783
G1 X103.290 Y107.638 E1.44820
G1 X103.189 Y107.591 E1.45283
G1 X102.846 Y107.432 E1.46857
G1 X102.445 Y107.151 E1.48894
G1 X102.099 Y106.805 E1.50932
G1 X101.818 Y106.404 E1.52969
G1 X101.612 Y105.960 E1.55007
G1 X101.485 Y105.488 E1.57044
G1 X101.442 Y105.000 E1.59081
G1 X101.485 Y104.512 E1.61118
G1 X101.612 Y104.040 E1.63156
G1 X101.819 Y103.596 E1.65193
G1 X102.099 Y103.195 E1.67230
G1 X102.445 Y102.849 E1.69267
G1 X102.846 Y102.568 E1.71305
G1 X103.190 Y102.408 E1.72882
G1 X103.542 Y103.056 F9900.000
G1 X103.891 Y102.962 F540.000 E1.74384
G1 X104.250 Y102.931 E1.75885
G1 X104.609 Y102.962 E1.77387
G1 X105.000 Y103.075 E1.79081
G1 X105.285 Y103.208 E1.80387
G1 X105.580 Y103.415 E1.81889
G1 X105.835 Y103.670 E1.83390
G1 X106.042 Y103.965 E1.84892
G1 X106.194 Y104.292 E1.86393
G1 X106.288 Y104.641 E1.87894
G1 X106.319 Y105.000 E1.89396
G1 X106.276 Y105.405 E1.91090
G1 X106.194 Y105.708 E1.92396
G1 X106.042 Y106.035 E1.93898
G1 X105.835 Y106.330 E1.95399
G1 X105.580 Y106.585 E1.96900
G1 X105.285 Y106.792 E1.98402
G1 X104.958 Y106.944 E1.99903
G1 X104.609 Y107.038 E2.01405
G1 X104.250 Y107.069 E2.02906
G1 X103.891 Y107.038 E2.04408
G1 X103.500 Y106.925 E2.06102
G1 X103.215 Y106.792 E2.07408
G1 X102.920 Y106.585 E2.08909
G1 X102.665 Y106.330 E2.10411
G1 X102.458 Y106.035 E2.11912
G1 X102.306 Y105.708 E2.13414
G1 X102.212 Y105.359 E2.14915
G1 X102.181 Y105.000 E2.16417
G1 X102.212 Y104.641 E2.17918
G1 X102.306 Y104.292 E2.19420
G1 X102.458 Y103.965 E2.20921
G1 X102.665 Y103.670 E2.22423
G1 X102.920 Y103.415 E2.23924
G1 X103.215 Y103.208 E2.25426
G1 X103.442 Y103.102 E2.26468
G1 X103.615 Y102.702 F9900.000
G1 X117.735 Y104.512
G1 X117.862 Y104.040 F540.000 E2.28505
G1 X118.068 Y103.596 E2.30542
G1 X118.349 Y103.195 E2.32579
G1 X118.695 Y102.849 E2.34616
G1 X119.096 Y102.568 E2.36654
G1 X119.540 Y102.362 E2.38691
G1 X120.012 Y102.235 E2.40728
G1 X120.500 Y102.192 E2.42766
G1 X120.988 Y102.235 E2.44803
G1 X121.460 Y102.362 E2.46840
G1 X121.904 Y102.568 E2.48877
G1 X122.305 Y102.849 E2.50915
G1 X122.651 Y103.195 E2.52952
G1 X122.931 Y103.596 E2.54989
G1 X123.138 Y104.040 E2.57026
G1 X123.265 Y104.512 E2.59064
G1 X123.308 Y105.000 E2.61101
G1 X123.265 Y105.488 E2.63138
G1 X123.138 Y105.960 E2.65175
G1 X122.932 Y106.404 E2.67213
G1 X122.868 Y106.495 E2.67676
G1 X122.651 Y106.805 E2.69251
G1 X122.305 Y107.151 E2.71287
G1 X121.904 Y107.432 E2.73325
G1 X121.460 Y107.638 E2.75362
G1 X120.988 Y107.765 E2.77399
G1 X120.500 Y107.808 E2.79437
G1 X120.012 Y107.765 E2.81474
G1 X119.540 Y107.638 E2.83511
G1 X119.096 Y107.432 E2.85548
G1 X118.695 Y107.151 E2.87586
G1 X118.349 Y106.805 E2.89623
G1 X118.068 Y106.404 E2.91660
G1 X117.862 Y105.960 E2.93698
G1 X117.735 Y105.488 E2.95735
G1 X117.692 Y105.000 E2.97772
G1 X117.725 Y104.622 E2.99350
G1 X118.462 Y104.641 F9900.000
G1 X118.556 Y104.292 F540.000 E3.00852
G1 X118.708 Y103.965 E3.02353
G1 X118.915 Y103.670 E3.03854
G1 X119.170 Y103.415 E3.05356
G1 X119.465 Y103.208 E3.06857
G1 X119.792 Y103.056 E3.08359
G1 X120.141 Y102.962 E3.09860
G1 X120.500 Y102.931 E3.11362
G1 X120.859 Y102.962 E3.12863
G1 X121.208 Y103.056 E3.14364
G1 X121.535 Y103.208 E3.15866
G1 X121.830 Y103.415 E3.17367
G1 X122.085 Y103.670 E3.18869
G1 X122.292 Y103.965 E3.20370
G1 X122.444 Y104.292 E3.21872
G1 X122.538 Y104.641 E3.23373
G1 X122.569 Y105.000 E3.24875
G1 X122.538 Y105.359 E3.26376
G1 X122.444 Y105.708 E3.27878
G1 X122.265 Y106.073 E3.29572
G1 X122.085 Y106.330 E3.30878
G1 X121.830 Y106.585 E3.32379
G1 X121.535 Y106.792 E3.33881
G1 X121.208 Y106.944 E3.35382
G1 X120.859 Y107.038 E3.36884
G1 X120.500 Y107.069 E3.38385
G1 X120.141 Y107.038 E3.39887
G1 X119.792 Y106.944 E3.41388
G1 X119.465 Y106.792 E3.42889
G1 X119.170 Y106.585 E3.44391
G1 X118.915 Y106.330 E3.45893
G1 X118.708 Y106.035 E3.47394
G1 X118.556 Y105.708 E3.48896
G1 X118.462 Y105.359 E3.50397
G1 X118.431 Y105.000 E3.51898
G1 X118.453 Y104.751 E3.52940
G1 X118.193 Y104.401 F9900.000
G1 X118.094 Y104.999
G1 X120.259 Y107.181
G1 X120.689 Y107.218
G1 X134.344 Y104.999
G1 X133.942 Y105.000
G1 X133.985 Y104.513 F540.000 E3.54977
G1 X134.112 Y104.040 E3.57015
G1 X134.319 Y103.596 E3.59052
G1 X134.599 Y103.195 E3.61090
G1 X134.945 Y102.849 E3.63126
G1 X135.346 Y102.569 E3.65164
G1 X135.790 Y102.362 E3.67201
G1 X136.262 Y102.235 E3.69238
G1 X136.750 Y102.192 E3.71276
G1 X137.238 Y102.235 E3.73313
G1 X137.710 Y102.362 E3.75350
G1 X138.154 Y102.569 E3.77388
G1 X138.555 Y102.849 E3.79424
G1 X138.901 Y103.195 E3.81463
G1 X139.182 Y103.596 E3.83500
G1 X139.388 Y104.040 E3.85537
G1 X139.515 Y104.512 E3.87574
G1 X139.558 Y105.000 E3.89611
G1 X139.515 Y105.487 E3.91648
G1 X139.388 Y105.960 E3.93686
G1 X139.181 Y106.404 E3.95723
G1 X138.901 Y106.805 E3.97761
G1 X138.555 Y107.151 E3.99798
G1 X138.154 Y107.432 E4.01835
G1 X137.710 Y107.638 E4.03872
G1 X137.238 Y107.765 E4.05909
G1 X136.750 Y107.808 E4.07947
G1 X136.262 Y107.765 E4.09984
G1 X135.790 Y107.638 E4.12021
G1 X135.346 Y107.431 E4.14059
G1 X134.945 Y107.151 E4.16096
G1 X134.599 Y106.805 E4.18134
G1 X134.318 Y106.404 E4.20171
G1 X134.112 Y105.960 E4.22208
G1 X133.985 Y105.488 E4.24245
G1 X133.952 Y105.110 E4.25823
G1 X134.681 Y105.000 F9900.000
G1 X134.712 Y104.641 F540.000 E4.27324
G1 X134.806 Y104.292 E4.28826
G1 X134.958 Y103.965 E4.30327
G1 X135.165 Y103.670 E4.31829
G1 X135.420 Y103.415 E4.33330
G1 X135.715 Y103.208 E4.34832
G1 X136.042 Y103.056 E4.36333
G1 X136.391 Y102.962 E4.37835
G1 X136.750 Y102.931 E4.39336
G1 X137.109 Y102.962 E4.40838
G1 X137.458 Y103.056 E4.42339
G1 X137.785 Y103.208 E4.43840
G1 X138.080 Y103.415 E4.45342
G1 X138.335 Y103.670 E4.46843
G1 X138.542 Y103.965 E4.48345
G1 X138.694 Y104.292 E4.49846
G1 X138.788 Y104.641 E4.51348
G1 X138.819 Y105.000 E4.52849
G1 X138.788 Y105.359 E4.54351
G1 X138.694 Y105.708 E4.55852
G1 X138.542 Y106.035 E4.57354
G1 X138.335 Y106.330 E4.58855
G1 X138.080 Y106.585 E4.60356
G1 X137.785 Y106.792 E4.61858
G1 X137.458 Y106.944 E4.63359
G1 X137.109 Y107.038 E4.64861
G1 X136.750 Y107.069 E4.66362
G1 X136.391 Y107.038 E4.67864
G1 X136.042 Y106.944 E4.69365
G1 X135.715 Y106.792 E4.70867
G1 X135.420 Y106.585 E4.72368
G1 X135.165 Y106.330 E4.73870
G1 X134.958 Y106.035 E4.75371
G1 X134.806 Y105.708 E4.76873
G1 X134.712 Y105.359 E4.78374
G1 X134.690 Y105.110 E4.79416
G1 X134.374 Y104.811 F9900.000
G1 X130.223 Y95.509
G1 X145.240 Y95.509 F900.000 E5.41930
G1 X145.245 Y114.495 E6.20962
G1 X94.755 Y114.495 E8.31139
G1 X94.759 Y61.103 E10.53394
G1 X113.745 Y61.103 E11.32426
G1 X113.741 Y79.028 E12.07040
G1 X113.819 Y80.618 E12.13669
G1 X114.057 Y82.221 E12.20414
G1 X114.450 Y83.793 E12.27159
G1 X114.996 Y85.318 E12.33903
G1 X115.689 Y86.783 E12.40648
G1 X116.522 Y88.173 E12.47393
G1 X117.487 Y89.474 E12.54138
G1 X118.575 Y90.675 E12.60882
G1 X119.776 Y91.763 E12.67627
G1 X121.077 Y92.728 E12.74372
G1 X122.467 Y93.561 E12.81117
G1 X123.416 Y94.010 E12.85485
G1 X123.932 Y94.254 E12.87861
G1 X125.457 Y94.800 E12.94606
G1 X127.029 Y95.193 E13.01351
G1 X128.632 Y95.431 E13.08096
G1 X130.113 Y95.504 E13.14268
G1 X130.241 Y94.774 F9900.000
G1 X145.976 Y94.774 F630.000 E13.79769
G1 X145.981 Y114.984 E14.63898
G1 X145.965 Y115.078 E14.64296
G1 X145.897 Y115.176 E14.64790
G1 X145.828 Y115.215 E14.65121
G1 X145.734 Y115.231 E14.65520
G1 X94.266 Y115.231 E16.79768
G1 X94.172 Y115.215 E16.80166
G1 X94.103 Y115.176 E16.80497
G1 X94.035 Y115.078 E16.80991
G1 X94.019 Y114.984 E16.81389
G1 X94.024 Y60.368 E19.08743
G1 X114.480 Y60.368 E19.93899
G1 X114.476 Y79.009 E20.71499
G1 X114.552 Y80.546 E20.77905
G1 X114.779 Y82.077 E20.84348
G1 X115.155 Y83.579 E20.90792
G1 X115.677 Y85.036 E20.97236
G1 X116.339 Y86.436 E21.03680
G1 X117.134 Y87.764 E21.10124
G1 X118.057 Y89.007 E21.16568
G1 X119.096 Y90.154 E21.23012
G1 X120.243 Y91.193 E21.29456
G1 X121.486 Y92.116 E21.35899
G1 X122.814 Y92.911 E21.42343
G1 X123.730 Y93.345 E21.46561
G1 X124.214 Y93.573 E21.48787
G1 X125.671 Y94.095 E21.55231
G1 X127.173 Y94.471 E21.61675
G1 X128.704 Y94.698 E21.68119
G1 X130.131 Y94.768 E21.74066
G1 X130.598 Y95.417 F9900.000
G1 X132.938 Y96.042
G1 X144.710 Y107.814 F990.000 E22.43910
G1 X144.710 Y106.766 E22.48310
G1 X133.987 Y96.042 E23.11932
G1 X135.035 Y96.042 E23.16331
G1 X144.710 Y105.717 E23.73731
G1 X144.709 Y104.668 E23.78131
G1 X136.084 Y96.042 E24.29309
G1 X137.132 Y96.042 E24.33708
G1 X144.709 Y103.619 E24.78663
G1 X144.709 Y102.571 E24.83063
G1 X138.181 Y96.042 E25.21796
G1 X139.229 Y96.042 E25.26195
G1 X144.709 Y101.522 E25.58706
G1 X144.708 Y100.473 E25.63106
G1 X140.277 Y96.042 E25.89395
G1 X141.326 Y96.042 E25.93794
G1 X144.708 Y99.424 E26.13860
G1 X144.708 Y98.376 E26.18260
G1 X142.374 Y96.042 E26.32105
G1 X143.423 Y96.042 E26.36503
G1 X144.708 Y97.327 E26.44126
G1 X144.707 Y96.278 E26.48525
G1 X144.471 Y96.042 E26.49925
G1 X137.638 Y101.790 F9900.000
G1 X131.890 Y96.042 F990.000 E26.84028
G1 X130.841 Y96.042 E26.88427
G1 X136.480 Y101.681 E27.21880
G1 X135.609 Y101.858 E27.25609
G1 X129.771 Y96.021 E27.60243
G1 X128.669 Y95.967 E27.64875
G1 X134.919 Y102.217 E28.01958
G1 X134.347 Y102.693 E28.05081
G1 X127.448 Y95.794 E28.46014
G1 X126.120 Y95.515 E28.51705
G1 X133.887 Y103.282 E28.97787
G1 X133.567 Y104.011 E29.01125
G1 X124.625 Y95.068 E29.54185
G1 X122.831 Y94.323 E29.62332
G1 X133.415 Y104.907 E30.25128
G1 X133.614 Y106.154 E30.30425
G1 X120.203 Y92.744 E31.09990
G1 X116.506 Y89.047 F9900.000
G1 X95.292 Y67.832 F990.000 E32.35858
G1 X95.292 Y66.784 E32.40256
G1 X114.927 Y86.419 E33.56752
G1 X114.182 Y84.625 E33.64899
G1 X95.292 Y65.736 E34.76975
G1 X95.292 Y64.687 E34.81374
G1 X113.735 Y83.130 E35.90795
G1 X113.456 Y81.802 E35.96486
G1 X95.292 Y63.639 E37.04251
G1 X95.292 Y62.590 E37.08649
G1 X113.283 Y80.581 E38.15392
G1 X113.229 Y79.479 E38.20023
G1 X95.387 Y61.637 E39.25882
G1 X96.436 Y61.637 E39.30281
G1 X113.208 Y78.409 E40.29792
G1 X113.208 Y77.361 E40.34190
G1 X97.484 Y61.637 E41.27482
G1 X98.533 Y61.637 E41.31881
G1 X113.208 Y76.312 E42.18954
G1 X113.208 Y75.264 E42.23351
G1 X99.581 Y61.637 E43.04205
G1 X100.629 Y61.637 E43.08603
G1 X113.209 Y74.216 E43.83237
G1 X113.209 Y73.168 E43.87635
G1 X101.678 Y61.637 E44.56049
G1 X102.726 Y61.637 E44.60448
G1 X113.209 Y72.119 E45.22643
G1 X113.209 Y71.071 E45.27041
G1 X103.775 Y61.637 E45.83016
G1 X104.823 Y61.637 E45.87415
G1 X113.210 Y70.023 E46.37171
G1 X113.210 Y68.975 E46.41569
G1 X105.872 Y61.637 E46.85106
G1 X106.920 Y61.637 E46.89505
G1 X113.210 Y67.926 E47.26822
G1 X113.210 Y66.878 E47.31220
G1 X107.969 Y61.637 E47.62318
G1 X109.017 Y61.637 E47.66716
G1 X113.210 Y65.830 E47.91595
G1 X113.211 Y64.782 E47.95993
G1 X110.066 Y61.637 E48.14652
G1 X111.114 Y61.637 E48.19051
G1 X113.211 Y63.733 E48.31490
G1 X113.211 Y62.685 E48.35888
G1 X112.163 Y61.637 E48.42109
G1 X113.211 Y61.637 E48.46508
G1 X105.134 Y101.789 F9900.000
G1 X95.290 Y91.945 F990.000 E49.04913
G1 X95.290 Y92.994 E49.09312
G1 X103.977 Y101.681 E49.60854
G1 X103.107 Y101.859 E49.64582
G1 X95.290 Y94.042 E50.10959
G1 X95.290 Y95.090 E50.15358
G1 X102.417 Y102.218 E50.57645
G1 X101.846 Y102.695 E50.60768
G1 X95.290 Y96.139 E50.99665
G1 X95.290 Y97.187 E51.04063
G1 X101.386 Y103.284 E51.40234
G1 X101.067 Y104.013 E51.43573
G1 X95.290 Y98.236 E51.77850
G1 X95.290 Y99.284 E51.82248
G1 X100.915 Y104.909 E52.15624
G1 X101.116 Y106.159 E52.20932
G1 X95.290 Y100.332 E52.55500
G1 X95.290 Y101.381 E52.59898
G1 X107.870 Y113.962 E53.34542
G1 X106.822 Y113.962 E53.38941
G1 X95.289 Y102.429 E54.07364
G1 X95.289 Y103.478 E54.11763
G1 X105.774 Y113.962 E54.73966
G1 X104.725 Y113.962 E54.78365
G1 X95.289 Y104.526 E55.34348
G1 X95.289 Y105.574 E55.38746
G1 X103.677 Y113.962 E55.88509
G1 X102.628 Y113.962 E55.92908
G1 X95.289 Y106.623 E56.36451
G1 X95.289 Y107.671 E56.40849
G1 X101.580 Y113.962 E56.78171
G1 X100.531 Y113.962 E56.82570
G1 X95.289 Y108.720 E57.13672
G1 X95.289 Y109.768 E57.18071
G1 X99.483 Y113.962 E57.42953
G1 X98.434 Y113.962 E57.47352
G1 X95.289 Y110.816 E57.66013
G1 X95.289 Y111.865 E57.70412
G1 X97.386 Y113.962 E57.82853
G1 X96.337 Y113.962 E57.87252
G1 X95.289 Y112.913 E57.93473
G1 X95.289 Y113.962 E57.97873
G1 X108.919 Y113.962 F9900.000
G1 X103.091 Y108.134 F990.000 E58.32449
G1 X104.341 Y108.335 E58.37757
G1 X109.967 Y113.962 E58.71141
G1 X111.016 Y113.962 E58.75540
G1 X105.237 Y108.183 E59.09825
