; generated by Slic3r 0.9.9-dev on 2013-07-31 at 20:13:16

; layer_height = 0.3
; perimeters = 2
; top_solid_layers = 4
; bottom_solid_layers = 4
; fill_density = 0.25
; perimeter_speed = 50
; infill_speed = 80
; travel_speed = 165
; nozzle_diameter = 0.5
; filament_diameter = 3.18
; extrusion_multiplier = 1
; perimeters extrusion width = 0.70mm
; infill extrusion width = 0.70mm
; solid infill extrusion width = 0.70mm
; top infill extrusion width = 0.70mm
; first layer extrusion width = 0.80mm

G21 ; set units to millimeters
M107
M190 S70 ; wait for bed temperature to be reached
M104 S185 ; set temperature
;G28 ; home all axes
;G1 Z5 F5000 ; lift nozzle
M109 S185 ; wait for temperature to be reached
G90 ; use absolute coordinates
G92 E0
M82 ; use absolute distances for extrusion
G1 F1800.000 E-1.00000
G1 Z0.700
G92 E0
G1 X87.960 Y56.400 F9900.000
G1 Z0.400
G1 F1800.000 E1.50000
G1 X88.430 Y55.740 F900.000 E1.53002
G1 X88.980 Y55.140 E1.56017
G1 X89.600 Y54.620 E1.59015
G1 X90.280 Y54.170 E1.62036
G1 X90.760 Y53.910 E1.64059
G1 X91.010 Y53.800 E1.65071
G1 X91.780 Y53.530 E1.68094
G1 X92.300 Y53.400 E1.70079
G1 X92.840 Y53.310 E1.72108
G1 X93.650 Y53.260 E1.75114
G1 X114.840 Y53.260 E2.53620
G1 X115.400 Y53.290 E2.55697
G1 X115.950 Y53.360 E2.57752
G1 X116.500 Y53.470 E2.59830
G1 X117.030 Y53.630 E2.61881
G1 X117.810 Y53.950 E2.65004
G1 X118.300 Y54.220 E2.67077
G1 X118.990 Y54.690 E2.70170
G1 X119.410 Y55.060 E2.72244
G1 X119.810 Y55.450 E2.74313
G1 X151.310 Y89.850 E4.47120
G1 X151.670 Y90.280 E4.49197
G1 X151.990 Y90.730 E4.51243
G1 X152.400 Y91.450 E4.54313
G1 X152.620 Y91.960 E4.56371
G1 X152.800 Y92.480 E4.58409
G1 X152.870 Y92.750 E4.59443
G1 X153.020 Y93.570 E4.62531
G1 X153.080 Y94.400 E4.65614
G1 X153.080 Y114.990 E5.41897
G1 X153.010 Y115.940 E5.45426
G1 X152.930 Y116.460 E5.47375
G1 X152.790 Y117.050 E5.49621
G1 X152.590 Y117.640 E5.51929
G1 X152.470 Y117.920 E5.53058
G1 X152.150 Y118.560 E5.55709
G1 X151.770 Y119.160 E5.58340
G1 X151.490 Y119.540 E5.60089
G1 X151.150 Y119.950 E5.62062
G1 X150.690 Y120.410 E5.64472
G1 X150.180 Y120.830 E5.66920
G1 X149.640 Y121.200 E5.69345
G1 X148.930 Y121.600 E5.72365
G1 X148.370 Y121.850 E5.74637
G1 X147.790 Y122.040 E5.76898
G1 X147.200 Y122.180 E5.79144
G1 X146.690 Y122.260 E5.81057
G1 X145.740 Y122.330 E5.84586
G1 X94.240 Y122.330 E7.75385
G1 X93.240 Y122.250 E7.79102
G1 X92.450 Y122.110 E7.82074
G1 X91.870 Y121.940 E7.84313
G1 X91.310 Y121.720 E7.86542
G1 X90.680 Y121.400 E7.89160
G1 X90.080 Y121.020 E7.91792
G1 X89.700 Y120.740 E7.93540
G1 X89.290 Y120.400 E7.95514
G1 X88.830 Y119.940 E7.97924
G1 X88.410 Y119.430 E8.00371
G1 X88.040 Y118.890 E8.02797
G1 X87.640 Y118.190 E8.05784
G1 X87.400 Y117.640 E8.08007
G1 X87.210 Y117.080 E8.10198
G1 X87.070 Y116.490 E8.12444
G1 X86.990 Y116.000 E8.14284
G1 X86.910 Y115.000 E8.18000
G1 X86.910 Y60.000 E10.21766
G1 X86.960 Y59.190 E10.24773
G1 X87.050 Y58.650 E10.26801
G1 X87.180 Y58.130 E10.28787
G1 X87.350 Y57.610 E10.30814
G1 X87.560 Y57.110 E10.32823
G1 X87.903 Y56.494 E10.35434
G1 F1800.000 E9.35434
G1 Z0.700
G92 E0
G1 X103.290 Y102.362 F9900.000
G1 Z0.400
G1 F1800.000 E1.50000
G1 X103.762 Y102.235 F540.000 E1.51813
G1 X104.250 Y102.192 E1.53627
G1 X104.738 Y102.235 E1.55440
G1 X105.210 Y102.362 E1.57253
G1 X105.311 Y102.409 E1.57665
G1 X105.654 Y102.569 E1.59066
G1 X106.055 Y102.849 E1.60879
G1 X106.401 Y103.195 E1.62692
G1 X106.682 Y103.596 E1.64506
G1 X106.888 Y104.040 E1.66319
G1 X107.015 Y104.512 E1.68132
G1 X107.058 Y105.000 E1.69945
G1 X107.015 Y105.488 E1.71758
G1 X106.888 Y105.960 E1.73571
G1 X106.682 Y106.404 E1.75384
G1 X106.401 Y106.805 E1.77198
G1 X106.055 Y107.151 E1.79011
G1 X105.654 Y107.432 E1.80824
G1 X105.210 Y107.638 E1.82637
G1 X104.738 Y107.765 E1.84450
G1 X104.250 Y107.808 E1.86264
G1 X103.762 Y107.765 E1.88077
G1 X103.290 Y107.638 E1.89889
G1 X103.189 Y107.591 E1.90302
G1 X102.846 Y107.432 E1.91703
G1 X102.445 Y107.151 E1.93516
G1 X102.099 Y106.805 E1.95330
G1 X101.818 Y106.404 E1.97143
G1 X101.612 Y105.960 E1.98956
G1 X101.485 Y105.488 E2.00769
G1 X101.442 Y105.000 E2.02582
G1 X101.485 Y104.512 E2.04395
G1 X101.612 Y104.040 E2.06208
G1 X101.819 Y103.596 E2.08021
G1 X102.099 Y103.195 E2.09835
G1 X102.445 Y102.849 E2.11648
G1 X102.846 Y102.568 E2.13461
G1 X103.190 Y102.408 E2.14865
G1 X103.542 Y103.056 F9900.000
G1 X103.891 Y102.962 F540.000 E2.16201
G1 X104.250 Y102.931 E2.17538
G1 X104.609 Y102.962 E2.18874
G1 X105.000 Y103.075 E2.20382
G1 X105.285 Y103.208 E2.21544
G1 X105.580 Y103.415 E2.22880
G1 X105.835 Y103.670 E2.24217
G1 X106.042 Y103.965 E2.25553
G1 X106.194 Y104.292 E2.26889
G1 X106.288 Y104.641 E2.28226
G1 X106.319 Y105.000 E2.29562
G1 X106.276 Y105.405 E2.31070
G1 X106.194 Y105.708 E2.32232
G1 X106.042 Y106.035 E2.33569
G1 X105.835 Y106.330 E2.34905
G1 X105.580 Y106.585 E2.36241
G1 X105.285 Y106.792 E2.37577
G1 X104.958 Y106.944 E2.38914
G1 X104.609 Y107.038 E2.40250
G1 X104.250 Y107.069 E2.41586
G1 X103.891 Y107.038 E2.42923
G1 X103.500 Y106.925 E2.44431
G1 X103.215 Y106.792 E2.45593
G1 X102.920 Y106.585 E2.46929
G1 X102.665 Y106.330 E2.48266
G1 X102.458 Y106.035 E2.49602
G1 X102.306 Y105.708 E2.50938
G1 X102.212 Y105.359 E2.52274
G1 X102.181 Y105.000 E2.53611
G1 X102.212 Y104.641 E2.54947
G1 X102.306 Y104.292 E2.56283
G1 X102.458 Y103.965 E2.57619
G1 X102.665 Y103.670 E2.58956
G1 X102.920 Y103.415 E2.60292
G1 X103.215 Y103.208 E2.61628
G1 X103.442 Y103.102 E2.62556
G1 X103.615 Y102.702 F9900.000
G1 X117.735 Y104.512
G1 X117.862 Y104.040 F540.000 E2.64369
G1 X118.068 Y103.596 E2.66182
G1 X118.349 Y103.195 E2.67995
G1 X118.695 Y102.849 E2.69808
G1 X119.096 Y102.568 E2.71621
G1 X119.540 Y102.362 E2.73435
G1 X120.012 Y102.235 E2.75248
G1 X120.500 Y102.192 E2.77061
G1 X120.988 Y102.235 E2.78874
G1 X121.460 Y102.362 E2.80687
G1 X121.904 Y102.568 E2.82500
G1 X122.305 Y102.849 E2.84314
G1 X122.651 Y103.195 E2.86126
G1 X122.931 Y103.596 E2.87940
G1 X123.138 Y104.040 E2.89753
G1 X123.265 Y104.512 E2.91566
G1 X123.308 Y105.000 E2.93379
G1 X123.265 Y105.488 E2.95193
G1 X123.138 Y105.960 E2.97006
G1 X122.932 Y106.404 E2.98819
G1 X122.868 Y106.495 E2.99231
G1 X122.651 Y106.805 E3.00632
G1 X122.305 Y107.151 E3.02445
G1 X121.904 Y107.432 E3.04259
G1 X121.460 Y107.638 E3.06071
G1 X120.988 Y107.765 E3.07885
G1 X120.500 Y107.808 E3.09698
G1 X120.012 Y107.765 E3.11511
G1 X119.540 Y107.638 E3.13324
G1 X119.096 Y107.432 E3.15137
G1 X118.695 Y107.151 E3.16951
G1 X118.349 Y106.805 E3.18764
G1 X118.068 Y106.404 E3.20577
G1 X117.862 Y105.960 E3.22390
G1 X117.735 Y105.488 E3.24203
G1 X117.692 Y105.000 E3.26016
G1 X117.725 Y104.622 E3.27421
G1 X118.462 Y104.641 F9900.000
G1 X118.556 Y104.292 F540.000 E3.28757
G1 X118.708 Y103.965 E3.30093
G1 X118.915 Y103.670 E3.31430
G1 X119.170 Y103.415 E3.32766
G1 X119.465 Y103.208 E3.34102
G1 X119.792 Y103.056 E3.35439
G1 X120.141 Y102.962 E3.36775
G1 X120.500 Y102.931 E3.38111
G1 X120.859 Y102.962 E3.39447
G1 X121.208 Y103.056 E3.40784
G1 X121.535 Y103.208 E3.42120
G1 X121.830 Y103.415 E3.43456
G1 X122.085 Y103.670 E3.44792
G1 X122.292 Y103.965 E3.46129
G1 X122.444 Y104.292 E3.47465
G1 X122.538 Y104.641 E3.48801
G1 X122.569 Y105.000 E3.50138
G1 X122.538 Y105.359 E3.51474
G1 X122.444 Y105.708 E3.52810
G1 X122.265 Y106.073 E3.54318
G1 X122.085 Y106.330 E3.55481
G1 X121.830 Y106.585 E3.56817
G1 X121.535 Y106.792 E3.58153
G1 X121.208 Y106.944 E3.59489
G1 X120.859 Y107.038 E3.60826
G1 X120.500 Y107.069 E3.62162
G1 X120.141 Y107.038 E3.63498
G1 X119.792 Y106.944 E3.64834
G1 X119.465 Y106.792 E3.66171
G1 X119.170 Y106.585 E3.67507
G1 X118.915 Y106.330 E3.68844
G1 X118.708 Y106.035 E3.70180
G1 X118.556 Y105.708 E3.71516
G1 X118.462 Y105.359 E3.72852
G1 X118.431 Y105.000 E3.74188
G1 X118.453 Y104.751 E3.75116
G1 X118.193 Y104.401 F9900.000
G1 X118.094 Y104.999
G1 X120.259 Y107.181
G1 X120.689 Y107.218
G1 X134.344 Y104.999
G1 X133.942 Y105.000
G1 X133.985 Y104.513 F540.000 E3.76929
G1 X134.112 Y104.040 E3.78743
G1 X134.319 Y103.596 E3.80556
G1 X134.599 Y103.195 E3.82369
G1 X134.945 Y102.849 E3.84182
G1 X135.346 Y102.569 E3.85995
G1 X135.790 Y102.362 E3.87808
G1 X136.262 Y102.235 E3.89621
G1 X136.750 Y102.192 E3.91435
G1 X137.238 Y102.235 E3.93248
G1 X137.710 Y102.362 E3.95061
G1 X138.154 Y102.569 E3.96874
G1 X138.555 Y102.849 E3.98687
G1 X138.901 Y103.195 E4.00501
G1 X139.182 Y103.596 E4.02314
G1 X139.388 Y104.040 E4.04127
G1 X139.515 Y104.512 E4.05940
G1 X139.558 Y105.000 E4.07753
G1 X139.515 Y105.487 E4.09566
G1 X139.388 Y105.960 E4.11380
G1 X139.181 Y106.404 E4.13193
G1 X138.901 Y106.805 E4.15006
G1 X138.555 Y107.151 E4.16819
G1 X138.154 Y107.432 E4.18632
G1 X137.710 Y107.638 E4.20445
G1 X137.238 Y107.765 E4.22258
G1 X136.750 Y107.808 E4.24072
G1 X136.262 Y107.765 E4.25885
G1 X135.790 Y107.638 E4.27698
G1 X135.346 Y107.431 E4.29511
G1 X134.945 Y107.151 E4.31324
G1 X134.599 Y106.805 E4.33138
G1 X134.318 Y106.404 E4.34951
G1 X134.112 Y105.960 E4.36764
G1 X133.985 Y105.488 E4.38577
G1 X133.952 Y105.110 E4.39981
G1 X134.681 Y105.000 F9900.000
G1 X134.712 Y104.641 F540.000 E4.41317
G1 X134.806 Y104.292 E4.42654
G1 X134.958 Y103.965 E4.43990
G1 X135.165 Y103.670 E4.45327
G1 X135.420 Y103.415 E4.46663
G1 X135.715 Y103.208 E4.47999
G1 X136.042 Y103.056 E4.49335
G1 X136.391 Y102.962 E4.50672
G1 X136.750 Y102.931 E4.52008
G1 X137.109 Y102.962 E4.53344
G1 X137.458 Y103.056 E4.54680
G1 X137.785 Y103.208 E4.56017
G1 X138.080 Y103.415 E4.57353
G1 X138.335 Y103.670 E4.58689
G1 X138.542 Y103.965 E4.60026
G1 X138.694 Y104.292 E4.61362
G1 X138.788 Y104.641 E4.62698
G1 X138.819 Y105.000 E4.64035
G1 X138.788 Y105.359 E4.65371
G1 X138.694 Y105.708 E4.66707
G1 X138.542 Y106.035 E4.68043
G1 X138.335 Y106.330 E4.69380
G1 X138.080 Y106.585 E4.70716
G1 X137.785 Y106.792 E4.72052
G1 X137.458 Y106.944 E4.73388
G1 X137.109 Y107.038 E4.74725
G1 X136.750 Y107.069 E4.76061
G1 X136.391 Y107.038 E4.77397
G1 X136.042 Y106.944 E4.78734
G1 X135.715 Y106.792 E4.80070
G1 X135.420 Y106.585 E4.81406
G1 X135.165 Y106.330 E4.82743
G1 X134.958 Y106.035 E4.84079
G1 X134.806 Y105.708 E4.85415
G1 X134.712 Y105.359 E4.86751
G1 X134.690 Y105.110 E4.87679
G1 X134.374 Y104.811 F9900.000
G1 X130.223 Y95.509
G1 X145.240 Y95.509 F900.000 E5.43316
G1 X145.245 Y114.495 E6.13655
G1 X94.755 Y114.495 E8.00711
G1 X94.759 Y61.103 E9.98518
G1 X113.745 Y61.103 E10.68855
G1 X113.741 Y79.028 E11.35261
G1 X113.819 Y80.618 E11.41162
G1 X114.057 Y82.221 E11.47164
G1 X114.450 Y83.793 E11.53167
G1 X114.996 Y85.318 E11.59170
G1 X115.689 Y86.783 E11.65173
G1 X116.522 Y88.173 E11.71176
G1 X117.487 Y89.474 E11.77178
G1 X118.575 Y90.675 E11.83181
G1 X119.776 Y91.763 E11.89184
G1 X121.077 Y92.728 E11.95187
G1 X122.467 Y93.561 E12.01190
G1 X123.416 Y94.010 E12.05078
G1 X123.932 Y94.254 E12.07192
G1 X125.457 Y94.800 E12.13195
G1 X127.029 Y95.193 E12.19198
G1 X128.632 Y95.431 E12.25201
G1 X130.113 Y95.504 E12.30695
G1 X130.241 Y94.774 F9900.000
G1 X145.976 Y94.774 F630.000 E12.88990
G1 X145.981 Y114.984 E13.63865
G1 X145.965 Y115.078 E13.64219
G1 X145.897 Y115.176 E13.64658
G1 X145.828 Y115.215 E13.64953
G1 X145.734 Y115.231 E13.65308
G1 X94.266 Y115.231 E15.55988
G1 X94.172 Y115.215 E15.56342
G1 X94.103 Y115.176 E15.56637
G1 X94.035 Y115.078 E15.57076
G1 X94.019 Y114.984 E15.57430
G1 X94.024 Y60.368 E17.59774
G1 X114.480 Y60.368 E18.35564
G1 X114.476 Y79.009 E19.04627
G1 X114.552 Y80.546 E19.10328
G1 X114.779 Y82.077 E19.16063
G1 X115.155 Y83.579 E19.21798
G1 X115.677 Y85.036 E19.27533
G1 X116.339 Y86.436 E19.33268
G1 X117.134 Y87.764 E19.39003
G1 X118.057 Y89.007 E19.44738
G1 X119.096 Y90.154 E19.50473
G1 X120.243 Y91.193 E19.56208
G1 X121.486 Y92.116 E19.61943
G1 X122.814 Y92.911 E19.67678
G1 X123.730 Y93.345 E19.71432
G1 X124.214 Y93.573 E19.73413
G1 X125.671 Y94.095 E19.79148
G1 X127.173 Y94.471 E19.84883
G1 X128.704 Y94.698 E19.90618
G1 X130.131 Y94.768 E19.95911
G1 X130.598 Y95.417 F9900.000
G1 X132.938 Y96.042
G1 X144.710 Y107.814 F1080.000 E20.58073
G1 X144.710 Y106.766 E20.61988
G1 X133.987 Y96.042 E21.18612
G1 X135.035 Y96.042 E21.22527
G1 X144.710 Y105.717 E21.73613
G1 X144.709 Y104.668 E21.77529
G1 X136.084 Y96.042 E22.23077
G1 X137.132 Y96.042 E22.26991
G1 X144.709 Y103.619 E22.67002
G1 X144.709 Y102.571 E22.70918
G1 X138.181 Y96.042 E23.05390
G1 X139.229 Y96.042 E23.09305
G1 X144.709 Y101.522 E23.38240
G1 X144.708 Y100.473 E23.42156
G1 X140.277 Y96.042 E23.65553
G1 X141.326 Y96.042 E23.69468
G1 X144.708 Y99.424 E23.87327
G1 X144.708 Y98.376 E23.91243
G1 X142.374 Y96.042 E24.03564
G1 X143.423 Y96.042 E24.07479
G1 X144.708 Y97.327 E24.14263
G1 X144.707 Y96.278 E24.18179
G1 X144.471 Y96.042 E24.19425
G1 X137.638 Y101.790 F9900.000
G1 X131.890 Y96.042 F1080.000 E24.49776
G1 X130.841 Y96.042 E24.53691
G1 X136.480 Y101.681 E24.83464
G1 X135.609 Y101.858 E24.86783
G1 X129.771 Y96.021 E25.17607
G1 X128.669 Y95.967 E25.21729
G1 X134.919 Y102.217 E25.54733
G1 X134.347 Y102.693 E25.57513
G1 X127.448 Y95.794 E25.93942
G1 X126.120 Y95.515 E25.99008
G1 X133.887 Y103.282 E26.40021
G1 X133.567 Y104.011 E26.42992
G1 X124.625 Y95.068 E26.90214
G1 X122.831 Y94.323 E26.97465
G1 X133.415 Y104.907 E27.53354
G1 X133.614 Y106.154 E27.58068
G1 X120.203 Y92.744 E28.28881
G1 X116.506 Y89.047 F9900.000
G1 X95.292 Y67.832 F1080.000 E29.40902
G1 X95.292 Y66.784 E29.44817
G1 X114.927 Y86.419 E30.48498
G1 X114.182 Y84.625 E30.55749
G1 X95.292 Y65.736 E31.55496
G1 X95.292 Y64.687 E31.59411
G1 X113.735 Y83.130 E32.56795
G1 X113.456 Y81.802 E32.61860
G1 X95.292 Y63.639 E33.57770
G1 X95.292 Y62.590 E33.61685
G1 X113.283 Y80.581 E34.56685
G1 X113.229 Y79.479 E34.60807
G1 X95.387 Y61.637 E35.55021
G1 X96.436 Y61.637 E35.58936
G1 X113.208 Y78.409 E36.47501
G1 X113.208 Y77.361 E36.51415
G1 X97.484 Y61.637 E37.34445
G1 X98.533 Y61.637 E37.38360
G1 X113.208 Y76.312 E38.15854
G1 X113.208 Y75.264 E38.19768
G1 X99.581 Y61.637 E38.91727
G1 X100.629 Y61.637 E38.95642
G1 X113.209 Y74.216 E39.62066
G1 X113.209 Y73.168 E39.65980
G1 X101.678 Y61.637 E40.26868
G1 X102.726 Y61.637 E40.30783
G1 X113.209 Y72.119 E40.86137
G1 X113.209 Y71.071 E40.90051
G1 X103.775 Y61.637 E41.39869
G1 X104.823 Y61.637 E41.43783
G1 X113.210 Y70.023 E41.88066
G1 X113.210 Y68.975 E41.91980
G1 X105.872 Y61.637 E42.30728
G1 X106.920 Y61.637 E42.34643
G1 X113.210 Y67.926 E42.67855
G1 X113.210 Y66.878 E42.71769
G1 X107.969 Y61.637 E42.99446
G1 X109.017 Y61.637 E43.03361
G1 X113.210 Y65.830 E43.25503
G1 X113.211 Y64.782 E43.29417
G1 X110.066 Y61.637 E43.46023
G1 X111.114 Y61.637 E43.49938
G1 X113.211 Y63.733 E43.61010
G1 X113.211 Y62.685 E43.64924
G1 X112.163 Y61.637 E43.70460
G1 X113.211 Y61.637 E43.74375
G1 X105.134 Y101.789 F9900.000
G1 X95.290 Y91.945 F1080.000 E44.26356
G1 X95.290 Y92.994 E44.30270
G1 X103.977 Y101.681 E44.76143
G1 X103.107 Y101.859 E44.79461
G1 X95.290 Y94.042 E45.20736
G1 X95.290 Y95.090 E45.24651
G1 X102.417 Y102.218 E45.62287
G1 X101.846 Y102.695 E45.65066
G1 X95.290 Y96.139 E45.99684
G1 X95.290 Y97.187 E46.03598
G1 X101.386 Y103.284 E46.35790
G1 X101.067 Y104.013 E46.38762
G1 X95.290 Y98.236 E46.69268
G1 X95.290 Y99.284 E46.73183
G1 X100.915 Y104.909 E47.02887
G1 X101.116 Y106.159 E47.07611
G1 X95.290 Y100.332 E47.38376
G1 X95.290 Y101.381 E47.42291
G1 X107.870 Y113.962 E48.08724
G1 X106.822 Y113.962 E48.12639
G1 X95.289 Y102.429 E48.73535
G1 X95.289 Y103.478 E48.77450
G1 X105.774 Y113.962 E49.32811
G1 X104.725 Y113.962 E49.36725
G1 X95.289 Y104.526 E49.86550
G1 X95.289 Y105.574 E49.90465
G1 X103.677 Y113.962 E50.34754
G1 X102.628 Y113.962 E50.38668
G1 X95.289 Y106.623 E50.77421
G1 X95.289 Y107.671 E50.81336
G1 X101.580 Y113.962 E51.14553
G1 X100.531 Y113.962 E51.18468
G1 X95.289 Y108.720 E51.46148
G1 X95.289 Y109.768 E51.50063
G1 X99.483 Y113.962 E51.72208
G1 X98.434 Y113.962 E51.76123
G1 X95.289 Y110.816 E51.92732
G1 X95.289 Y111.865 E51.96646
G1 X97.386 Y113.962 E52.07719
G1 X96.337 Y113.962 E52.11634
G1 X95.289 Y112.913 E52.17171
G1 X95.289 Y113.962 E52.21086
G1 X108.919 Y113.962 F9900.000
G1 X103.091 Y108.134 F1080.000 E52.51859
G1 X104.341 Y108.335 E52.56583
G1 X109.967 Y113.962 E52.86295
G1 X111.016 Y113.962 E52.90210
G1 X105.237 Y108.183 E53.20724
