; generated by Slic3r 0.9.9-dev on 2013-07-21 at 16:13:14

; layer_height = 0.3
; perimeters = 3
; top_solid_layers = 4
; bottom_solid_layers = 4
; fill_density = 0.25
; perimeter_speed = 50
; infill_speed = 80
; travel_speed = 165
; nozzle_diameter = 0.5
; filament_diameter = 3.2
; extrusion_multiplier = 1
; perimeters extrusion width = 0.70mm
; infill extrusion width = 0.70mm
; solid infill extrusion width = 0.70mm
; top infill extrusion width = 0.70mm
; support material extrusion width = 0.70mm
; first layer extrusion width = 1.00mm

G21 ; set units to millimeters
M107
M190 S65 ; wait for bed temperature to be reached
M104 S185 ; set temperature
;G28 ; home all axes
;G1 Z5 F5000 ; lift nozzle
M109 S185 ; wait for temperature to be reached
G90 ; use absolute coordinates
G92 E0
M82 ; use absolute distances for extrusion
G1 F1800.000 E-1.00000
G1 Z0.800
G92 E0
G1 X88.510 Y89.680 F9900.000
G1 Z0.500
G1 F1800.000 E1.00000
G1 X120.010 Y55.340 F900.000 E3.58621
G1 X120.410 Y54.940 E3.61760
G1 X120.850 Y54.570 E3.64951
G1 X121.310 Y54.230 E3.68126
G1 X121.800 Y53.940 E3.71286
G1 X122.580 Y53.580 E3.76053
G1 X122.850 Y53.480 E3.77651
G1 X123.390 Y53.320 E3.80777
G1 X123.950 Y53.200 E3.83956
G1 X124.800 Y53.110 E3.88699
G1 X146.670 Y53.110 E5.10076
G1 X146.940 Y53.130 E5.11578
G1 X147.480 Y53.190 E5.14594
G1 X147.740 Y53.240 E5.16063
G1 X148.530 Y53.440 E5.20586
G1 X148.790 Y53.530 E5.22113
G1 X149.530 Y53.860 E5.26610
G1 X150.000 Y54.120 E5.29591
G1 X150.230 Y54.270 E5.31115
G1 X150.450 Y54.420 E5.32592
G1 X150.880 Y54.760 E5.35635
G1 X151.080 Y54.940 E5.37128
G1 X151.640 Y55.520 E5.41602
G1 X151.980 Y55.950 E5.44645
G1 X152.130 Y56.170 E5.46123
G1 X152.280 Y56.400 E5.47647
G1 X152.540 Y56.870 E5.50628
G1 X152.870 Y57.610 E5.55124
G1 X152.960 Y57.870 E5.56651
G1 X153.100 Y58.390 E5.59640
G1 X153.210 Y58.920 E5.62644
G1 X153.290 Y59.730 E5.67161
G1 X153.290 Y114.990 E8.73849
G1 X153.190 Y116.170 E8.80421
G1 X153.090 Y116.730 E8.83578
G1 X152.910 Y117.370 E8.87268
G1 X152.670 Y118.000 E8.91010
G1 X152.480 Y118.400 E8.93467
G1 X151.870 Y119.400 E8.99968
G1 X151.560 Y119.810 E9.02821
G1 X151.350 Y120.050 E9.04591
G1 X150.890 Y120.520 E9.08241
G1 X150.640 Y120.740 E9.10089
G1 X149.990 Y121.230 E9.14607
G1 X149.150 Y121.730 E9.20032
G1 X148.460 Y122.040 E9.24230
G1 X148.150 Y122.150 E9.26056
G1 X147.520 Y122.330 E9.29692
G1 X146.740 Y122.470 E9.34090
G1 X146.000 Y122.540 E9.38215
G1 X94.250 Y122.540 E12.25423
G1 X93.070 Y122.440 E12.31995
G1 X92.520 Y122.340 E12.35098
G1 X92.200 Y122.260 E12.36928
G1 X91.890 Y122.170 E12.38720
G1 X91.280 Y121.940 E12.42338
G1 X90.700 Y121.650 E12.45937
G1 X90.230 Y121.380 E12.48945
G1 X89.710 Y121.030 E12.52424
G1 X89.000 Y120.430 E12.57583
G1 X88.780 Y120.210 E12.59309
G1 X88.380 Y119.730 E12.62777
G1 X87.920 Y119.110 E12.67062
G1 X87.780 Y118.880 E12.68556
G1 X87.510 Y118.400 E12.71613
G1 X87.320 Y118.000 E12.74070
G1 X87.080 Y117.370 E12.77812
G1 X86.900 Y116.730 E12.81502
G1 X86.800 Y116.170 E12.84659
G1 X86.700 Y114.990 E12.91231
G1 X86.700 Y94.060 E14.07390
G1 X86.750 Y93.490 E14.10566
G1 X86.840 Y92.930 E14.13714
G1 X86.980 Y92.380 E14.16864
G1 X87.170 Y91.840 E14.20041
G1 X87.390 Y91.320 E14.23174
G1 X87.660 Y90.820 E14.26328
G1 X87.970 Y90.340 E14.29499
G1 X88.420 Y89.779 E14.33490
G1 F1800.000 E13.33490
G1 Z0.800
G92 E0
G1 X100.717 Y101.982 F9900.000
G1 Z0.500
G1 F1800.000 E1.00000
G1 X101.280 Y101.588 F540.000 E1.03813
G1 X101.902 Y101.297 E1.07623
G1 X102.566 Y101.120 E1.11437
G1 X103.250 Y101.060 E1.15247
G1 X103.463 Y101.078 E1.16434
G1 X103.934 Y101.120 E1.19061
G1 X104.598 Y101.297 E1.22872
G1 X105.220 Y101.588 E1.26684
G1 X105.783 Y101.982 E1.30495
G1 X106.268 Y102.467 E1.34308
G1 X106.662 Y103.030 E1.38120
G1 X106.953 Y103.652 E1.41931
G1 X107.130 Y104.316 E1.45743
G1 X107.190 Y105.000 E1.49555
G1 X107.130 Y105.684 E1.53367
G1 X106.953 Y106.348 E1.57179
G1 X106.662 Y106.970 E1.60991
G1 X106.268 Y107.533 E1.64802
G1 X105.783 Y108.018 E1.68614
G1 X105.220 Y108.412 E1.72425
G1 X104.598 Y108.703 E1.76237
G1 X103.934 Y108.880 E1.80050
G1 X103.250 Y108.940 E1.83861
G1 X103.037 Y108.922 E1.85047
G1 X102.566 Y108.880 E1.87673
G1 X101.902 Y108.703 E1.91486
G1 X101.280 Y108.412 E1.95297
G1 X100.717 Y108.018 E1.99109
G1 X100.232 Y107.533 E2.02921
G1 X99.838 Y106.970 E2.06733
G1 X99.547 Y106.348 E2.10544
G1 X99.370 Y105.684 E2.14356
G1 X99.310 Y105.000 E2.18168
G1 X99.370 Y104.316 E2.21980
G1 X99.547 Y103.652 E2.25792
G1 X99.838 Y103.030 E2.29604
G1 X100.232 Y102.467 E2.33416
G1 X100.622 Y102.076 E2.36484
G1 X101.293 Y102.668 F9900.000
G1 X101.728 Y102.364 F540.000 E2.39429
G1 X102.209 Y102.139 E2.42374
G1 X102.721 Y102.002 E2.45319
G1 X103.250 Y101.956 E2.48264
G1 X103.385 Y101.968 E2.49016
G1 X103.779 Y102.002 E2.51209
G1 X104.291 Y102.139 E2.54154
G1 X104.772 Y102.364 E2.57099
G1 X105.207 Y102.668 E2.60044
G1 X105.582 Y103.043 E2.62989
G1 X105.886 Y103.478 E2.65934
G1 X106.111 Y103.959 E2.68879
G1 X106.248 Y104.471 E2.71824
G1 X106.294 Y105.000 E2.74769
G1 X106.248 Y105.529 E2.77714
G1 X106.111 Y106.041 E2.80659
G1 X105.886 Y106.522 E2.83604
G1 X105.582 Y106.957 E2.86548
G1 X105.207 Y107.332 E2.89494
G1 X104.772 Y107.636 E2.92438
G1 X104.291 Y107.861 E2.95383
G1 X103.779 Y107.998 E2.98329
G1 X103.250 Y108.044 E3.01273
G1 X103.115 Y108.032 E3.02026
G1 X102.721 Y107.998 E3.04218
G1 X102.209 Y107.861 E3.07163
G1 X101.728 Y107.636 E3.10108
G1 X101.293 Y107.332 E3.13053
G1 X100.918 Y106.957 E3.15998
G1 X100.614 Y106.522 E3.18943
G1 X100.389 Y106.041 E3.21888
G1 X100.252 Y105.529 E3.24833
G1 X100.206 Y105.000 E3.27778
G1 X100.252 Y104.471 E3.30723
G1 X100.389 Y103.959 E3.33668
G1 X100.614 Y103.478 E3.36613
G1 X100.918 Y103.043 E3.39558
G1 X101.199 Y102.763 E3.41759
G1 X101.869 Y103.355 F9900.000
G1 X102.176 Y103.140 F540.000 E3.43837
G1 X102.515 Y102.982 E3.45915
G1 X102.877 Y102.885 E3.47994
G1 X103.307 Y102.857 E3.50387
G1 X103.623 Y102.885 E3.52145
G1 X103.985 Y102.981 E3.54223
G1 X104.324 Y103.140 E3.56302
G1 X104.631 Y103.354 E3.58379
G1 X104.896 Y103.619 E3.60458
G1 X105.110 Y103.926 E3.62536
G1 X105.269 Y104.265 E3.64614
G1 X105.365 Y104.627 E3.66692
G1 X105.398 Y105.000 E3.68770
G1 X105.365 Y105.373 E3.70848
G1 X105.269 Y105.735 E3.72926
G1 X105.110 Y106.074 E3.75004
G1 X104.896 Y106.381 E3.77082
G1 X104.631 Y106.646 E3.79160
G1 X104.324 Y106.860 E3.81238
G1 X103.985 Y107.018 E3.83316
G1 X103.623 Y107.115 E3.85394
G1 X103.193 Y107.143 E3.87787
G1 X102.877 Y107.115 E3.89546
G1 X102.515 Y107.019 E3.91624
G1 X102.176 Y106.860 E3.93702
G1 X101.869 Y106.646 E3.95780
G1 X101.605 Y106.381 E3.97858
G1 X101.390 Y106.074 E3.99936
G1 X101.231 Y105.735 E4.02014
G1 X101.135 Y105.373 E4.04092
G1 X101.102 Y105.000 E4.06170
G1 X101.135 Y104.627 E4.08249
G1 X101.231 Y104.265 E4.10327
G1 X101.390 Y103.926 E4.12405
G1 X101.604 Y103.619 E4.14483
G1 X101.775 Y103.449 E4.15817
G1 X101.815 Y102.984 F9900.000
G1 X115.620 Y104.316
G1 X115.797 Y103.652 F540.000 E4.19629
G1 X116.088 Y103.030 E4.23441
G1 X116.482 Y102.467 E4.27252
G1 X116.967 Y101.982 E4.31064
G1 X117.530 Y101.588 E4.34876
G1 X118.152 Y101.297 E4.38687
G1 X118.816 Y101.120 E4.42500
G1 X119.500 Y101.060 E4.46311
G1 X120.184 Y101.120 E4.50124
G1 X120.848 Y101.297 E4.53936
G1 X121.470 Y101.588 E4.57747
G1 X122.033 Y101.982 E4.61559
G1 X122.518 Y102.467 E4.65370
G1 X122.912 Y103.030 E4.69183
G1 X123.203 Y103.652 E4.72994
G1 X123.380 Y104.316 E4.76807
G1 X123.440 Y105.000 E4.80619
G1 X123.380 Y105.684 E4.84430
G1 X123.203 Y106.348 E4.88242
G1 X122.912 Y106.970 E4.92054
G1 X122.518 Y107.533 E4.95866
G1 X122.033 Y108.018 E4.99678
G1 X121.470 Y108.412 E5.03489
G1 X120.848 Y108.703 E5.07302
G1 X120.184 Y108.880 E5.11114
G1 X119.500 Y108.940 E5.14924
G1 X118.816 Y108.880 E5.18736
G1 X118.152 Y108.703 E5.22549
G1 X117.530 Y108.412 E5.26361
G1 X116.967 Y108.018 E5.30173
G1 X116.482 Y107.533 E5.33985
G1 X116.088 Y106.970 E5.37797
G1 X115.797 Y106.348 E5.41608
G1 X115.620 Y105.684 E5.45421
G1 X115.560 Y105.000 E5.49232
G1 X115.608 Y104.449 E5.52301
G1 X116.502 Y104.471 F9900.000
G1 X116.639 Y103.959 F540.000 E5.55246
G1 X116.864 Y103.478 E5.58191
G1 X117.168 Y103.043 E5.61136
G1 X117.543 Y102.668 E5.64081
G1 X117.978 Y102.364 E5.67026
G1 X118.459 Y102.139 E5.69970
G1 X118.971 Y102.002 E5.72916
G1 X119.500 Y101.956 E5.75860
G1 X120.029 Y102.002 E5.78806
G1 X120.541 Y102.139 E5.81751
G1 X121.022 Y102.364 E5.84696
G1 X121.457 Y102.668 E5.87641
G1 X121.832 Y103.043 E5.90585
G1 X121.910 Y103.154 E5.91338
G1 X122.136 Y103.478 E5.93531
G1 X122.361 Y103.959 E5.96475
G1 X122.498 Y104.471 E5.99421
G1 X122.544 Y105.000 E6.02365
G1 X122.498 Y105.529 E6.05310
G1 X122.361 Y106.041 E6.08255
G1 X122.136 Y106.522 E6.11200
G1 X121.832 Y106.957 E6.14145
G1 X121.457 Y107.332 E6.17090
G1 X121.022 Y107.636 E6.20035
G1 X120.541 Y107.861 E6.22980
G1 X120.410 Y107.896 E6.23733
G1 X120.029 Y107.998 E6.25925
G1 X119.500 Y108.044 E6.28869
G1 X118.971 Y107.998 E6.31815
G1 X118.459 Y107.861 E6.34760
G1 X117.978 Y107.636 E6.37705
G1 X117.543 Y107.332 E6.40650
G1 X117.168 Y106.957 E6.43595
G1 X116.864 Y106.522 E6.46540
G1 X116.639 Y106.041 E6.49484
G1 X116.502 Y105.529 E6.52430
G1 X116.456 Y105.000 E6.55375
G1 X116.490 Y104.605 E6.57577
G1 X117.385 Y104.627 F9900.000
G1 X117.481 Y104.265 F540.000 E6.59655
G1 X117.640 Y103.926 E6.61733
G1 X117.854 Y103.619 E6.63811
G1 X118.119 Y103.355 E6.65889
G1 X118.426 Y103.140 E6.67967
G1 X118.765 Y102.981 E6.70045
G1 X119.127 Y102.885 E6.72123
G1 X119.500 Y102.852 E6.74201
G1 X119.873 Y102.885 E6.76279
G1 X120.235 Y102.981 E6.78357
G1 X120.574 Y103.140 E6.80435
G1 X120.881 Y103.354 E6.82513
G1 X121.179 Y103.666 E6.84907
G1 X121.360 Y103.926 E6.86665
G1 X121.518 Y104.265 E6.88743
G1 X121.615 Y104.627 E6.90821
G1 X121.648 Y105.000 E6.92899
G1 X121.615 Y105.373 E6.94977
G1 X121.519 Y105.735 E6.97055
G1 X121.360 Y106.074 E6.99133
G1 X121.145 Y106.381 E7.01212
G1 X120.881 Y106.646 E7.03290
G1 X120.574 Y106.860 E7.05368
G1 X120.179 Y107.033 E7.07761
G1 X119.873 Y107.115 E7.09520
G1 X119.500 Y107.148 E7.11597
G1 X119.127 Y107.115 E7.13675
G1 X118.765 Y107.019 E7.15754
G1 X118.426 Y106.860 E7.17832
G1 X118.119 Y106.645 E7.19910
G1 X117.854 Y106.381 E7.21988
G1 X117.640 Y106.074 E7.24066
G1 X117.481 Y105.735 E7.26144
G1 X117.385 Y105.373 E7.28222
G1 X117.352 Y105.000 E7.30300
G1 X117.373 Y104.760 E7.31635
G1 X117.105 Y104.378 F9900.000
G1 X117.095 Y104.998
G1 X119.500 Y102.593
G1 X130.250 Y99.426
G1 X130.304 Y99.372
G1 X130.304 Y84.378 F630.000 E8.14850
G1 X133.543 Y82.576 E8.35424
G1 X133.543 Y82.147 E8.37805
G1 X131.323 Y82.147 E8.50128
G1 X130.304 Y81.615 E8.56509
G1 X130.304 Y80.500 E8.62696
G1 X131.283 Y79.987 E8.68831
G1 X133.543 Y79.987 E8.81375
G1 X133.543 Y75.788 E9.04679
G1 X131.323 Y75.788 E9.17002
G1 X130.304 Y75.255 E9.23383
G1 X130.304 Y65.929 E9.75142
G1 X131.283 Y65.416 E9.81276
G1 X133.543 Y65.416 E9.93821
G1 X133.543 Y63.070 E10.06845
G1 X131.323 Y63.070 E10.19168
G1 X130.304 Y62.537 E10.25549
G1 X130.304 Y61.424 E10.31729
G1 X131.275 Y60.909 E10.37830
G1 X134.238 Y60.909 E10.54272
G1 X141.056 Y64.718 E10.97614
G1 X141.056 Y67.017 E11.10370
G1 X140.401 Y67.380 E11.14526
G1 X140.988 Y67.929 E11.18985
G1 X141.101 Y68.111 E11.20176
G1 X141.254 Y68.867 E11.24460
G1 X140.170 Y69.429 E11.31237
G1 X133.027 Y69.429 E11.70877
G1 X133.027 Y71.775 E11.83901
G1 X133.659 Y71.775 E11.87408
G1 X134.638 Y72.288 E11.93543
G1 X134.638 Y73.628 E12.00974
G1 X140.215 Y73.628 E12.31923
G1 X141.196 Y74.140 E12.38069
G1 X141.196 Y79.705 E12.68952
G1 X140.474 Y80.125 E12.73592
G1 X141.196 Y80.524 E12.78171
G1 X141.196 Y86.097 E13.09099
G1 X140.493 Y86.486 E13.13563
G1 X141.196 Y86.890 E13.18066
G1 X141.196 Y92.456 E13.48953
G1 X140.485 Y92.850 E13.53467
G1 X141.196 Y93.242 E13.57975
G1 X141.196 Y95.546 E13.70761
G1 X134.249 Y99.372 E14.14778
G1 X130.438 Y99.372 E14.35933
G1 X129.411 Y99.372 F9900.000
G1 X133.418 Y103.043
G1 X133.793 Y102.668 F540.000 E14.38878
G1 X134.228 Y102.364 E14.41824
G1 X134.709 Y102.139 E14.44768
G1 X135.221 Y102.002 E14.47714
G1 X135.750 Y101.956 E14.50658
G1 X136.279 Y102.002 E14.53604
G1 X136.791 Y102.139 E14.56548
G1 X137.272 Y102.364 E14.59494
G1 X137.707 Y102.668 E14.62438
G1 X138.082 Y103.043 E14.65383
G1 X138.386 Y103.478 E14.68329
G1 X138.611 Y103.959 E14.71273
G1 X138.748 Y104.471 E14.74218
G1 X138.794 Y105.000 E14.77162
G1 X138.782 Y105.135 E14.77915
G1 X138.748 Y105.529 E14.80108
G1 X138.611 Y106.041 E14.83053
G1 X138.386 Y106.522 E14.85999
G1 X138.082 Y106.957 E14.88943
G1 X137.707 Y107.332 E14.91888
G1 X137.272 Y107.636 E14.94833
G1 X136.791 Y107.861 E14.97777
G1 X136.279 Y107.998 E15.00723
G1 X135.750 Y108.044 E15.03667
G1 X135.221 Y107.998 E15.06612
G1 X134.709 Y107.861 E15.09558
G1 X134.228 Y107.636 E15.12503
G1 X133.793 Y107.332 E15.15447
G1 X133.418 Y106.957 E15.18392
G1 X133.114 Y106.522 E15.21337
G1 X132.889 Y106.041 E15.24282
G1 X132.752 Y105.529 E15.27227
G1 X132.706 Y105.000 E15.30172
G1 X132.752 Y104.471 E15.33118
G1 X132.889 Y103.959 E15.36062
G1 X133.114 Y103.478 E15.39008
G1 X133.341 Y103.153 E15.41209
G1 X134.104 Y103.619 F9900.000
G1 X134.369 Y103.355 F540.000 E15.43287
G1 X134.676 Y103.140 E15.45365
G1 X135.015 Y102.982 E15.47443
G1 X135.377 Y102.885 E15.49521
G1 X135.750 Y102.852 E15.51599
G1 X136.123 Y102.885 E15.53677
G1 X136.485 Y102.981 E15.55755
G1 X136.824 Y103.140 E15.57834
G1 X137.131 Y103.354 E15.59911
G1 X137.395 Y103.619 E15.61989
G1 X137.610 Y103.926 E15.64068
G1 X137.769 Y104.265 E15.66146
G1 X137.865 Y104.627 E15.68224
G1 X137.898 Y105.000 E15.70301
G1 X137.865 Y105.373 E15.72380
G1 X137.769 Y105.735 E15.74458
G1 X137.610 Y106.074 E15.76536
G1 X137.396 Y106.381 E15.78614
G1 X137.131 Y106.646 E15.80692
G1 X136.824 Y106.860 E15.82770
G1 X136.485 Y107.018 E15.84848
G1 X136.123 Y107.115 E15.86926
G1 X135.750 Y107.148 E15.89004
G1 X135.321 Y107.101 E15.91397
G1 X135.015 Y107.019 E15.93156
G1 X134.676 Y106.860 E15.95234
G1 X134.369 Y106.646 E15.97312
G1 X134.104 Y106.381 E15.99390
G1 X133.890 Y106.074 E16.01468
G1 X133.732 Y105.735 E16.03546
G1 X133.635 Y105.373 E16.05624
G1 X133.602 Y105.000 E16.07702
G1 X133.635 Y104.627 E16.09781
G1 X133.731 Y104.265 E16.11858
G1 X133.890 Y103.926 E16.13937
G1 X134.028 Y103.729 E16.15271
G1 X133.987 Y103.264 F9900.000
G1 X132.732 Y102.467
G1 X132.338 Y103.030 F900.000 E16.19082
G1 X132.047 Y103.652 E16.22896
G1 X131.870 Y104.316 E16.26706
G1 X131.810 Y105.000 E16.30519
G1 X131.870 Y105.684 E16.34330
G1 X132.047 Y106.348 E16.38143
G1 X132.338 Y106.970 E16.41954
G1 X132.732 Y107.533 E16.45766
G1 X133.217 Y108.018 E16.49578
G1 X133.780 Y108.412 E16.53388
G1 X134.402 Y108.703 E16.57201
G1 X135.066 Y108.880 E16.61014
G1 X135.750 Y108.940 E16.64827
G1 X136.434 Y108.880 E16.68636
G1 X137.098 Y108.703 E16.72450
G1 X137.720 Y108.412 E16.76261
G1 X138.283 Y108.018 E16.80073
G1 X138.768 Y107.533 E16.83885
G1 X139.162 Y106.970 E16.87695
G1 X139.453 Y106.348 E16.91508
G1 X139.630 Y105.684 E16.95321
G1 X139.690 Y105.000 E16.99133
G1 X139.630 Y104.316 E17.02944
G1 X139.453 Y103.652 E17.06756
G1 X139.162 Y103.030 E17.10567
G1 X138.891 Y102.642 E17.13194
G1 X138.768 Y102.467 E17.14380
G1 X138.283 Y101.982 E17.18192
G1 X137.720 Y101.588 E17.22002
G1 X137.098 Y101.297 E17.25815
G1 X136.434 Y101.120 E17.29626
G1 X135.478 Y101.036 E17.34955
G1 X135.421 Y100.766 E17.36489
G1 X142.982 Y96.601 E17.84395
G1 X142.982 Y73.058 E19.15056
G1 X140.025 Y71.514 E19.33570
G1 X143.272 Y69.834 E19.53861
G1 X142.841 Y67.707 E19.65905
G1 X142.841 Y63.671 E19.88305
G1 X140.858 Y62.563 E20.00909
G1 X140.945 Y62.232 E20.02809
G1 X144.177 Y62.232 E20.20748
G1 X144.175 Y113.425 E23.04866
G1 X95.825 Y113.425 E25.73204
G1 X95.824 Y96.574 E26.66725
G1 X109.805 Y96.573 E27.44320
G1 X111.473 Y96.491 E27.53587
G1 X113.179 Y96.238 E27.63159
G1 X114.852 Y95.819 E27.72732
G1 X116.476 Y95.238 E27.82304
G1 X118.035 Y94.500 E27.91877
G1 X119.514 Y93.614 E28.01449
G1 X119.759 Y93.432 E28.03138
G1 X120.900 Y92.586 E28.11022
G1 X122.178 Y91.428 E28.20594
G1 X123.336 Y90.150 E28.30166
G1 X124.364 Y88.764 E28.39739
G1 X125.250 Y87.285 E28.49311
G1 X125.988 Y85.726 E28.58884
