; generated by Slic3r 0.9.9-dev on 2013-09-08 at 11:41:25

; layer_height = 0.3
; perimeters = 2
; top_solid_layers = 4
; bottom_solid_layers = 4
; fill_density = 0.25
; perimeter_speed = 50
; infill_speed = 50
; travel_speed = 165
; nozzle_diameter = 0.5
; filament_diameter = 3.2
; extrusion_multiplier = 1
; perimeters extrusion width = 0.70mm
; infill extrusion width = 0.70mm
; solid infill extrusion width = 0.70mm
; top infill extrusion width = 0.70mm
; first layer extrusion width = 0.80mm

G21 ; set units to millimeters
M107
M190 S65 ; wait for bed temperature to be reached
M104 S185 ; set temperature
;G28 ; home all axes
;G1 Z5 F5000 ; lift nozzle
M109 S185 ; wait for temperature to be reached
G90 ; use absolute coordinates
G92 E0
M82 ; use absolute distances for extrusion
G1 F1800.000 E-1.00000
G1 Z0.700
G92 E0
G1 X83.269 Y81.957 F9900.000
G1 Z0.400
G1 F1800.000 E1.00000
G1 X100.949 Y64.197 F900.000 E1.91686
G1 X101.179 Y63.967 E1.92876
G1 X101.429 Y63.757 E1.94071
G1 X101.679 Y63.557 E1.95242
G1 X102.219 Y63.187 E1.97637
G1 X102.799 Y62.877 E2.00043
G1 X110.899 Y58.977 E2.32934
G1 X111.449 Y58.737 E2.35130
G1 X111.739 Y58.637 E2.36252
G1 X112.319 Y58.477 E2.38454
G1 X112.619 Y58.417 E2.39573
G1 X113.219 Y58.337 E2.41788
G1 X113.819 Y58.307 E2.43986
G1 X125.809 Y58.307 E2.87853
G1 X126.809 Y58.387 E2.91523
G1 X152.759 Y62.287 E3.87532
G1 X153.299 Y62.387 E3.89541
G1 X153.559 Y62.457 E3.90526
G1 X153.829 Y62.537 E3.91557
G1 X154.339 Y62.727 E3.93548
G1 X155.079 Y63.087 E3.96559
G1 X155.539 Y63.377 E3.98548
G1 X155.979 Y63.697 E4.00539
G1 X156.589 Y64.247 E4.03544
G1 X157.119 Y64.867 E4.06528
G1 X157.439 Y65.317 E4.08548
G1 X157.709 Y65.797 E4.10563
G1 X157.949 Y66.287 E4.12559
G1 X158.229 Y67.057 E4.15557
G1 X158.409 Y67.857 E4.18557
G1 X158.449 Y68.127 E4.19556
G1 X158.489 Y68.677 E4.21573
G1 X158.499 Y110.947 E5.76225
G1 X158.449 Y111.757 E5.79195
G1 X158.359 Y112.297 E5.81198
G1 X158.149 Y113.077 E5.84153
G1 X157.959 Y113.587 E5.86144
G1 X157.849 Y113.837 E5.87143
G1 X157.589 Y114.317 E5.89141
G1 X157.299 Y114.777 E5.91130
G1 X156.979 Y115.207 E5.93091
G1 X156.429 Y115.807 E5.96069
G1 X156.019 Y116.167 E5.98065
G1 X155.589 Y116.487 E6.00027
G1 X155.129 Y116.777 E6.02016
G1 X154.649 Y117.037 E6.04013
G1 X153.889 Y117.337 E6.07003
G1 X153.369 Y117.487 E6.08983
G1 X152.839 Y117.597 E6.10963
G1 X152.569 Y117.637 E6.11962
G1 X152.029 Y117.677 E6.13943
G1 X91.759 Y117.687 E8.34451
G1 X91.199 Y117.657 E8.36503
G1 X90.379 Y117.537 E8.39535
G1 X89.839 Y117.407 E8.41567
G1 X89.049 Y117.117 E8.44646
G1 X88.309 Y116.737 E8.47689
G1 X88.079 Y116.587 E8.48694
G1 X87.619 Y116.267 E8.50744
G1 X87.199 Y115.907 E8.52768
G1 X83.299 Y112.007 E8.72947
G1 X82.949 Y111.587 E8.74948
G1 X82.619 Y111.137 E8.76989
G1 X82.469 Y110.897 E8.78025
G1 X82.209 Y110.407 E8.80054
G1 X82.089 Y110.157 E8.81069
G1 X81.889 Y109.637 E8.83107
G1 X81.729 Y109.107 E8.85133
G1 X81.619 Y108.557 E8.87185
G1 X81.549 Y108.007 E8.89213
G1 X81.519 Y107.457 E8.91229
G1 X81.509 Y86.237 E9.68866
G1 X81.589 Y85.407 E9.71916
G1 X81.779 Y84.597 E9.74960
G1 X81.959 Y84.067 E9.77008
G1 X82.179 Y83.557 E9.79040
G1 X82.589 Y82.837 E9.82072
G1 X82.919 Y82.377 E9.84143
G1 X83.197 Y82.041 E9.85740
G1 F1800.000 E8.85740
G1 Z0.700
G92 E0
G1 X140.123 Y74.625 F9900.000
G1 Z0.400
G1 F1800.000 E1.00000
G1 X140.032 Y73.947 F540.000 E1.02504
G1 X140.145 Y73.107 E1.05603
G1 X140.467 Y72.327 E1.08691
G1 X140.980 Y71.656 E1.11782
G1 X141.651 Y71.143 E1.14873
G1 X142.431 Y70.821 E1.17962
G1 X143.269 Y70.708 E1.21053
G1 X144.107 Y70.820 E1.24147
G1 X144.886 Y71.142 E1.27231
G1 X145.559 Y71.657 E1.30332
G1 X146.073 Y72.327 E1.33421
G1 X146.396 Y73.109 E1.36518
G1 X146.506 Y73.943 E1.39595
G1 X146.417 Y74.625 E1.42111
G1 X146.395 Y74.784 E1.42700
G1 X146.073 Y75.563 E1.45783
G1 X145.558 Y76.234 E1.48878
G1 X144.887 Y76.749 E1.51973
G1 X144.109 Y77.071 E1.55055
G1 X143.267 Y77.182 E1.58161
G1 X142.433 Y77.072 E1.61238
G1 X141.651 Y76.749 E1.64334
G1 X140.981 Y76.235 E1.67424
G1 X140.466 Y75.562 E1.70525
G1 X140.138 Y74.734 E1.73781
G1 X140.861 Y74.591 F9900.000
G1 X140.774 Y73.946 F540.000 E1.76164
G1 X140.783 Y73.881 E1.76402
G1 X140.861 Y73.300 E1.78546
G1 X141.110 Y72.698 E1.80931
G1 X141.505 Y72.181 E1.83312
G1 X142.022 Y71.786 E1.85692
G1 X142.624 Y71.537 E1.88078
G1 X143.270 Y71.450 E1.90460
G1 X143.915 Y71.537 E1.92842
G1 X144.516 Y71.785 E1.95222
G1 X145.034 Y72.181 E1.97606
G1 X145.430 Y72.698 E1.99989
G1 X145.679 Y73.301 E2.02377
G1 X145.764 Y73.944 E2.04751
G1 X145.688 Y74.528 E2.06905
G1 X145.679 Y74.591 E2.07139
G1 X145.430 Y75.192 E2.09518
G1 X145.033 Y75.709 E2.11903
G1 X144.516 Y76.106 E2.14288
G1 X143.916 Y76.355 E2.16667
G1 X143.268 Y76.440 E2.19055
G1 X142.625 Y76.355 E2.21429
G1 X142.022 Y76.106 E2.23817
G1 X141.505 Y75.710 E2.26200
G1 X141.109 Y75.192 E2.28585
G1 X140.903 Y74.693 E2.30560
G1 X140.239 Y74.396 F9900.000
G1 X128.191 Y78.617
G1 X129.158 Y80.951 F900.000 E2.39803
G1 X129.488 Y83.455 E2.49045
G1 X129.158 Y85.957 E2.58279
G1 X128.191 Y88.291 E2.67523
G1 X126.654 Y90.294 E2.76759
G1 X124.652 Y91.831 E2.85994
G1 X122.317 Y92.798 E2.95239
G1 X120.022 Y93.101 E3.03707
G1 X119.815 Y93.128 E3.04473
G1 X117.311 Y92.798 E3.13714
G1 X114.977 Y91.831 E3.22958
G1 X112.974 Y90.294 E3.32194
G1 X111.437 Y88.292 E3.41428
G1 X110.470 Y85.957 E3.50675
G1 X110.140 Y83.456 E3.59906
G1 X110.470 Y80.951 E3.69149
G1 X111.437 Y78.617 E3.78392
G1 X111.564 Y78.451 E3.79157
G1 X112.974 Y76.614 E3.87629
G1 X114.977 Y75.077 E3.96864
G1 X117.311 Y74.110 E4.06109
G1 X119.815 Y73.780 E4.15350
G1 X122.317 Y74.110 E4.24585
G1 X124.652 Y75.077 E4.33829
G1 X126.654 Y76.614 E4.43064
G1 X128.124 Y78.529 E4.51896
G1 X127.548 Y78.988 F9900.000
G1 X128.441 Y81.143 F630.000 E4.60432
G1 X128.746 Y83.455 E4.68964
G1 X128.441 Y85.765 E4.77489
G1 X127.548 Y87.920 E4.86025
G1 X126.129 Y89.769 E4.94552
G1 X124.281 Y91.188 E5.03079
G1 X122.125 Y92.081 E5.11615
G1 X119.926 Y92.371 E5.19729
G1 X119.815 Y92.386 E5.20140
G1 X117.503 Y92.081 E5.28672
G1 X115.348 Y91.188 E5.37208
G1 X113.499 Y89.769 E5.45735
G1 X112.080 Y87.921 E5.54262
G1 X111.187 Y85.765 E5.62799
G1 X110.882 Y83.455 E5.71322
G1 X111.187 Y81.143 E5.79855
G1 X112.080 Y78.988 E5.88391
G1 X112.148 Y78.899 E5.88802
G1 X113.499 Y77.139 E5.96918
G1 X115.348 Y75.720 E6.05445
G1 X117.503 Y74.827 E6.13981
G1 X119.815 Y74.522 E6.22513
G1 X122.125 Y74.827 E6.31039
G1 X124.281 Y75.720 E6.39575
G1 X126.129 Y77.139 E6.48101
G1 X127.481 Y78.900 E6.56225
G1 X128.283 Y79.020 F9900.000
G1 X128.566 Y81.075
G1 X125.315 Y69.451
G1 X113.395 Y77.035
G1 X98.850 Y91.510
G1 X99.769 Y91.777
G1 X100.092 Y92.560 F540.000 E6.59322
G1 X100.202 Y93.393 E6.62396
G1 X100.091 Y94.234 E6.65502
G1 X99.769 Y95.014 E6.68588
G1 X99.255 Y95.683 E6.71673
G1 X98.584 Y96.199 E6.74772
G1 X97.802 Y96.522 E6.77868
G1 X96.965 Y96.632 E6.80954
G1 X96.129 Y96.522 E6.84040
G1 X95.347 Y96.199 E6.87136
G1 X94.677 Y95.683 E6.90231
G1 X94.163 Y95.014 E6.93318
G1 X93.840 Y94.233 E6.96411
G1 X93.728 Y93.397 E6.99496
G1 X93.841 Y92.558 E7.02592
G1 X94.163 Y91.776 E7.05687
G1 X94.678 Y91.106 E7.08780
G1 X95.347 Y90.593 E7.11864
G1 X96.127 Y90.271 E7.14952
G1 X96.965 Y90.158 E7.18044
G1 X97.805 Y90.271 E7.21145
G1 X98.582 Y90.592 E7.24221
G1 X99.254 Y91.106 E7.27318
G1 X99.702 Y91.690 E7.30009
G1 X99.126 Y92.148 F9900.000
G1 X99.375 Y92.751 F540.000 E7.32398
G1 X99.460 Y93.394 E7.34771
G1 X99.375 Y94.041 E7.37159
G1 X99.126 Y94.643 E7.39539
G1 X98.730 Y95.159 E7.41921
G1 X98.213 Y95.556 E7.44307
G1 X97.611 Y95.805 E7.46691
G1 X96.965 Y95.890 E7.49072
G1 X96.321 Y95.805 E7.51449
G1 X95.718 Y95.556 E7.53837
G1 X95.202 Y95.159 E7.56218
G1 X94.806 Y94.643 E7.58601
G1 X94.557 Y94.041 E7.60983
G1 X94.470 Y93.396 E7.63366
G1 X94.557 Y92.751 E7.65746
G1 X94.806 Y92.147 E7.68134
G1 X95.203 Y91.631 E7.70518
G1 X95.718 Y91.236 E7.72893
G1 X96.320 Y90.987 E7.75278
G1 X96.965 Y90.900 E7.77658
G1 X97.612 Y90.987 E7.80045
G1 X98.212 Y91.235 E7.82422
G1 X98.729 Y91.631 E7.84805
G1 X99.059 Y92.060 E7.86786
G1 X99.779 Y92.177 F9900.000
G1 X89.482 Y86.825
G1 X106.181 Y70.054 F900.000 E8.73376
G1 X114.922 Y70.054 E9.05357
G1 X114.922 Y66.150 E9.19641
G1 X124.712 Y66.150 E9.55456
G1 X124.712 Y70.054 E9.69739
G1 X150.658 Y70.058 E10.64667
G1 X150.658 Y109.848 E12.10243
G1 X92.220 Y109.848 E14.24048
G1 X89.366 Y106.997 E14.38806
G1 X89.343 Y86.964 E15.12100
G1 X89.404 Y86.903 E15.12414
G1 X88.960 Y86.306 F9900.000
G1 X105.876 Y69.319 F630.000 E16.00123
G1 X114.187 Y69.319 E16.30530
G1 X114.187 Y65.415 E16.44814
G1 X125.447 Y65.415 E16.86012
G1 X125.447 Y69.319 E17.00295
G1 X151.393 Y69.323 E17.95223
G1 X151.393 Y110.583 E19.46182
G1 X91.915 Y110.583 E21.63792
G1 X88.631 Y107.302 E21.80777
G1 X88.607 Y86.661 E22.56298
G1 X88.882 Y86.384 E22.57726
G1 X89.671 Y86.495 F9900.000
G1 X99.981 Y77.037
G1 X110.594 Y87.649 F900.000 E23.13040
G1 X109.929 Y85.937 E23.19809
G1 X100.504 Y76.512 E23.68934
G1 X101.027 Y75.986 E23.71664
G1 X109.770 Y84.730 E24.17234
G1 X109.611 Y83.523 E24.21721
G1 X101.550 Y75.461 E24.63737
G1 X102.073 Y74.936 E24.66468
G1 X109.717 Y82.581 E25.06313
G1 X109.839 Y81.655 E25.09755
G1 X102.595 Y74.411 E25.47510
G1 X103.118 Y73.886 E25.50241
G1 X109.978 Y80.746 E25.85992
G1 X110.285 Y80.005 E25.88948
G1 X103.641 Y73.361 E26.23574
G1 X104.164 Y72.836 E26.26305
G1 X110.592 Y79.264 E26.59807
G1 X110.899 Y78.523 E26.62762
G1 X104.687 Y72.311 E26.95139
G1 X105.210 Y71.786 E26.97869
G1 X111.319 Y77.895 E27.29710
G1 X111.774 Y77.302 E27.32465
G1 X105.733 Y71.261 E27.63951
G1 X106.255 Y70.736 E27.66682
G1 X112.229 Y76.709 E27.97816
G1 X112.711 Y76.144 E28.00555
G1 X107.155 Y70.588 E28.29512
G1 X108.203 Y70.588 E28.33374
G1 X113.304 Y75.689 E28.59960
G1 X113.897 Y75.234 E28.62715
G1 X109.251 Y70.588 E28.86929
G1 X110.299 Y70.588 E28.90791
G1 X114.490 Y74.779 E29.12634
G1 X115.177 Y74.417 E29.15493
G1 X111.347 Y70.588 E29.35453
G1 X112.395 Y70.588 E29.39315
G1 X115.918 Y74.110 E29.57674
G1 X116.658 Y73.803 E29.60630
G1 X113.443 Y70.588 E29.77389
G1 X114.491 Y70.588 E29.81251
G1 X117.456 Y73.553 E29.96707
G1 X118.382 Y73.431 E30.00149
G1 X115.456 Y70.505 E30.15401
G1 X115.456 Y69.457 E30.19264
G1 X119.308 Y73.309 E30.39342
G1 X120.361 Y73.314 E30.43224
G1 X115.456 Y68.409 E30.68792
G1 X115.456 Y67.361 E30.72654
G1 X121.568 Y73.473 E31.04513
G1 X122.929 Y73.786 E31.09659
G1 X115.826 Y66.684 E31.46679
G1 X116.874 Y66.684 E31.50541
G1 X124.719 Y74.528 E31.91424
G1 X124.178 Y69.796 F9900.000
G1 X121.066 Y66.684 F900.000 E32.07645
G1 X122.114 Y66.684 E32.11507
G1 X124.178 Y68.748 E32.22266
G1 X124.178 Y67.700 E32.26128
G1 X123.162 Y66.684 E32.31426
G1 X117.922 Y66.684 F9900.000
G1 X150.124 Y98.886 F900.000 E33.99262
G1 X150.124 Y97.838 E34.03124
G1 X118.970 Y66.684 E35.65498
G1 X120.018 Y66.684 E35.69360
G1 X150.124 Y96.790 E37.26273
G1 X150.124 Y95.742 E37.30135
G1 X124.970 Y70.588 E38.61238
G1 X126.018 Y70.588 E38.65100
G1 X150.124 Y94.694 E39.90740
G1 X150.124 Y93.646 E39.94602
G1 X127.066 Y70.588 E41.14780
G1 X128.114 Y70.588 E41.18643
G1 X150.124 Y92.598 E42.33358
G1 X150.124 Y91.550 E42.37220
G1 X129.163 Y70.588 E43.46472
G1 X130.211 Y70.588 E43.50335
G1 X150.124 Y90.502 E44.54125
G1 X150.124 Y89.454 E44.57987
G1 X131.259 Y70.589 E45.56314
G1 X132.307 Y70.589 E45.60177
G1 X150.124 Y88.406 E46.53042
G1 X150.124 Y87.358 E46.56904
G1 X133.355 Y70.589 E47.44306
G1 X134.403 Y70.589 E47.48168
G1 X150.124 Y86.310 E48.30108
G1 X150.124 Y85.263 E48.33970
G1 X142.478 Y77.616 E48.73825
G1 X143.587 Y77.678 E48.77921
G1 X150.124 Y84.215 E49.11991
G1 X150.124 Y83.167 E49.15853
G1 X144.461 Y77.503 E49.45373
G1 X145.193 Y77.187 E49.48312
G1 X150.124 Y82.119 E49.74016
G1 X150.124 Y81.071 E49.77878
G1 X145.785 Y76.731 E50.00495
G1 X146.276 Y76.174 E50.03231
G1 X150.124 Y80.023 E50.23290
G1 X150.124 Y78.975 E50.27152
G1 X146.669 Y75.519 E50.45164
G1 X146.939 Y74.741 E50.48198
G1 X150.124 Y77.927 E50.64801
G1 X150.124 Y76.879 E50.68663
G1 X147.022 Y73.777 E50.84832
G1 X146.671 Y72.378 E50.90148
G1 X150.124 Y75.831 E51.08146
G1 X150.124 Y74.783 E51.12008
G1 X145.932 Y70.591 E51.33859
G1 X146.980 Y70.591 E51.37722
G1 X150.124 Y73.735 E51.54110
G1 X150.124 Y72.687 E51.57972
G1 X148.028 Y70.591 E51.68898
G1 X149.076 Y70.591 E51.72761
G1 X150.124 Y71.639 E51.78224
G1 X150.124 Y70.591 E51.82087
G1 X140.936 Y70.835 F9900.000
G1 X140.691 Y70.590 F900.000 E51.83362
G1 X140.482 Y71.429 E51.86547
G1 X139.643 Y70.590 E51.90919
G1 X138.595 Y70.590 E51.94781
G1 X140.028 Y72.023 E52.02250
G1 X139.713 Y72.755 E52.05189
G1 X137.547 Y70.590 E52.16478
G1 X136.499 Y70.589 E52.20341
G1 X139.537 Y73.627 E52.36174
G1 X139.600 Y74.738 E52.40274
G1 X135.451 Y70.589 E52.61898
G1 X128.740 Y78.549 F9900.000
G1 X150.124 Y99.934 F900.000 E53.73352
G1 X150.124 Y100.982 E53.77214
G1 X129.482 Y80.339 E54.84804
G1 X129.794 Y81.700 E54.89950
G1 X150.124 Y102.029 E55.95909
G1 X150.124 Y103.077 E55.99771
G1 X129.953 Y82.906 E57.04901
G1 X129.959 Y83.960 E57.08784
G1 X150.124 Y104.125 E58.13885
G1 X150.124 Y105.173 E58.17747
G1 X129.837 Y84.886 E59.23484
G1 X129.715 Y85.812 E59.26926
G1 X150.124 Y106.221 E60.33299
G1 X150.124 Y107.269 E60.37161
G1 X129.465 Y86.610 E61.44838
G1 X129.158 Y87.351 E61.47793
G1 X150.124 Y108.317 E62.57070
G1 X150.074 Y109.314 E62.60751
G1 X128.851 Y88.092 E63.71364
G1 X128.490 Y88.778 E63.74223
G1 X149.026 Y109.314 E64.81258
G1 X147.978 Y109.314 E64.85121
G1 X128.034 Y89.371 E65.89066
G1 X127.579 Y89.964 E65.91820
G1 X146.930 Y109.314 E66.92675
G1 X145.882 Y109.314 E66.96537
G1 X127.124 Y90.557 E67.94302
G1 X126.559 Y91.039 E67.97042
G1 X144.834 Y109.314 E68.92293
G1 X143.786 Y109.314 E68.96155
G1 X125.966 Y91.494 E69.89034
G1 X125.373 Y91.949 E69.91788
G1 X142.738 Y109.314 E70.82296
G1 X141.690 Y109.314 E70.86158
G1 X124.745 Y92.369 E71.74476
G1 X124.004 Y92.676 E71.77432
G1 X140.642 Y109.314 E72.64150
G1 X139.595 Y109.314 E72.68012
G1 X123.263 Y92.983 E73.53130
G1 X122.522 Y93.290 E73.56086
G1 X138.547 Y109.314 E74.39605
G1 X137.499 Y109.314 E74.43467
G1 X121.613 Y93.429 E75.26263
G1 X120.687 Y93.551 E75.29705
G1 X136.451 Y109.314 E76.11864
G1 X135.403 Y109.314 E76.15726
G1 X119.745 Y93.657 E76.97335
G1 X118.538 Y93.498 E77.01822
G1 X134.355 Y109.314 E77.84259
G1 X133.307 Y109.314 E77.88121
G1 X117.331 Y93.338 E78.71387
G1 X115.619 Y92.674 E78.78156
G1 X132.259 Y109.314 E79.64884
G1 X131.211 Y109.314 E79.68746
G1 X99.458 Y77.562 E81.34241
G1 X98.935 Y78.087 E81.36972
G1 X130.163 Y109.314 E82.99730
G1 X129.115 Y109.314 E83.03592
G1 X98.413 Y78.612 E84.63614
G1 X97.890 Y79.137 E84.66345
G1 X128.067 Y109.314 E86.23630
G1 X127.019 Y109.314 E86.27492
G1 X97.367 Y79.662 E87.82040
G1 X96.844 Y80.187 E87.84771
G1 X125.971 Y109.314 E89.36582
G1 X124.924 Y109.314 E89.40444
G1 X96.321 Y80.712 E90.89519
G1 X95.798 Y81.237 E90.92250
G1 X123.876 Y109.314 E92.38588
G1 X122.828 Y109.314 E92.42450
G1 X95.275 Y81.762 E93.86052
G1 X94.753 Y82.287 E93.88783
G1 X121.780 Y109.314 E95.29647
G1 X120.732 Y109.314 E95.33510
G1 X94.230 Y82.812 E96.71638
G1 X93.707 Y83.337 E96.74369
G1 X119.684 Y109.314 E98.09760
G1 X108.157 Y109.314 F9900.000
G1 X95.809 Y96.967 F900.000 E98.74116
G1 X97.049 Y97.159 E98.78740
G1 X109.205 Y109.314 E99.42095
G1 X110.253 Y109.314 E99.45957
G1 X97.968 Y97.030 E100.09981
G1 X98.710 Y96.724 E100.12938
G1 X111.300 Y109.314 E100.78560
G1 X112.348 Y109.314 E100.82422
G1 X99.331 Y96.297 E101.50268
G1 X99.857 Y95.775 E101.52999
G1 X113.396 Y109.314 E102.23567
G1 X114.444 Y109.314 E102.27429
G1 X100.287 Y95.157 E103.01218
G1 X100.593 Y94.416 E103.04174
G1 X115.492 Y109.314 E103.81825
G1 X116.540 Y109.314 E103.85687
G1 X100.726 Y93.500 E104.68111
G1 X100.554 Y92.280 E104.72653
G1 X117.588 Y109.314 E105.61436
G1 X118.636 Y109.314 E105.65298
G1 X93.184 Y83.863 E106.97953
G1 X92.661 Y84.388 E107.00684
G1 X98.082 Y89.808 E107.28937
G1 X96.859 Y89.634 E107.33487
G1 X92.138 Y84.913 E107.58094
G1 X91.615 Y85.438 E107.60825
G1 X95.946 Y89.769 E107.83397
G1 X95.205 Y90.075 E107.86355
G1 X91.093 Y85.963 E108.07786
G1 X90.570 Y86.488 E108.10517
G1 X94.586 Y90.504 E108.31451
G1 X94.064 Y91.030 E108.34182
G1 X90.047 Y87.013 E108.55119
