; generated by Slic3r 0.9.9-dev on 2013-09-05 at 22:09:04

; layer_height = 0.3
; perimeters = 2
; top_solid_layers = 4
; bottom_solid_layers = 4
; fill_density = 0.25
; perimeter_speed = 50
; infill_speed = 50
; travel_speed = 165
; nozzle_diameter = 0.5
; filament_diameter = 3.2
; extrusion_multiplier = 1
; perimeters extrusion width = 0.70mm
; infill extrusion width = 0.70mm
; solid infill extrusion width = 0.70mm
; top infill extrusion width = 0.70mm
; first layer extrusion width = 0.80mm

G21 ; set units to millimeters
M107
M190 S65 ; wait for bed temperature to be reached
M104 S185 ; set temperature
;G28 ; home all axes
;G1 Z5 F5000 ; lift nozzle
M109 S185 ; wait for temperature to be reached
G90 ; use absolute coordinates
G92 E0
M82 ; use absolute distances for extrusion
G1 F1800.000 E-1.00000
G1 Z0.700
G92 E0
G1 X82.731 Y62.745 F9900.000
G1 Z0.400
G1 F1800.000 E1.00000
G1 X83.251 Y62.125 F900.000 E1.02961
G1 X83.851 Y61.575 E1.05939
G1 X84.511 Y61.105 E1.08903
G1 X85.221 Y60.705 E1.11884
G1 X85.981 Y60.405 E1.14874
G1 X86.761 Y60.195 E1.17829
G1 X87.301 Y60.105 E1.19832
G1 X88.111 Y60.055 E1.22801
G1 X151.881 Y60.055 E3.56115
G1 X152.691 Y60.105 E3.59084
G1 X152.961 Y60.145 E3.60083
G1 X153.491 Y60.255 E3.62063
G1 X154.011 Y60.405 E3.64043
G1 X154.771 Y60.705 E3.67032
G1 X155.251 Y60.965 E3.69030
G1 X155.711 Y61.255 E3.71019
G1 X156.141 Y61.575 E3.72980
G1 X156.551 Y61.935 E3.74977
G1 X157.101 Y62.535 E3.77954
G1 X157.571 Y63.195 E3.80919
G1 X157.971 Y63.905 E3.83900
G1 X158.271 Y64.665 E3.86890
G1 X158.481 Y65.445 E3.89845
G1 X158.571 Y65.985 E3.91848
G1 X158.621 Y66.795 E3.94817
G1 X158.621 Y109.205 E5.49982
G1 X158.571 Y110.015 E5.52951
G1 X158.531 Y110.285 E5.53949
G1 X158.421 Y110.815 E5.55930
G1 X158.271 Y111.335 E5.57910
G1 X157.971 Y112.095 E5.60899
G1 X157.711 Y112.575 E5.62896
G1 X157.421 Y113.035 E5.64886
G1 X157.101 Y113.465 E5.66847
G1 X156.551 Y114.065 E5.69825
G1 X155.931 Y114.595 E5.72809
G1 X155.251 Y115.035 E5.75773
G1 X154.771 Y115.295 E5.77770
G1 X154.521 Y115.405 E5.78769
G1 X153.751 Y115.675 E5.81754
G1 X152.961 Y115.855 E5.84719
G1 X152.691 Y115.895 E5.85717
G1 X152.151 Y115.935 E5.87699
G1 X113.641 Y115.925 E7.28594
G1 X113.331 Y115.905 E7.29731
G1 X112.731 Y115.825 E7.31945
G1 X112.441 Y115.765 E7.33029
G1 X111.851 Y115.595 E7.35275
G1 X111.011 Y115.265 E7.38577
G1 X102.911 Y111.355 E7.71484
G1 X102.081 Y110.875 E7.74992
G1 X101.571 Y110.495 E7.77319
G1 X101.101 Y110.075 E7.79625
G1 X83.371 Y92.525 E8.70898
G1 X82.991 Y92.115 E8.72944
G1 X82.641 Y91.675 E8.75001
G1 X82.341 Y91.205 E8.77041
G1 X82.071 Y90.715 E8.79088
G1 X81.841 Y90.195 E8.81168
G1 X81.741 Y89.935 E8.82187
G1 X81.581 Y89.395 E8.84248
G1 X81.521 Y89.125 E8.85260
G1 X81.431 Y88.575 E8.87299
G1 X81.371 Y87.735 E8.90380
G1 X81.371 Y66.795 E9.66992
G1 X81.421 Y65.985 E9.69961
G1 X81.461 Y65.715 E9.70960
G1 X81.571 Y65.185 E9.72940
G1 X81.721 Y64.665 E9.74921
G1 X82.021 Y63.905 E9.77910
G1 X82.281 Y63.425 E9.79907
G1 X82.666 Y62.834 E9.82487
G1 F1800.000 E8.82487
G1 Z0.700
G92 E0
G1 X95.495 Y78.628 F9900.000
G1 Z0.400
G1 F1800.000 E1.00000
G1 X96.087 Y78.293 F540.000 E1.02492
G1 X96.747 Y78.123 E1.04983
G1 X97.428 Y78.129 E1.07475
G1 X98.084 Y78.311 E1.09967
G1 X98.671 Y78.656 E1.12458
G1 X99.148 Y79.142 E1.14950
G1 X99.483 Y79.735 E1.17441
G1 X99.654 Y80.394 E1.19932
G1 X99.648 Y81.075 E1.22424
G1 X99.466 Y81.731 E1.24915
G1 X99.120 Y82.318 E1.27407
G1 X98.634 Y82.795 E1.29899
G1 X98.042 Y83.130 E1.32390
G1 X97.538 Y83.261 E1.34292
G1 X97.382 Y83.301 E1.34881
G1 X96.701 Y83.295 E1.37373
G1 X96.045 Y83.113 E1.39864
G1 X95.459 Y82.767 E1.42356
G1 X94.981 Y82.282 E1.44848
G1 X94.646 Y81.689 E1.47339
G1 X94.475 Y81.030 E1.49830
G1 X94.481 Y80.349 E1.52322
G1 X94.663 Y79.692 E1.54814
G1 X95.009 Y79.106 E1.57305
G1 X95.416 Y78.706 E1.59393
G1 X95.941 Y79.221 F9900.000
G1 X96.365 Y78.981 F540.000 E1.61176
G1 X96.837 Y78.859 E1.62959
G1 X97.324 Y78.863 E1.64741
G1 X97.794 Y78.994 E1.66524
G1 X98.214 Y79.241 E1.68307
G1 X98.555 Y79.588 E1.70090
G1 X98.795 Y80.013 E1.71873
G1 X98.917 Y80.484 E1.73656
G1 X98.913 Y80.972 E1.75439
G1 X98.783 Y81.441 E1.77221
G1 X98.536 Y81.861 E1.79004
G1 X98.188 Y82.203 E1.80787
G1 X97.764 Y82.443 E1.82570
G1 X97.354 Y82.549 E1.84118
G1 X97.292 Y82.565 E1.84353
G1 X96.805 Y82.560 E1.86136
G1 X96.335 Y82.430 E1.87919
G1 X95.915 Y82.183 E1.89701
G1 X95.574 Y81.835 E1.91484
G1 X95.334 Y81.411 E1.93267
G1 X95.212 Y80.939 E1.95050
G1 X95.216 Y80.452 E1.96833
G1 X95.346 Y79.982 E1.98616
G1 X95.594 Y79.563 E2.00399
G1 X95.862 Y79.298 E2.01778
G1 X95.903 Y78.735 F9900.000
G1 X110.385 Y80.691
G1 X111.152 Y78.839 F900.000 E2.09111
G1 X112.783 Y76.714 E2.18912
G1 X114.908 Y75.083 E2.28712
G1 X117.383 Y74.058 E2.38513
G1 X120.039 Y73.709 E2.48313
G1 X122.694 Y74.058 E2.58113
G1 X125.169 Y75.083 E2.67914
G1 X127.294 Y76.714 E2.77714
G1 X128.925 Y78.839 E2.87515
G1 X129.692 Y80.691 E2.94848
G1 X129.692 Y87.248 E3.18840
G1 X128.925 Y89.100 E3.26173
G1 X127.757 Y90.622 E3.33193
G1 X127.794 Y91.763 E3.37367
G1 X127.757 Y92.513 E3.40115
G1 X127.647 Y93.256 E3.42864
G1 X127.464 Y93.985 E3.45613
G1 X127.211 Y94.692 E3.48361
G1 X126.890 Y95.371 E3.51110
G1 X126.456 Y96.081 E3.54152
G1 X126.056 Y96.619 E3.56606
G1 X125.552 Y97.176 E3.59355
G1 X124.995 Y97.680 E3.62103
G1 X124.392 Y98.128 E3.64852
G1 X123.747 Y98.514 E3.67600
G1 X123.068 Y98.835 E3.70349
G1 X122.361 Y99.088 E3.73098
G1 X121.632 Y99.271 E3.75846
G1 X120.889 Y99.381 E3.78595
G1 X120.139 Y99.418 E3.81343
G1 X119.388 Y99.381 E3.84092
G1 X118.645 Y99.271 E3.86841
G1 X117.916 Y99.088 E3.89589
G1 X117.209 Y98.835 E3.92338
G1 X116.530 Y98.514 E3.95087
G1 X115.886 Y98.128 E3.97835
G1 X115.282 Y97.680 E4.00584
G1 X114.726 Y97.176 E4.03332
G1 X114.221 Y96.619 E4.06081
G1 X113.773 Y96.016 E4.08830
G1 X113.387 Y95.371 E4.11578
G1 X113.066 Y94.692 E4.14327
G1 X112.813 Y93.985 E4.17076
G1 X112.630 Y93.256 E4.19824
G1 X112.520 Y92.513 E4.22573
G1 X112.486 Y91.815 E4.25128
G1 X112.469 Y90.816 E4.28786
G1 X111.152 Y89.100 E4.36699
G1 X110.385 Y87.248 E4.44032
G1 X110.385 Y80.801 E4.67620
G1 X111.121 Y80.837 F9900.000
G1 X111.795 Y79.210 F630.000 E4.74064
G1 X113.308 Y77.239 E4.83156
G1 X115.279 Y75.726 E4.92247
G1 X117.575 Y74.775 E5.01339
G1 X120.039 Y74.451 E5.10431
G1 X122.502 Y74.775 E5.19522
G1 X124.798 Y75.726 E5.28614
G1 X126.770 Y77.239 E5.37706
G1 X128.282 Y79.210 E5.46798
G1 X128.956 Y80.837 E5.53242
G1 X128.956 Y87.102 E5.76162
G1 X128.282 Y88.729 E5.82606
G1 X127.022 Y90.372 E5.90180
G1 X127.027 Y91.144 E5.93005
G1 X127.057 Y91.763 E5.95272
G1 X127.024 Y92.441 E5.97756
G1 X126.925 Y93.113 E6.00241
G1 X126.760 Y93.771 E6.02725
G1 X126.531 Y94.410 E6.05209
G1 X126.241 Y95.024 E6.07693
G1 X125.865 Y95.642 E6.10339
G1 X125.487 Y96.152 E6.12661
G1 X125.031 Y96.655 E6.15145
G1 X124.528 Y97.111 E6.17629
G1 X123.983 Y97.516 E6.20113
G1 X123.400 Y97.865 E6.22597
G1 X122.786 Y98.155 E6.25082
G1 X122.147 Y98.384 E6.27566
G1 X121.488 Y98.549 E6.30050
G1 X120.817 Y98.648 E6.32534
G1 X120.139 Y98.682 E6.35018
G1 X119.461 Y98.648 E6.37502
G1 X118.789 Y98.549 E6.39987
G1 X118.130 Y98.384 E6.42471
G1 X117.491 Y98.155 E6.44955
G1 X116.877 Y97.865 E6.47439
G1 X116.295 Y97.516 E6.49923
G1 X115.749 Y97.111 E6.52408
G1 X115.246 Y96.655 E6.54892
G1 X114.790 Y96.152 E6.57376
G1 X114.386 Y95.607 E6.59860
G1 X114.037 Y95.024 E6.62344
G1 X113.746 Y94.410 E6.64828
G1 X113.518 Y93.771 E6.67313
G1 X113.353 Y93.113 E6.69797
G1 X113.253 Y92.441 E6.72281
G1 X113.221 Y91.791 E6.74661
G1 X113.203 Y90.564 E6.79151
G1 X111.795 Y88.729 E6.87614
G1 X111.121 Y87.102 E6.94057
G1 X111.121 Y80.948 E7.16574
G1 X110.601 Y80.317 F9900.000
G1 X110.989 Y80.811
G1 X110.989 Y87.170
G1 X114.448 Y104.801
G1 X141.277 Y99.700
G1 X141.144 Y98.965
G1 X141.556 Y98.423 F540.000 E7.19065
G1 X142.094 Y98.006 E7.21557
G1 X142.722 Y97.742 E7.24049
G1 X143.396 Y97.649 E7.26539
G1 X143.734 Y97.692 E7.27786
G1 X144.072 Y97.735 E7.29031
G1 X144.703 Y97.992 E7.31524
G1 X145.245 Y98.404 E7.34015
G1 X145.662 Y98.942 E7.36506
G1 X145.926 Y99.570 E7.38998
G1 X146.019 Y100.244 E7.41490
G1 X145.933 Y100.920 E7.43981
G1 X145.676 Y101.551 E7.46473
G1 X145.264 Y102.093 E7.48964
G1 X144.726 Y102.510 E7.51455
G1 X144.098 Y102.774 E7.53946
G1 X143.424 Y102.867 E7.56437
G1 X142.748 Y102.781 E7.58929
G1 X142.118 Y102.524 E7.61421
G1 X141.575 Y102.112 E7.63914
G1 X141.158 Y101.574 E7.66404
G1 X140.894 Y100.946 E7.68895
G1 X140.801 Y100.272 E7.71387
G1 X140.887 Y99.596 E7.73879
G1 X141.102 Y99.067 E7.75967
G1 X141.789 Y99.333 F9900.000
G1 X142.083 Y98.945 F540.000 E7.77750
G1 X142.468 Y98.646 E7.79533
G1 X142.917 Y98.457 E7.81316
G1 X143.400 Y98.391 E7.83098
G1 X143.642 Y98.422 E7.83990
G1 X143.884 Y98.452 E7.84881
G1 X144.335 Y98.636 E7.86664
G1 X144.723 Y98.931 E7.88447
G1 X145.022 Y99.316 E7.90230
G1 X145.210 Y99.765 E7.92013
G1 X145.277 Y100.248 E7.93796
G1 X145.216 Y100.732 E7.95579
G1 X145.031 Y101.183 E7.97362
G1 X144.737 Y101.571 E7.99144
G1 X144.352 Y101.870 E8.00927
G1 X143.903 Y102.058 E8.02710
G1 X143.420 Y102.125 E8.04493
G1 X142.936 Y102.064 E8.06275
G1 X142.485 Y101.879 E8.08058
G1 X142.097 Y101.585 E8.09842
G1 X141.798 Y101.200 E8.11624
G1 X141.610 Y100.751 E8.13407
G1 X141.543 Y100.268 E8.15190
G1 X141.604 Y99.784 E8.16973
G1 X141.747 Y99.435 E8.18352
G1 X141.561 Y98.902 F9900.000
G1 X141.277 Y99.700
G1 X143.969 Y98.127
G1 X145.510 Y100.764
G1 X150.785 Y102.874
G1 X150.785 Y108.102 F900.000 E8.37478
G1 X115.051 Y108.101 E9.68217
G1 X115.052 Y104.198 E9.82494
G1 X106.300 Y104.191 E10.14514
G1 X89.215 Y87.282 E11.02460
G1 X89.215 Y67.898 E11.73380
G1 X150.785 Y67.898 E13.98644
G1 X150.785 Y102.764 E15.26206
G1 X151.521 Y102.874 F9900.000
G1 X151.521 Y108.837 F630.000 E15.48023
G1 X114.316 Y108.836 E16.84145
G1 X114.316 Y104.933 E16.98424
G1 X105.997 Y104.927 E17.28860
G1 X88.479 Y87.589 E18.19035
G1 X88.480 Y67.163 E18.93769
G1 X151.521 Y67.163 E21.24415
G1 X151.521 Y102.764 E22.54668
G1 X150.884 Y103.242 F9900.000
G1 X150.252 Y101.750
G1 X130.225 Y81.724 F900.000 E23.58378
G1 X130.225 Y80.682 E23.62191
G1 X150.252 Y100.709 E24.65900
G1 X150.252 Y99.668 E24.69713
G1 X129.558 Y78.974 E25.76878
G1 X125.035 Y74.450 F9900.000
G1 X119.016 Y68.432 F900.000 E26.08048
G1 X120.057 Y68.432 E26.11860
G1 X150.252 Y98.627 E27.68228
G1 X150.252 Y97.586 E27.72040
G1 X121.098 Y68.432 E29.23016
G1 X122.139 Y68.432 E29.26828
G1 X150.252 Y96.544 E30.72412
G1 X150.252 Y95.503 E30.76224
G1 X123.181 Y68.432 E32.16416
G1 X124.222 Y68.432 E32.20228
G1 X150.252 Y94.462 E33.55028
G1 X150.252 Y93.421 E33.58841
G1 X125.263 Y68.432 E34.88248
G1 X126.304 Y68.432 E34.92061
G1 X150.252 Y92.379 E36.16077
G1 X150.252 Y91.338 E36.19889
G1 X127.345 Y68.432 E37.38513
G1 X128.387 Y68.432 E37.42326
G1 X150.252 Y90.297 E38.55557
G1 X150.252 Y89.256 E38.59370
G1 X129.428 Y68.432 E39.67210
G1 X130.469 Y68.432 E39.71022
G1 X150.252 Y88.215 E40.73470
G1 X150.252 Y87.173 E40.77283
G1 X131.510 Y68.432 E41.74339
G1 X132.551 Y68.432 E41.78151
G1 X150.252 Y86.132 E42.69815
G1 X150.252 Y85.091 E42.73628
G1 X133.593 Y68.432 E43.59900
G1 X134.634 Y68.432 E43.63713
G1 X150.252 Y84.050 E44.44593
G1 X150.252 Y83.009 E44.48405
G1 X135.675 Y68.432 E45.23893
G1 X136.716 Y68.432 E45.27706
G1 X150.252 Y81.967 E45.97802
G1 X150.252 Y80.926 E46.01615
G1 X137.757 Y68.432 E46.66319
G1 X138.799 Y68.432 E46.70132
G1 X150.252 Y79.885 E47.29444
G1 X150.252 Y78.844 E47.33257
G1 X139.840 Y68.432 E47.87177
G1 X140.881 Y68.432 E47.90990
G1 X150.252 Y77.803 E48.39518
G1 X150.252 Y76.761 E48.43331
G1 X141.922 Y68.432 E48.86467
G1 X142.964 Y68.432 E48.90280
G1 X150.252 Y75.720 E49.28024
G1 X150.252 Y74.679 E49.31837
G1 X144.005 Y68.432 E49.64189
G1 X145.046 Y68.432 E49.68002
G1 X150.252 Y73.638 E49.94963
G1 X150.252 Y72.597 E49.98775
G1 X146.087 Y68.432 E50.20344
G1 X147.128 Y68.432 E50.24157
G1 X150.252 Y71.555 E50.40333
G1 X150.252 Y70.514 E50.44146
G1 X148.170 Y68.432 E50.54931
G1 X149.211 Y68.432 E50.58743
G1 X150.252 Y69.473 E50.64136
G1 X150.252 Y68.432 E50.67949
G1 X123.257 Y73.714 F9900.000
G1 X117.974 Y68.432 F900.000 E50.95306
G1 X116.933 Y68.432 E50.99119
G1 X121.920 Y73.419 E51.24944
G1 X120.721 Y73.261 E51.29373
G1 X115.892 Y68.432 E51.54381
G1 X114.851 Y68.432 E51.58193
G1 X119.642 Y73.223 E51.83006
G1 X118.722 Y73.344 E51.86405
G1 X113.810 Y68.432 E52.11845
G1 X112.768 Y68.432 E52.15657
G1 X117.802 Y73.465 E52.41725
G1 X116.954 Y73.659 E52.44909
G1 X111.727 Y68.432 E52.71978
G1 X110.686 Y68.432 E52.75791
G1 X116.218 Y73.964 E53.04439
G1 X115.482 Y74.269 E53.07357
G1 X109.645 Y68.432 E53.37585
G1 X108.604 Y68.432 E53.41397
G1 X114.746 Y74.574 E53.73204
G1 X114.135 Y75.004 E53.75940
G1 X107.562 Y68.432 E54.09977
G1 X106.521 Y68.432 E54.13790
G1 X113.546 Y75.456 E54.50169
G1 X112.957 Y75.908 E54.52888
G1 X105.480 Y68.432 E54.91608
G1 X104.439 Y68.432 E54.95421
G1 X112.376 Y76.369 E55.36524
G1 X111.924 Y76.958 E55.39243
G1 X103.397 Y68.432 E55.83397
G1 X102.356 Y68.432 E55.87210
G1 X111.472 Y77.547 E56.34415
G1 X111.020 Y78.136 E56.37134
G1 X101.315 Y68.432 E56.87390
G1 X100.274 Y68.432 E56.91203
G1 X110.606 Y78.764 E57.44710
G1 X110.301 Y79.500 E57.47628
G1 X99.233 Y68.432 E58.04948
G1 X98.191 Y68.432 E58.08761
G1 X109.996 Y80.236 E58.69894
G1 X109.852 Y81.133 E58.73220
G1 X97.150 Y68.432 E59.38997
G1 X96.109 Y68.432 E59.42810
G1 X109.852 Y82.175 E60.13979
G1 X109.852 Y83.216 E60.17791
G1 X95.068 Y68.431 E60.94352
G1 X94.027 Y68.431 E60.98165
G1 X109.852 Y84.257 E61.80118
G1 X109.852 Y85.298 E61.83931
G1 X92.985 Y68.431 E62.71275
G1 X91.944 Y68.431 E62.75088
G1 X109.852 Y86.339 E63.67825
G1 X109.870 Y87.399 E63.71705
G1 X90.903 Y68.431 E64.69929
G1 X89.862 Y68.431 E64.73742
G1 X110.607 Y89.177 E65.81172
G1 X111.948 Y91.559 E65.91184
G1 X100.003 Y79.614 E66.53045
G1 X100.183 Y80.835 E66.57567
G1 X112.002 Y92.654 E67.18772
G1 X112.254 Y93.947 E67.23595
G1 X100.023 Y81.717 E67.86932
G1 X99.681 Y82.416 E67.89782
G1 X112.958 Y95.693 E68.58538
G1 X115.585 Y104.567 F9900.000
G1 X118.586 Y107.568 F900.000 E68.74078
G1 X117.544 Y107.568 E68.77891
G1 X115.585 Y105.608 E68.88040
G1 X115.585 Y106.649 E68.91853
G1 X116.503 Y107.568 E68.96610
G1 X146.699 Y107.569 F9900.000
G1 X142.309 Y103.178 F900.000 E69.19348
G1 X143.558 Y103.386 E69.23988
G1 X147.741 Y107.569 E69.45646
G1 X148.782 Y107.569 E69.49458
G1 X144.427 Y103.214 E69.72008
G1 X145.128 Y102.873 E69.74860
G1 X149.823 Y107.569 E69.99175
G1 X150.252 Y106.956 E70.01912
G1 X145.698 Y102.403 E70.25494
G1 X146.146 Y101.809 E70.28216
G1 X150.252 Y105.915 E70.49479
G1 X150.252 Y104.874 E70.53291
G1 X146.448 Y101.070 E70.72991
G1 X146.540 Y100.120 E70.76484
G1 X150.252 Y103.833 E70.95708
G1 X150.252 Y102.792 E70.99521
G1 X146.112 Y98.651 E71.20962
G1 X145.037 Y97.576 F9900.000
G1 X130.225 Y82.765 F900.000 E71.97663
G1 X130.225 Y83.806 E72.01476
G1 X143.551 Y97.131 E72.70482
G1 X142.598 Y97.220 E72.73984
G1 X130.225 Y84.847 E73.38060
G1 X130.225 Y85.888 E73.41872
G1 X141.862 Y97.525 E74.02132
G1 X141.267 Y97.972 E74.04855
G1 X130.225 Y86.930 E74.62038
G1 X130.045 Y87.790 E74.65258
G1 X140.796 Y98.542 E75.20935
G1 X140.455 Y99.242 E75.23787
G1 X129.740 Y88.527 E75.79278
G1 X129.435 Y89.263 E75.82196
G1 X140.284 Y100.112 E76.38380
G1 X140.488 Y101.357 E76.43001
G1 X129.004 Y89.873 E77.02473
G1 X128.552 Y90.462 E77.05192
G1 X145.658 Y107.568 E77.93778
G1 X144.617 Y107.568 E77.97590
G1 X128.310 Y91.262 E78.82036
G1 X128.302 Y92.295 E78.85819
G1 X143.576 Y107.568 E79.64915
G1 X142.534 Y107.568 E79.68728
G1 X128.191 Y93.225 E80.43007
G1 X127.993 Y94.068 E80.46180
G1 X141.493 Y107.568 E81.16090
G1 X140.452 Y107.568 E81.19903
G1 X127.724 Y94.841 E81.85813
G1 X127.394 Y95.552 E81.88684
G1 X139.411 Y107.568 E82.50910
G1 X138.369 Y107.568 E82.54723
G1 X127.010 Y96.209 E83.13549
G1 X126.575 Y96.815 E83.16281
G1 X137.328 Y107.568 E83.71967
G1 X136.287 Y107.568 E83.75780
G1 X126.092 Y97.374 E84.28573
G1 X125.563 Y97.885 E84.31270
G1 X135.246 Y107.568 E84.81412
G1 X134.204 Y107.568 E84.85225
G1 X124.987 Y98.350 E85.32959
G1 X124.362 Y98.767 E85.35708
G1 X133.163 Y107.568 E85.81284
G1 X132.122 Y107.568 E85.85097
G1 X123.687 Y99.133 E86.28780
