; generated by Slic3r 0.9.9-dev on 2013-08-04 at 14:09:06

; layer_height = 0.3
; perimeters = 2
; top_solid_layers = 4
; bottom_solid_layers = 4
; fill_density = 0.25
; perimeter_speed = 50
; infill_speed = 80
; travel_speed = 165
; nozzle_diameter = 0.5
; filament_diameter = 3
; extrusion_multiplier = 1
; perimeters extrusion width = 0.70mm
; infill extrusion width = 0.70mm
; solid infill extrusion width = 0.70mm
; top infill extrusion width = 0.70mm
; first layer extrusion width = 0.80mm

G21 ; set units to millimeters
M107
M190 S70 ; wait for bed temperature to be reached
M104 S185 ; set temperature
;G28 ; home all axes
;G1 Z5 F5000 ; lift nozzle
M109 S185 ; wait for temperature to be reached
G90 ; use absolute coordinates
G92 E0
M82 ; use absolute distances for extrusion
G1 F1800.000 E-1.00000
G1 Z0.700
G92 E0
G1 X84.731 Y60.700 F9900.000
G1 Z0.400
G1 F1800.000 E1.50000
G1 X85.261 Y60.040 F900.000 E1.53524
G1 X85.721 Y59.580 E1.56232
G1 X85.971 Y59.360 E1.57618
G1 X86.491 Y58.970 E1.60324
G1 X86.951 Y58.680 E1.62587
G1 X87.471 Y58.390 E1.65066
G1 X88.021 Y58.150 E1.67564
G1 X88.871 Y57.880 E1.71276
G1 X89.661 Y57.740 E1.74616
G1 X90.661 Y57.660 E1.78792
G1 X147.921 Y57.660 E4.17152
G1 X148.511 Y57.690 E4.19611
G1 X149.101 Y57.770 E4.22089
G1 X149.961 Y57.980 E4.25774
G1 X150.521 Y58.190 E4.28264
G1 X151.311 Y58.580 E4.31932
G1 X152.511 Y59.280 E4.37715
G1 X153.071 Y59.640 E4.40486
G1 X153.951 Y60.340 E4.45167
G1 X154.131 Y60.510 E4.46197
G1 X154.901 Y61.370 E4.51003
G1 X155.051 Y61.570 E4.52043
G1 X155.571 Y62.380 E4.56050
G1 X155.691 Y62.600 E4.57093
G1 X156.051 Y63.380 E4.60669
G1 X156.241 Y63.880 E4.62896
G1 X156.411 Y64.430 E4.65292
G1 X156.561 Y65.250 E4.68763
G1 X156.641 Y66.040 E4.72068
G1 X156.651 Y66.290 E4.73109
G1 X156.611 Y67.360 E4.77567
G1 X156.451 Y68.340 E4.81700
G1 X156.271 Y68.980 E4.84468
G1 X155.891 Y69.950 E4.88804
G1 X155.541 Y70.640 E4.92025
G1 X131.281 Y112.660 E6.94004
G1 X130.981 Y113.140 E6.96360
G1 X130.521 Y113.800 E6.99709
G1 X130.221 Y114.200 E7.01790
G1 X129.891 Y114.580 E7.03885
G1 X129.141 Y115.310 E7.08242
G1 X128.311 Y116.010 E7.12762
G1 X127.661 Y116.470 E7.16077
G1 X127.051 Y116.860 E7.19091
G1 X125.881 Y117.420 E7.24490
G1 X124.811 Y117.810 E7.29231
G1 X123.811 Y118.080 E7.33543
G1 X123.341 Y118.170 E7.35535
G1 X122.061 Y118.300 E7.40890
G1 X121.471 Y118.330 E7.43350
G1 X90.671 Y118.330 E8.71562
G1 X89.721 Y118.260 E8.75528
G1 X89.211 Y118.180 E8.77677
G1 X88.621 Y118.040 E8.80201
G1 X88.041 Y117.850 E8.82742
G1 X87.481 Y117.600 E8.85295
G1 X86.771 Y117.200 E8.88687
G1 X86.231 Y116.830 E8.91412
G1 X85.721 Y116.410 E8.94162
G1 X85.261 Y115.950 E8.96870
G1 X84.921 Y115.540 E8.99087
G1 X84.551 Y115.030 E9.01710
G1 X84.221 Y114.480 E9.04380
G1 X83.951 Y113.910 E9.07006
G1 X83.661 Y113.150 E9.10392
G1 X83.581 Y112.860 E9.11644
G1 X83.451 Y112.280 E9.14118
G1 X83.371 Y111.690 E9.16597
G1 X83.341 Y111.100 E9.19056
G1 X83.331 Y64.990 E11.11001
G1 X83.371 Y64.320 E11.13795
G1 X83.421 Y63.880 E11.15638
G1 X83.481 Y63.550 E11.17034
G1 X83.651 Y62.880 E11.19912
G1 X83.831 Y62.370 E11.22163
G1 X84.081 Y61.790 E11.24792
G1 X84.381 Y61.230 E11.27437
G1 X84.668 Y60.791 E11.29622
G1 F1800.000 E10.29622
G1 Z0.700
G92 E0
G1 X130.437 Y73.848 F9900.000
G1 Z0.400
G1 F1800.000 E1.50000
G1 X130.648 Y73.396 F540.000 E1.52074
G1 X130.934 Y72.988 E1.54148
G1 X131.286 Y72.636 E1.56221
G1 X131.694 Y72.350 E1.58295
G1 X132.145 Y72.140 E1.60368
G1 X132.626 Y72.011 E1.62442
G1 X133.123 Y71.968 E1.64515
G1 X133.619 Y72.011 E1.66589
G1 X134.100 Y72.140 E1.68663
G1 X134.551 Y72.351 E1.70736
G1 X134.959 Y72.636 E1.72810
G1 X135.312 Y72.988 E1.74883
G1 X135.597 Y73.397 E1.76957
G1 X135.808 Y73.848 E1.79030
G1 X135.937 Y74.329 E1.81104
G1 X135.947 Y74.443 E1.81578
G1 X135.980 Y74.825 E1.83177
G1 X135.937 Y75.322 E1.85251
G1 X135.808 Y75.803 E1.87324
G1 X135.597 Y76.254 E1.89398
G1 X135.312 Y76.662 E1.91472
G1 X134.959 Y77.014 E1.93545
G1 X134.551 Y77.300 E1.95619
G1 X134.448 Y77.348 E1.96093
G1 X134.100 Y77.511 E1.97692
G1 X133.619 Y77.640 E1.99766
G1 X133.123 Y77.683 E2.01839
G1 X132.626 Y77.640 E2.03913
G1 X132.145 Y77.511 E2.05987
G1 X131.694 Y77.300 E2.08060
G1 X131.286 Y77.014 E2.10134
G1 X130.933 Y76.662 E2.12207
G1 X130.648 Y76.254 E2.14281
G1 X130.437 Y75.803 E2.16354
G1 X130.308 Y75.322 E2.18428
G1 X130.265 Y74.825 E2.20501
G1 X130.308 Y74.329 E2.22575
G1 X130.409 Y73.955 E2.24189
G1 X131.131 Y74.101 F9900.000
G1 X131.287 Y73.766 F540.000 E2.25727
G1 X131.499 Y73.463 E2.27264
G1 X131.760 Y73.202 E2.28802
G1 X132.063 Y72.990 E2.30340
G1 X132.398 Y72.834 E2.31877
G1 X132.755 Y72.738 E2.33415
G1 X133.123 Y72.706 E2.34953
G1 X133.491 Y72.738 E2.36491
G1 X133.847 Y72.834 E2.38028
G1 X134.182 Y72.990 E2.39566
G1 X134.485 Y73.202 E2.41104
G1 X134.746 Y73.463 E2.42642
G1 X134.958 Y73.766 E2.44179
G1 X135.114 Y74.101 E2.45717
G1 X135.214 Y74.507 E2.47458
G1 X135.242 Y74.825 E2.48790
G1 X135.210 Y75.193 E2.50328
G1 X135.114 Y75.550 E2.51865
G1 X134.958 Y75.885 E2.53403
G1 X134.746 Y76.188 E2.54941
G1 X134.485 Y76.449 E2.56478
G1 X134.137 Y76.682 E2.58220
G1 X133.847 Y76.817 E2.59551
G1 X133.491 Y76.912 E2.61089
G1 X133.123 Y76.945 E2.62627
G1 X132.755 Y76.912 E2.64164
G1 X132.398 Y76.817 E2.65702
G1 X132.063 Y76.661 E2.67240
G1 X131.760 Y76.449 E2.68778
G1 X131.499 Y76.188 E2.70315
G1 X131.287 Y75.885 E2.71853
G1 X131.131 Y75.550 E2.73391
G1 X131.036 Y75.193 E2.74928
G1 X131.003 Y74.825 E2.76466
G1 X131.036 Y74.457 E2.78004
G1 X131.103 Y74.207 E2.79082
G1 X130.902 Y73.811 F9900.000
G1 X124.435 Y88.880
G1 X124.886 Y89.091 F540.000 E2.81156
G1 X124.980 Y89.156 E2.81630
G1 X125.294 Y89.377 E2.83229
G1 X125.647 Y89.729 E2.85303
G1 X125.932 Y90.137 E2.87376
G1 X126.143 Y90.588 E2.89450
G1 X126.272 Y91.069 E2.91524
G1 X126.315 Y91.566 E2.93597
G1 X126.272 Y92.062 E2.95671
G1 X126.143 Y92.543 E2.97745
G1 X125.932 Y92.994 E2.99818
G1 X125.867 Y93.088 E3.00292
G1 X125.647 Y93.403 E3.01891
G1 X125.294 Y93.755 E3.03965
G1 X124.886 Y94.041 E3.06039
G1 X124.435 Y94.251 E3.08112
G1 X123.954 Y94.380 E3.10185
G1 X123.458 Y94.423 E3.12259
G1 X122.961 Y94.380 E3.14333
G1 X122.480 Y94.251 E3.16406
G1 X122.029 Y94.040 E3.18480
G1 X121.621 Y93.755 E3.20553
G1 X121.268 Y93.403 E3.22627
G1 X120.983 Y92.995 E3.24700
G1 X120.772 Y92.543 E3.26774
G1 X120.643 Y92.062 E3.28848
G1 X120.600 Y91.566 E3.30921
G1 X120.643 Y91.069 E3.32995
G1 X120.772 Y90.588 E3.35068
G1 X120.983 Y90.137 E3.37142
G1 X121.268 Y89.729 E3.39215
G1 X121.621 Y89.377 E3.41289
G1 X122.029 Y89.091 E3.43363
G1 X122.480 Y88.880 E3.45436
G1 X122.961 Y88.751 E3.47509
G1 X123.458 Y88.708 E3.49583
G1 X123.954 Y88.751 E3.51656
G1 X124.328 Y88.852 E3.53271
G1 X124.182 Y89.574 F9900.000
G1 X124.517 Y89.730 F540.000 E3.54808
G1 X124.855 Y89.977 E3.56550
G1 X125.081 Y90.203 E3.57881
G1 X125.293 Y90.506 E3.59419
G1 X125.449 Y90.841 E3.60957
G1 X125.545 Y91.198 E3.62494
G1 X125.577 Y91.566 E3.64032
G1 X125.545 Y91.934 E3.65570
G1 X125.449 Y92.291 E3.67108
G1 X125.293 Y92.625 E3.68645
G1 X125.081 Y92.928 E3.70183
G1 X124.820 Y93.189 E3.71721
G1 X124.517 Y93.401 E3.73259
G1 X124.182 Y93.557 E3.74796
G1 X123.826 Y93.653 E3.76334
G1 X123.458 Y93.685 E3.77872
G1 X123.090 Y93.653 E3.79410
G1 X122.733 Y93.557 E3.80947
G1 X122.398 Y93.401 E3.82485
G1 X122.095 Y93.189 E3.84023
G1 X121.834 Y92.928 E3.85560
G1 X121.622 Y92.625 E3.87098
G1 X121.466 Y92.290 E3.88636
G1 X121.370 Y91.934 E3.90174
G1 X121.338 Y91.566 E3.91711
G1 X121.370 Y91.198 E3.93249
G1 X121.466 Y90.841 E3.94787
G1 X121.622 Y90.506 E3.96325
G1 X121.834 Y90.203 E3.97862
G1 X122.095 Y89.942 E3.99400
G1 X122.398 Y89.730 E4.00938
G1 X122.733 Y89.574 E4.02476
G1 X123.090 Y89.479 E4.04013
G1 X123.458 Y89.446 E4.05551
G1 X123.825 Y89.479 E4.07089
G1 X124.076 Y89.546 E4.08167
G1 X124.472 Y89.345 F9900.000
G1 X103.146 Y77.929
G1 X102.860 Y78.337 F540.000 E4.10241
G1 X102.508 Y78.689 E4.12314
G1 X102.100 Y78.975 E4.14388
G1 X101.648 Y79.185 E4.16461
G1 X101.167 Y79.314 E4.18535
G1 X100.671 Y79.358 E4.20609
G1 X100.175 Y79.314 E4.22682
G1 X100.065 Y79.285 E4.23156
G1 X99.694 Y79.185 E4.24755
G1 X99.242 Y78.975 E4.26829
G1 X98.834 Y78.689 E4.28903
G1 X98.482 Y78.337 E4.30976
G1 X98.196 Y77.929 E4.33050
G1 X97.986 Y77.477 E4.35123
G1 X97.857 Y76.996 E4.37197
G1 X97.813 Y76.500 E4.39270
G1 X97.857 Y76.004 E4.41344
G1 X97.986 Y75.523 E4.43417
G1 X98.196 Y75.071 E4.45491
G1 X98.482 Y74.663 E4.47565
G1 X98.834 Y74.311 E4.49638
G1 X99.242 Y74.025 E4.51712
G1 X99.693 Y73.815 E4.53785
G1 X99.804 Y73.785 E4.54260
G1 X100.175 Y73.686 E4.55859
G1 X100.671 Y73.642 E4.57932
G1 X101.167 Y73.686 E4.60006
G1 X101.648 Y73.815 E4.62079
G1 X102.100 Y74.025 E4.64153
G1 X102.508 Y74.311 E4.66227
G1 X102.860 Y74.663 E4.68300
G1 X103.146 Y75.071 E4.70374
G1 X103.356 Y75.523 E4.72447
G1 X103.485 Y76.004 E4.74521
G1 X103.529 Y76.500 E4.76594
G1 X103.485 Y76.996 E4.78668
G1 X103.356 Y77.477 E4.80741
G1 X103.192 Y77.829 E4.82356
G1 X102.506 Y77.560 F9900.000
G1 X102.294 Y77.862 F540.000 E4.83894
G1 X102.033 Y78.123 E4.85431
G1 X101.730 Y78.335 E4.86969
G1 X101.396 Y78.491 E4.88507
G1 X101.039 Y78.587 E4.90044
G1 X100.671 Y78.619 E4.91582
G1 X100.255 Y78.574 E4.93323
G1 X99.946 Y78.491 E4.94655
G1 X99.611 Y78.335 E4.96193
G1 X99.309 Y78.123 E4.97730
G1 X99.047 Y77.862 E4.99268
G1 X98.836 Y77.560 E5.00806
G1 X98.667 Y77.177 E5.02547
G1 X98.584 Y76.868 E5.03878
G1 X98.552 Y76.500 E5.05416
G1 X98.584 Y76.132 E5.06954
G1 X98.679 Y75.775 E5.08492
G1 X98.836 Y75.440 E5.10029
G1 X99.047 Y75.138 E5.11567
G1 X99.309 Y74.877 E5.13105
G1 X99.611 Y74.665 E5.14643
G1 X99.994 Y74.496 E5.16384
G1 X100.303 Y74.413 E5.17715
G1 X100.671 Y74.381 E5.19253
G1 X101.039 Y74.413 E5.20791
G1 X101.396 Y74.509 E5.22328
G1 X101.730 Y74.665 E5.23866
G1 X102.033 Y74.877 E5.25404
G1 X102.294 Y75.138 E5.26942
G1 X102.506 Y75.440 E5.28479
G1 X102.662 Y75.775 E5.30017
G1 X102.758 Y76.132 E5.31555
G1 X102.790 Y76.500 E5.33093
G1 X102.758 Y76.868 E5.34630
G1 X102.662 Y77.225 E5.36168
G1 X102.553 Y77.460 E5.37247
G1 X102.681 Y77.885 F9900.000
G1 X101.167 Y96.686
G1 X101.648 Y96.815 F540.000 E5.39320
G1 X102.100 Y97.025 E5.41393
G1 X102.508 Y97.311 E5.43467
G1 X102.860 Y97.663 E5.45540
G1 X102.925 Y97.756 E5.46015
G1 X103.146 Y98.071 E5.47614
G1 X103.356 Y98.523 E5.49687
G1 X103.485 Y99.004 E5.51761
G1 X103.529 Y99.500 E5.53835
G1 X103.485 Y99.996 E5.55908
G1 X103.356 Y100.477 E5.57982
G1 X103.146 Y100.929 E5.60055
G1 X103.080 Y101.022 E5.60530
G1 X102.860 Y101.337 E5.62129
G1 X102.508 Y101.689 E5.64202
G1 X102.100 Y101.975 E5.66276
G1 X101.648 Y102.185 E5.68350
G1 X101.167 Y102.314 E5.70423
G1 X100.671 Y102.358 E5.72497
G1 X100.175 Y102.314 E5.74571
G1 X99.693 Y102.185 E5.76644
G1 X99.242 Y101.975 E5.78717
G1 X98.834 Y101.689 E5.80791
G1 X98.482 Y101.337 E5.82864
G1 X98.196 Y100.929 E5.84938
G1 X97.986 Y100.477 E5.87011
G1 X97.857 Y99.996 E5.89085
G1 X97.813 Y99.500 E5.91159
G1 X97.857 Y99.004 E5.93232
G1 X97.986 Y98.523 E5.95306
G1 X98.196 Y98.071 E5.97379
G1 X98.482 Y97.663 E5.99453
G1 X98.834 Y97.311 E6.01526
G1 X99.242 Y97.025 E6.03600
G1 X99.694 Y96.815 E6.05674
G1 X100.175 Y96.686 E6.07747
G1 X100.671 Y96.642 E6.09821
G1 X101.057 Y96.676 E6.11435
G1 X101.039 Y97.413 F9900.000
G1 X101.396 Y97.509 F540.000 E6.12973
G1 X101.730 Y97.665 E6.14510
G1 X102.033 Y97.877 E6.16048
G1 X102.323 Y98.178 E6.17790
G1 X102.506 Y98.440 E6.19121
G1 X102.662 Y98.775 E6.20659
G1 X102.758 Y99.132 E6.22196
G1 X102.790 Y99.500 E6.23734
G1 X102.758 Y99.868 E6.25272
G1 X102.662 Y100.225 E6.26810
G1 X102.506 Y100.560 E6.28347
G1 X102.294 Y100.862 E6.29885
G1 X101.992 Y101.152 E6.31626
G1 X101.730 Y101.335 E6.32958
G1 X101.396 Y101.491 E6.34496
G1 X101.039 Y101.587 E6.36033
G1 X100.671 Y101.619 E6.37571
G1 X100.303 Y101.587 E6.39109
G1 X99.946 Y101.491 E6.40646
G1 X99.611 Y101.335 E6.42184
G1 X99.309 Y101.123 E6.43722
G1 X99.047 Y100.862 E6.45260
G1 X98.836 Y100.560 E6.46797
G1 X98.679 Y100.225 E6.48335
G1 X98.584 Y99.868 E6.49873
G1 X98.552 Y99.500 E6.51411
G1 X98.584 Y99.132 E6.52948
G1 X98.679 Y98.775 E6.54486
G1 X98.836 Y98.440 E6.56024
G1 X99.047 Y98.138 E6.57561
G1 X99.309 Y97.877 E6.59099
G1 X99.611 Y97.665 E6.60637
G1 X99.946 Y97.509 E6.62175
G1 X100.303 Y97.413 E6.63712
G1 X100.671 Y97.381 E6.65250
G1 X100.929 Y97.403 E6.66329
G1 X101.284 Y97.137 F9900.000
G1 X100.672 Y97.199
G1 X98.946 Y97.995
G1 X98.388 Y99.498
G1 X97.152 Y111.099
G1 X97.134 Y110.496
G1 X91.176 Y110.495 F900.000 E6.91132
G1 X91.176 Y65.505 E8.78414
G1 X147.628 Y65.510 E11.13412
G1 X148.541 Y66.036 E11.17795
G1 X148.694 Y66.156 E11.18606
G1 X148.777 Y66.284 E11.19241
G1 X148.817 Y66.431 E11.19876
G1 X148.809 Y66.583 E11.20511
G1 X148.735 Y66.765 E11.21326
G1 X124.522 Y108.704 E13.22915
G1 X124.146 Y109.241 E13.25646
G1 X123.716 Y109.671 E13.28176
G1 X123.218 Y110.020 E13.30706
G1 X122.667 Y110.276 E13.33236
G1 X122.080 Y110.434 E13.35766
G1 X121.426 Y110.491 E13.38497
G1 X97.245 Y110.496 E14.39160
G1 X97.134 Y111.232 F9900.000
G1 X90.687 Y111.231 F630.000 E14.65999
G1 X90.593 Y111.215 E14.66397
G1 X90.524 Y111.176 E14.66729
G1 X90.472 Y111.115 E14.67060
G1 X90.445 Y111.040 E14.67391
G1 X90.440 Y65.016 E16.58977
G1 X90.456 Y64.922 E16.59375
G1 X90.524 Y64.824 E16.59868
G1 X90.593 Y64.785 E16.60200
G1 X90.687 Y64.769 E16.60598
G1 X147.825 Y64.774 E18.98451
G1 X148.933 Y65.413 E19.03773
G1 X149.103 Y65.530 E19.04632
G1 X149.242 Y65.662 E19.05433
G1 X149.360 Y65.815 E19.06233
G1 X149.451 Y65.984 E19.07034
G1 X149.515 Y66.165 E19.07834
G1 X149.551 Y66.354 E19.08634
G1 X149.556 Y66.546 E19.09435
G1 X149.530 Y66.737 E19.10235
G1 X149.476 Y66.921 E19.11036
G1 X149.387 Y67.108 E19.11896
G1 X125.143 Y109.099 E21.13739
G1 X124.711 Y109.716 E21.16871
G1 X124.191 Y110.237 E21.19937
G1 X123.587 Y110.659 E21.23003
G1 X122.920 Y110.970 E21.26069
G1 X122.208 Y111.161 E21.29135
G1 X121.459 Y111.226 E21.32268
G1 X97.245 Y111.231 E22.33064
G1 X96.767 Y110.594 F9900.000
G1 X91.709 Y109.962
G1 X91.709 Y108.920 F1080.000 E22.37409
G1 X92.751 Y109.962 E22.43555
G1 X93.794 Y109.962 E22.47900
G1 X91.709 Y107.878 E22.60190
G1 X91.709 Y106.836 E22.64534
G1 X94.836 Y109.962 E22.82970
G1 X95.878 Y109.962 E22.87315
G1 X91.709 Y105.794 E23.11894
G1 X91.709 Y104.752 E23.16239
G1 X96.920 Y109.963 E23.46963
G1 X97.962 Y109.963 E23.51307
G1 X91.709 Y103.710 E23.88174
G1 X91.709 Y102.668 E23.92519
G1 X99.004 Y109.962 E24.35529
G1 X100.045 Y109.962 E24.39872
G1 X91.709 Y101.626 E24.89024
G1 X91.709 Y100.584 E24.93369
G1 X101.087 Y109.962 E25.48663
G1 X102.129 Y109.962 E25.53007
G1 X91.709 Y99.542 E26.14444
G1 X91.709 Y98.500 E26.18788
G1 X103.171 Y109.961 E26.86368
G1 X104.212 Y109.961 E26.90712
G1 X91.709 Y97.458 E27.64434
G1 X91.709 Y96.416 E27.68778
G1 X105.254 Y109.961 E28.48643
G1 X106.296 Y109.961 E28.52986
G1 X91.709 Y95.374 E29.38993
G1 X91.709 Y94.332 E29.43338
G1 X97.316 Y99.939 E29.76400
G1 X97.330 Y98.911 E29.80690
G1 X91.709 Y93.290 E30.13829
G1 X91.709 Y92.248 E30.18174
G1 X97.584 Y98.123 E30.52811
G1 X97.969 Y97.466 E30.55986
G1 X91.709 Y91.206 E30.92895
G1 X91.709 Y90.164 E30.97239
G1 X98.468 Y96.923 E31.37091
G1 X99.093 Y96.506 E31.40223
G1 X91.709 Y89.122 E31.83761
G1 X91.709 Y88.080 E31.88106
G1 X99.850 Y96.221 E32.36104
G1 X100.788 Y96.117 E32.40040
G1 X91.709 Y87.038 E32.93572
G1 X91.709 Y85.997 E32.97917
G1 X102.193 Y96.480 E33.59733
G1 X103.690 Y97.978 F9900.000
G1 X115.672 Y109.959 F1080.000 E34.30377
G1 X114.630 Y109.959 E34.34720
G1 X104.053 Y99.383 E34.97081
G1 X103.950 Y100.321 E35.01018
G1 X113.588 Y109.959 E35.57846
G1 X112.546 Y109.960 E35.62190
G1 X103.665 Y101.078 E36.14559
G1 X103.248 Y101.703 E36.17692
G1 X111.505 Y109.960 E36.66376
G1 X110.463 Y109.960 E36.70719
G1 X102.705 Y102.202 E37.16463
G1 X102.048 Y102.587 E37.19637
G1 X109.421 Y109.960 E37.63110
G1 X108.379 Y109.960 E37.67454
G1 X101.260 Y102.841 E38.09430
G1 X100.231 Y102.854 E38.13720
G1 X107.338 Y109.961 E38.55620
G1 X116.713 Y109.959 F9900.000
G1 X91.709 Y84.955 F1080.000 E40.03051
G1 X91.709 Y83.913 E40.07396
G1 X117.755 Y109.958 E41.60970
G1 X118.797 Y109.958 E41.65313
G1 X91.709 Y82.871 E43.25030
G1 X91.709 Y81.829 E43.29374
G1 X119.838 Y109.958 E44.95234
