; generated by Slic3r 0.9.9-dev on 2013-08-04 at 18:38:17

; layer_height = 0.3
; perimeters = 2
; top_solid_layers = 4
; bottom_solid_layers = 4
; fill_density = 0.25
; perimeter_speed = 50
; infill_speed = 70
; travel_speed = 165
; nozzle_diameter = 0.5
; filament_diameter = 3
; extrusion_multiplier = 1
; perimeters extrusion width = 0.70mm
; infill extrusion width = 0.70mm
; solid infill extrusion width = 0.70mm
; top infill extrusion width = 0.70mm
; first layer extrusion width = 0.80mm

G21 ; set units to millimeters
M107
M190 S70 ; wait for bed temperature to be reached
M104 S185 ; set temperature
;G28 ; home all axes
;G1 Z5 F5000 ; lift nozzle
M109 S185 ; wait for temperature to be reached
G90 ; use absolute coordinates
G92 E0
M82 ; use absolute distances for extrusion
G1 F1800.000 E-1.00000
G1 Z0.700
G92 E0
G1 X84.721 Y60.710 F9900.000
G1 Z0.400
G1 F1800.000 E1.00000
G1 X85.051 Y60.290 F900.000 E1.02223
G1 X85.481 Y59.810 E1.04906
G1 X85.951 Y59.380 E1.07558
G1 X86.201 Y59.180 E1.08891
G1 X86.731 Y58.810 E1.11581
G1 X87.451 Y58.410 E1.15010
G1 X88.001 Y58.170 E1.17508
G1 X88.851 Y57.900 E1.21221
G1 X89.861 Y57.710 E1.25499
G1 X90.661 Y57.660 E1.28835
G1 X121.471 Y57.660 E2.57090
G1 X122.061 Y57.690 E2.59549
G1 X123.341 Y57.820 E2.64905
G1 X123.811 Y57.910 E2.66897
G1 X124.811 Y58.180 E2.71209
G1 X125.881 Y58.570 E2.75949
G1 X127.051 Y59.130 E2.81349
G1 X127.661 Y59.520 E2.84363
G1 X128.311 Y59.980 E2.87678
G1 X129.141 Y60.680 E2.92197
G1 X129.891 Y61.410 E2.96554
G1 X130.221 Y61.790 E2.98649
G1 X130.521 Y62.190 E3.00731
G1 X130.981 Y62.850 E3.04080
G1 X131.281 Y63.330 E3.06436
G1 X155.541 Y105.350 E5.08414
G1 X155.841 Y105.930 E5.11133
G1 X156.201 Y106.810 E5.15091
G1 X156.281 Y107.050 E5.16144
G1 X156.431 Y107.570 E5.18396
G1 X156.541 Y108.110 E5.20691
G1 X156.611 Y108.630 E5.22875
G1 X156.651 Y109.700 E5.27332
G1 X156.561 Y110.740 E5.31677
G1 X156.411 Y111.560 E5.35148
G1 X156.241 Y112.110 E5.37544
G1 X156.051 Y112.610 E5.39770
G1 X155.691 Y113.390 E5.43347
G1 X155.571 Y113.610 E5.44390
G1 X155.051 Y114.420 E5.48397
G1 X154.901 Y114.620 E5.49437
G1 X154.131 Y115.480 E5.54243
G1 X153.951 Y115.650 E5.55273
G1 X153.071 Y116.350 E5.59954
G1 X152.511 Y116.710 E5.62725
G1 X151.051 Y117.550 E5.69737
G1 X150.521 Y117.800 E5.72176
G1 X149.961 Y118.010 E5.74666
G1 X149.681 Y118.090 E5.75878
G1 X148.811 Y118.270 E5.79577
G1 X147.921 Y118.330 E5.83290
G1 X90.661 Y118.330 E8.21649
G1 X89.861 Y118.280 E8.24986
G1 X89.601 Y118.240 E8.26081
G1 X88.851 Y118.090 E8.29265
G1 X88.281 Y117.920 E8.31741
G1 X87.721 Y117.710 E8.34231
G1 X87.311 Y117.510 E8.36130
G1 X86.701 Y117.160 E8.39057
G1 X86.121 Y116.740 E8.42038
G1 X85.481 Y116.180 E8.45578
G1 X85.051 Y115.710 E8.48230
G1 X84.851 Y115.460 E8.49563
G1 X84.481 Y114.930 E8.52253
G1 X84.081 Y114.210 E8.55682
G1 X83.841 Y113.660 E8.58180
G1 X83.571 Y112.810 E8.61893
G1 X83.381 Y111.800 E8.66171
G1 X83.331 Y111.000 E8.69507
G1 X83.331 Y64.990 E10.61036
G1 X83.351 Y64.520 E10.62994
G1 X83.401 Y64.050 E10.64961
G1 X83.521 Y63.360 E10.67877
G1 X83.681 Y62.790 E10.70341
G1 X83.771 Y62.510 E10.71566
G1 X84.061 Y61.810 E10.74720
G1 X84.371 Y61.250 E10.77384
G1 X84.658 Y60.801 E10.79604
G1 F1800.000 E9.79604
G1 Z0.700
G92 E0
G1 X99.694 Y96.815 F9900.000
G1 Z0.400
G1 F1800.000 E1.00000
G1 X100.175 Y96.686 F540.000 E1.02073
G1 X100.671 Y96.642 E1.04147
G1 X101.167 Y96.686 E1.06221
G1 X101.648 Y96.815 E1.08294
G1 X101.751 Y96.863 E1.08768
G1 X102.100 Y97.025 E1.10368
G1 X102.508 Y97.311 E1.12441
G1 X102.860 Y97.663 E1.14514
G1 X103.146 Y98.071 E1.16588
G1 X103.356 Y98.523 E1.18662
G1 X103.485 Y99.004 E1.20735
G1 X103.529 Y99.500 E1.22809
G1 X103.485 Y99.996 E1.24883
G1 X103.356 Y100.477 E1.26956
G1 X103.146 Y100.929 E1.29030
G1 X102.860 Y101.337 E1.31103
G1 X102.508 Y101.689 E1.33176
G1 X102.100 Y101.975 E1.35250
G1 X101.648 Y102.185 E1.37324
G1 X101.167 Y102.314 E1.39397
G1 X100.671 Y102.358 E1.41471
G1 X100.175 Y102.314 E1.43545
G1 X99.694 Y102.185 E1.45618
G1 X99.242 Y101.975 E1.47691
G1 X98.834 Y101.689 E1.49765
G1 X98.482 Y101.337 E1.51839
G1 X98.196 Y100.929 E1.53912
G1 X97.986 Y100.477 E1.55986
G1 X97.857 Y99.996 E1.58059
G1 X97.813 Y99.500 E1.60133
G1 X97.857 Y99.004 E1.62207
G1 X97.986 Y98.523 E1.64280
G1 X98.196 Y98.071 E1.66353
G1 X98.482 Y97.663 E1.68427
G1 X98.834 Y97.311 E1.70501
G1 X99.242 Y97.025 E1.72574
G1 X99.593 Y96.861 E1.74188
G1 X99.946 Y97.509 F9900.000
G1 X100.303 Y97.413 F540.000 E1.75726
G1 X100.671 Y97.381 E1.77264
G1 X101.039 Y97.413 E1.78802
G1 X101.441 Y97.530 E1.80543
G1 X101.730 Y97.665 E1.81874
G1 X102.033 Y97.877 E1.83412
G1 X102.294 Y98.138 E1.84950
G1 X102.506 Y98.440 E1.86488
G1 X102.662 Y98.775 E1.88025
G1 X102.758 Y99.132 E1.89563
G1 X102.790 Y99.500 E1.91101
G1 X102.758 Y99.868 E1.92639
G1 X102.662 Y100.225 E1.94176
G1 X102.506 Y100.560 E1.95714
G1 X102.294 Y100.862 E1.97252
G1 X102.033 Y101.123 E1.98789
G1 X101.730 Y101.335 E2.00327
G1 X101.396 Y101.491 E2.01865
G1 X101.039 Y101.587 E2.03403
G1 X100.671 Y101.619 E2.04940
G1 X100.303 Y101.587 E2.06478
G1 X99.946 Y101.491 E2.08016
G1 X99.611 Y101.335 E2.09554
G1 X99.309 Y101.123 E2.11091
G1 X99.047 Y100.862 E2.12629
G1 X98.836 Y100.560 E2.14167
G1 X98.679 Y100.225 E2.15705
G1 X98.584 Y99.868 E2.17242
G1 X98.552 Y99.500 E2.18780
G1 X98.584 Y99.132 E2.20318
G1 X98.679 Y98.775 E2.21856
G1 X98.836 Y98.440 E2.23393
G1 X99.047 Y98.138 E2.24931
G1 X99.309 Y97.877 E2.26469
G1 X99.611 Y97.665 E2.28006
G1 X99.846 Y97.555 E2.29085
G1 X100.021 Y97.147 F9900.000
G1 X100.671 Y79.358
G1 X100.175 Y79.314 F540.000 E2.31158
G1 X99.693 Y79.185 E2.33232
G1 X99.242 Y78.975 E2.35306
G1 X98.834 Y78.689 E2.37379
G1 X98.482 Y78.337 E2.39453
G1 X98.196 Y77.929 E2.41526
G1 X97.986 Y77.477 E2.43600
G1 X97.857 Y76.996 E2.45673
G1 X97.813 Y76.500 E2.47747
G1 X97.857 Y76.004 E2.49820
G1 X97.986 Y75.523 E2.51894
G1 X98.196 Y75.071 E2.53967
G1 X98.482 Y74.663 E2.56041
G1 X98.834 Y74.311 E2.58114
G1 X99.242 Y74.025 E2.60188
G1 X99.694 Y73.815 E2.62262
G1 X100.175 Y73.686 E2.64335
G1 X100.671 Y73.642 E2.66409
G1 X101.167 Y73.686 E2.68482
G1 X101.277 Y73.715 E2.68957
G1 X101.648 Y73.815 E2.70556
G1 X102.100 Y74.025 E2.72629
G1 X102.508 Y74.311 E2.74703
G1 X102.860 Y74.663 E2.76777
G1 X103.146 Y75.071 E2.78850
G1 X103.356 Y75.523 E2.80924
G1 X103.485 Y76.004 E2.82997
G1 X103.529 Y76.500 E2.85071
G1 X103.485 Y76.996 E2.87144
G1 X103.356 Y77.477 E2.89218
G1 X103.146 Y77.929 E2.91291
G1 X102.860 Y78.337 E2.93365
G1 X102.508 Y78.689 E2.95439
G1 X102.100 Y78.975 E2.97512
G1 X101.648 Y79.185 E2.99586
G1 X101.167 Y79.314 E3.01659
G1 X100.781 Y79.348 E3.03273
G1 X100.671 Y78.619 F9900.000
G1 X100.303 Y78.587 F540.000 E3.04811
G1 X99.946 Y78.491 E3.06349
G1 X99.611 Y78.335 E3.07887
G1 X99.309 Y78.123 E3.09424
G1 X99.047 Y77.862 E3.10962
G1 X98.836 Y77.560 E3.12500
G1 X98.679 Y77.225 E3.14038
G1 X98.584 Y76.868 E3.15575
G1 X98.552 Y76.500 E3.17113
G1 X98.584 Y76.132 E3.18651
G1 X98.679 Y75.775 E3.20188
G1 X98.836 Y75.440 E3.21726
G1 X99.047 Y75.138 E3.23264
G1 X99.309 Y74.877 E3.24802
G1 X99.611 Y74.665 E3.26339
G1 X99.946 Y74.509 E3.27877
G1 X100.303 Y74.413 E3.29415
G1 X100.671 Y74.381 E3.30953
G1 X101.087 Y74.426 E3.32694
G1 X101.396 Y74.509 E3.34025
G1 X101.730 Y74.665 E3.35563
G1 X102.033 Y74.877 E3.37101
G1 X102.294 Y75.138 E3.38639
G1 X102.506 Y75.440 E3.40176
G1 X102.662 Y75.775 E3.41714
G1 X102.758 Y76.132 E3.43252
G1 X102.790 Y76.500 E3.44790
G1 X102.758 Y76.868 E3.46327
G1 X102.662 Y77.225 E3.47865
G1 X102.506 Y77.560 E3.49403
G1 X102.294 Y77.862 E3.50940
G1 X102.033 Y78.123 E3.52478
G1 X101.730 Y78.335 E3.54016
G1 X101.396 Y78.491 E3.55554
G1 X101.039 Y78.587 E3.57091
G1 X100.781 Y78.610 E3.58170
G1 X100.477 Y78.934 F9900.000
G1 X120.643 Y83.938
G1 X120.772 Y83.457 F540.000 E3.60243
G1 X120.820 Y83.354 E3.60718
G1 X120.983 Y83.006 E3.62317
G1 X121.268 Y82.597 E3.64390
G1 X121.621 Y82.245 E3.66464
G1 X122.029 Y81.959 E3.68538
G1 X122.480 Y81.749 E3.70611
G1 X122.961 Y81.620 E3.72684
G1 X123.457 Y81.577 E3.74758
G1 X123.954 Y81.620 E3.76832
G1 X124.435 Y81.749 E3.78905
G1 X124.886 Y81.959 E3.80979
G1 X124.980 Y82.025 E3.81453
G1 X125.294 Y82.245 E3.83052
G1 X125.647 Y82.597 E3.85126
G1 X125.932 Y83.005 E3.87199
G1 X126.143 Y83.457 E3.89273
G1 X126.272 Y83.938 E3.91346
G1 X126.315 Y84.434 E3.93420
G1 X126.272 Y84.931 E3.95494
G1 X126.143 Y85.412 E3.97567
G1 X125.932 Y85.863 E3.99641
G1 X125.647 Y86.271 E4.01714
G1 X125.294 Y86.623 E4.03788
G1 X125.201 Y86.689 E4.04262
G1 X124.886 Y86.909 E4.05861
G1 X124.435 Y87.120 E4.07935
G1 X123.954 Y87.249 E4.10008
G1 X123.457 Y87.292 E4.12082
G1 X122.961 Y87.249 E4.14155
G1 X122.480 Y87.120 E4.16229
G1 X122.029 Y86.909 E4.18303
G1 X121.621 Y86.623 E4.20376
G1 X121.268 Y86.271 E4.22450
G1 X120.983 Y85.863 E4.24523
G1 X120.772 Y85.412 E4.26597
G1 X120.643 Y84.930 E4.28671
G1 X120.600 Y84.434 E4.30744
G1 X120.634 Y84.048 E4.32358
G1 X121.370 Y84.066 F9900.000
G1 X121.487 Y83.665 F540.000 E4.34100
G1 X121.622 Y83.375 E4.35431
G1 X121.834 Y83.072 E4.36969
G1 X122.095 Y82.811 E4.38506
G1 X122.398 Y82.599 E4.40044
G1 X122.733 Y82.443 E4.41582
G1 X123.090 Y82.347 E4.43120
G1 X123.458 Y82.315 E4.44657
G1 X123.826 Y82.347 E4.46195
G1 X124.182 Y82.443 E4.47733
G1 X124.558 Y82.627 E4.49474
G1 X124.820 Y82.811 E4.50806
G1 X125.081 Y83.072 E4.52343
G1 X125.293 Y83.375 E4.53881
G1 X125.449 Y83.710 E4.55419
G1 X125.545 Y84.066 E4.56957
G1 X125.577 Y84.434 E4.58494
G1 X125.545 Y84.802 E4.60032
G1 X125.449 Y85.159 E4.61570
G1 X125.293 Y85.494 E4.63107
G1 X125.081 Y85.797 E4.64645
G1 X124.779 Y86.086 E4.66387
G1 X124.517 Y86.270 E4.67718
G1 X124.182 Y86.426 E4.69256
G1 X123.826 Y86.521 E4.70793
G1 X123.458 Y86.554 E4.72331
G1 X123.090 Y86.521 E4.73869
G1 X122.733 Y86.426 E4.75407
G1 X122.398 Y86.270 E4.76944
G1 X122.095 Y86.058 E4.78482
G1 X121.834 Y85.797 E4.80020
G1 X121.622 Y85.494 E4.81557
G1 X121.466 Y85.159 E4.83095
G1 X121.370 Y84.802 E4.84633
G1 X121.338 Y84.434 E4.86171
G1 X121.361 Y84.176 E4.87249
G1 X121.062 Y83.784 F9900.000
G1 X121.175 Y84.433
G1 X121.718 Y85.924
G1 X131.383 Y99.684
G1 X131.694 Y98.700
G1 X132.145 Y98.489 F540.000 E4.89322
G1 X132.626 Y98.360 E4.91396
G1 X133.122 Y98.317 E4.93469
G1 X133.619 Y98.360 E4.95543
G1 X134.100 Y98.489 E4.97617
G1 X134.551 Y98.700 E4.99690
G1 X134.959 Y98.986 E5.01764
G1 X135.312 Y99.338 E5.03837
G1 X135.597 Y99.746 E5.05911
G1 X135.808 Y100.197 E5.07984
G1 X135.937 Y100.678 E5.10058
G1 X135.947 Y100.792 E5.10532
G1 X135.980 Y101.175 E5.12131
G1 X135.937 Y101.671 E5.14205
G1 X135.808 Y102.152 E5.16278
G1 X135.597 Y102.604 E5.18353
G1 X135.312 Y103.012 E5.20426
G1 X134.959 Y103.364 E5.22499
G1 X134.551 Y103.650 E5.24573
G1 X134.100 Y103.860 E5.26646
G1 X133.619 Y103.989 E5.28720
G1 X133.123 Y104.032 E5.30793
G1 X132.626 Y103.989 E5.32866
G1 X132.145 Y103.860 E5.34940
G1 X131.694 Y103.649 E5.37014
G1 X131.286 Y103.364 E5.39088
G1 X130.933 Y103.012 E5.41161
G1 X130.648 Y102.603 E5.43235
G1 X130.437 Y102.152 E5.45308
G1 X130.308 Y101.671 E5.47382
G1 X130.265 Y101.175 E5.49455
G1 X130.308 Y100.678 E5.51529
G1 X130.437 Y100.197 E5.53602
G1 X130.648 Y99.746 E5.55676
G1 X130.934 Y99.338 E5.57750
G1 X131.286 Y98.986 E5.59823
G1 X131.603 Y98.763 E5.61438
G1 X132.063 Y99.339 F9900.000
G1 X132.398 Y99.183 F540.000 E5.62975
G1 X132.755 Y99.088 E5.64513
G1 X133.123 Y99.055 E5.66051
G1 X133.491 Y99.088 E5.67589
G1 X133.847 Y99.183 E5.69126
G1 X134.182 Y99.339 E5.70664
G1 X134.485 Y99.551 E5.72202
G1 X134.746 Y99.812 E5.73740
G1 X134.958 Y100.115 E5.75277
G1 X135.114 Y100.450 E5.76815
G1 X135.210 Y100.807 E5.78353
G1 X135.242 Y101.175 E5.79890
G1 X135.210 Y101.543 E5.81428
G1 X135.114 Y101.899 E5.82966
G1 X134.958 Y102.234 E5.84504
G1 X134.746 Y102.537 E5.86042
G1 X134.485 Y102.798 E5.87579
G1 X134.182 Y103.010 E5.89117
G1 X133.847 Y103.166 E5.90655
G1 X133.491 Y103.262 E5.92192
G1 X133.123 Y103.294 E5.93730
G1 X132.707 Y103.249 E5.95471
G1 X132.398 Y103.166 E5.96803
G1 X132.063 Y103.010 E5.98341
G1 X131.760 Y102.798 E5.99878
G1 X131.499 Y102.537 E6.01416
G1 X131.287 Y102.234 E6.02954
G1 X131.131 Y101.900 E6.04491
G1 X131.036 Y101.543 E6.06029
G1 X131.003 Y101.175 E6.07567
G1 X131.036 Y100.807 E6.09105
G1 X131.131 Y100.450 E6.10642
G1 X131.287 Y100.115 E6.12180
G1 X131.499 Y99.812 E6.13718
G1 X131.760 Y99.551 E6.15255
G1 X131.973 Y99.403 E6.16334
G1 X132.074 Y98.970 F9900.000
G1 X145.103 Y102.944
G1 X148.787 Y109.343 F900.000 E6.47070
G1 X148.819 Y109.492 E6.47705
G1 X148.803 Y109.644 E6.48340
G1 X148.694 Y109.844 E6.49287
G1 X148.539 Y109.965 E6.50106
G1 X147.629 Y110.490 E6.54479
G1 X91.180 Y110.491 E8.89463
G1 X91.180 Y65.509 E10.76711
G1 X121.427 Y65.509 E12.02620
G1 X122.080 Y65.566 E12.05351
G1 X122.667 Y65.724 E12.07881
G1 X123.218 Y65.980 E12.10411
G1 X123.716 Y66.329 E12.12941
G1 X124.146 Y66.759 E12.15471
G1 X124.522 Y67.296 E12.18202
G1 X145.048 Y102.849 E13.89093
G1 X145.740 Y102.576 F9900.000
G1 X149.387 Y108.892 F630.000 E14.19451
G1 X149.476 Y109.079 E14.20312
G1 X149.530 Y109.263 E14.21112
G1 X149.556 Y109.454 E14.21913
G1 X149.550 Y109.646 E14.22713
G1 X149.515 Y109.835 E14.23514
G1 X149.451 Y110.016 E14.24314
G1 X149.384 Y110.140 E14.24902
G1 X149.242 Y110.338 E14.25913
G1 X149.103 Y110.470 E14.26713
G1 X148.932 Y110.587 E14.27575
G1 X147.826 Y111.226 E14.32893
G1 X90.687 Y111.226 E16.70748
G1 X90.558 Y111.195 E16.71299
G1 X90.476 Y111.113 E16.71784
G1 X90.444 Y110.984 E16.72335
G1 X90.444 Y65.016 E18.63688
G1 X90.476 Y64.887 E18.64239
G1 X90.558 Y64.805 E18.64724
G1 X90.687 Y64.774 E18.65276
G1 X121.459 Y64.774 E19.93371
G1 X122.208 Y64.839 E19.96504
G1 X122.920 Y65.030 E19.99569
G1 X123.587 Y65.341 E20.02635
G1 X124.191 Y65.763 E20.05701
G1 X124.711 Y66.284 E20.08767
G1 X125.143 Y66.901 E20.11900
G1 X145.685 Y102.481 E21.82924
G1 X145.373 Y103.214 F9900.000
G1 X136.032 Y99.437
G1 X146.552 Y109.957 F990.000 E22.45709
G1 X145.498 Y109.957 E22.50159
G1 X136.496 Y100.956 E23.03878
G1 X136.419 Y101.933 E23.08013
G1 X144.443 Y109.957 E23.55902
G1 X143.388 Y109.957 E23.60352
G1 X136.138 Y102.706 E24.03623
G1 X135.726 Y103.349 E24.06845
G1 X142.334 Y109.957 E24.46280
G1 X141.279 Y109.957 E24.50730
G1 X135.181 Y103.859 E24.87122
G1 X134.520 Y104.252 E24.90369
G1 X140.225 Y109.957 E25.24414
G1 X139.170 Y109.957 E25.28864
G1 X133.725 Y104.512 E25.61359
G1 X132.688 Y104.530 E25.65737
G1 X138.116 Y109.957 E25.98130
G1 X137.061 Y109.957 E26.02580
G1 X104.027 Y76.923 E27.99724
G1 X103.812 Y77.762 E28.03381
G1 X136.007 Y109.957 E29.95515
G1 X134.952 Y109.957 E29.99965
G1 X103.437 Y78.442 E31.88042
G1 X102.945 Y79.005 E31.91196
G1 X133.897 Y109.958 E33.75913
G1 X132.843 Y109.958 E33.80364
G1 X102.338 Y79.452 E35.62415
G1 X101.585 Y79.754 E35.65837
G1 X131.788 Y109.958 E37.46085
G1 X130.734 Y109.958 E37.50536
G1 X100.669 Y79.893 E39.29958
G1 X99.322 Y79.600 E39.35775
G1 X129.679 Y109.958 E41.16943
G1 X128.625 Y109.958 E41.21393
G1 X91.713 Y73.046 E43.41675
G1 X91.713 Y74.101 E43.46125
G1 X127.570 Y109.958 E45.60113
G1 X126.516 Y109.958 E45.64563
G1 X91.713 Y75.156 E47.72258
G1 X91.713 Y76.210 E47.76708
G1 X125.461 Y109.958 E49.78109
G1 X124.406 Y109.958 E49.82560
G1 X91.713 Y77.265 E51.77667
G1 X91.713 Y78.319 E51.82118
G1 X123.352 Y109.958 E53.70932
G1 X122.297 Y109.958 E53.75382
G1 X91.713 Y79.374 E55.57903
G1 X91.713 Y80.429 E55.62353
G1 X121.243 Y109.958 E57.38580
G1 X120.188 Y109.958 E57.43031
G1 X91.713 Y81.483 E59.12964
G1 X91.713 Y82.538 E59.17415
G1 X119.134 Y109.958 E60.81055
G1 X118.079 Y109.958 E60.85505
G1 X91.713 Y83.592 E62.42852
G1 X91.713 Y84.647 E62.47303
G1 X117.024 Y109.958 E63.98356
G1 X115.970 Y109.958 E64.02806
G1 X91.713 Y85.702 E65.47566
G1 X91.713 Y86.756 E65.52017
G1 X101.102 Y96.145 E66.08046
G1 X100.065 Y96.163 F9900.000
G1 X91.713 Y87.811 F990.000 E66.57891
G1 X91.713 Y88.865 E66.62342
G1 X99.271 Y96.423 E67.07446
G1 X98.610 Y96.817 E67.10693
G1 X91.713 Y89.920 E67.51852
G1 X91.713 Y90.975 E67.56302
G1 X98.066 Y97.327 E67.94214
G1 X97.655 Y97.971 E67.97436
G1 X91.713 Y92.029 E68.32894
G1 X91.713 Y93.084 E68.37344
G1 X97.374 Y98.745 E68.71127
G1 X97.297 Y99.723 E68.75267
G1 X91.713 Y94.138 E69.08593
