; generated by Slic3r 0.9.9-dev on 2013-10-26 at 17:55:29

; layer_height = 0.3
; perimeters = 2
; top_solid_layers = 4
; bottom_solid_layers = 4
; fill_density = 0.25
; perimeter_speed = 50
; infill_speed = 50
; travel_speed = 165
; nozzle_diameter = 0.5
; filament_diameter = 3.2
; extrusion_multiplier = 1
; perimeters extrusion width = 0.70mm
; infill extrusion width = 0.70mm
; solid infill extrusion width = 0.70mm
; top infill extrusion width = 0.70mm
; support material extrusion width = 0.70mm
; first layer extrusion width = 0.80mm

G21 ; set units to millimeters
M107
M190 S60 ; wait for bed temperature to be reached
M104 S195 ; set temperature
;G28 ; home all axes
;G1 Z5 F5000 ; lift nozzle
M109 S195 ; wait for temperature to be reached
G90 ; use absolute coordinates
G92 E0
M82 ; use absolute distances for extrusion
G1 F1800.000 E-1.00000
G1 Z0.700
G92 E0
G1 X96.785 Y60.603 F9900.000
G1 Z0.400
G1 F1800.000 E1.00000
G1 X97.115 Y60.123 F900.000 E1.02131
G1 X97.425 Y59.723 E1.03983
G1 X97.865 Y59.233 E1.06392
G1 X98.105 Y59.003 E1.07608
G1 X98.855 Y58.403 E1.11122
G1 X99.145 Y58.203 E1.12411
G1 X99.755 Y57.833 E1.15021
G1 X100.545 Y57.483 E1.18183
G1 X101.145 Y57.273 E1.20509
G1 X101.605 Y57.143 E1.22257
G1 X101.895 Y57.073 E1.23349
G1 X102.495 Y56.983 E1.25569
G1 X103.375 Y56.933 E1.28794
G1 X136.365 Y56.933 E2.49493
G1 X136.875 Y56.953 E2.51360
G1 X137.625 Y57.053 E2.54129
G1 X138.395 Y57.223 E2.57014
G1 X138.935 Y57.403 E2.59096
G1 X140.075 Y57.913 E2.63666
G1 X140.655 Y58.273 E2.66163
G1 X141.355 Y58.813 E2.69398
G1 X141.605 Y59.033 E2.70616
G1 X142.075 Y59.513 E2.73074
G1 X142.475 Y60.013 E2.75417
G1 X142.675 Y60.273 E2.76617
G1 X143.025 Y60.813 E2.78971
G1 X143.325 Y61.393 E2.81360
G1 X143.645 Y62.193 E2.84513
G1 X143.825 Y62.813 E2.86875
G1 X143.945 Y63.443 E2.89221
G1 X143.985 Y63.723 E2.90256
G1 X144.055 Y64.593 E2.93449
G1 X144.355 Y91.253 E3.90996
G1 X144.355 Y111.373 E4.64608
G1 X144.275 Y112.373 E4.68278
G1 X144.055 Y113.433 E4.72239
G1 X143.915 Y113.893 E4.73998
G1 X143.695 Y114.463 E4.76234
G1 X143.325 Y115.163 E4.79131
G1 X142.725 Y116.063 E4.83088
G1 X142.525 Y116.313 E4.84259
G1 X142.095 Y116.783 E4.86590
G1 X141.865 Y117.003 E4.87755
G1 X141.375 Y117.413 E4.90092
G1 X140.915 Y117.753 E4.92185
G1 X140.435 Y118.053 E4.94256
G1 X139.545 Y118.493 E4.97888
G1 X139.285 Y118.593 E4.98907
G1 X138.755 Y118.763 E5.00944
G1 X138.315 Y118.873 E5.02603
G1 X137.615 Y118.993 E5.05202
G1 X136.795 Y119.063 E5.08213
G1 X123.995 Y119.413 E5.55061
G1 X116.295 Y119.413 E5.83233
G1 X103.495 Y119.063 E6.30081
G1 X102.515 Y118.973 E6.33682
G1 X101.565 Y118.763 E6.37242
G1 X101.165 Y118.643 E6.38770
G1 X100.495 Y118.383 E6.41399
G1 X99.825 Y118.043 E6.44148
G1 X99.255 Y117.683 E6.46614
G1 X98.575 Y117.133 E6.49814
G1 X97.795 Y116.333 E6.53902
G1 X97.415 Y115.873 E6.56085
G1 X96.925 Y115.123 E6.59363
G1 X96.655 Y114.593 E6.61539
G1 X96.275 Y113.563 E6.65556
G1 X96.075 Y112.803 E6.68431
G1 X96.025 Y112.493 E6.69580
G1 X95.985 Y112.193 E6.70687
G1 X95.935 Y111.403 E6.73583
G1 X95.635 Y84.753 E7.71093
G1 X95.635 Y64.623 E8.44742
G1 X95.715 Y63.623 E8.48412
G1 X95.935 Y62.563 E8.52373
G1 X96.055 Y62.163 E8.53901
G1 X96.315 Y61.493 E8.56531
G1 X96.730 Y60.699 E8.59810
G1 F1800.000 E7.59810
G1 Z0.700
G92 E0
G1 X123.700 Y63.946 F9900.000
G1 Z0.400
G1 F1800.000 E1.00000
G1 X115.999 Y63.946 F1080.000 E1.28177
G1 X115.999 Y65.418 E1.33559
G1 X123.700 Y65.418 E1.61736
G1 X123.700 Y66.889 E1.67119
G1 X115.999 Y66.889 E1.95295
G1 X115.999 Y68.360 E2.00678
G1 X123.700 Y68.360 E2.28855
G1 X123.700 Y69.831 E2.34238
G1 X115.999 Y69.831 E2.62414
G1 X115.999 Y71.303 E2.67797
G1 X123.700 Y71.303 E2.95974
G1 X123.700 Y72.774 E3.01356
G1 X115.999 Y72.774 E3.29533
G1 X115.999 Y74.245 E3.34916
G1 X123.700 Y74.245 E3.63092
G1 X123.700 Y75.716 E3.68475
G1 X115.999 Y75.716 E3.96652
G1 X115.999 Y77.188 E4.02035
G1 X123.700 Y77.188 E4.30211
G1 X123.700 Y78.659 E4.35594
G1 X115.999 Y78.659 E4.63771
G1 X115.999 Y80.130 E4.69153
G1 X123.700 Y80.130 E4.97330
G1 X123.700 Y81.601 E5.02713
G1 X115.999 Y81.601 E5.30889
G1 X115.999 Y83.073 E5.36272
G1 X123.700 Y83.073 E5.64449
G1 X123.700 Y84.544 E5.69832
G1 X115.999 Y84.544 E5.98008
G1 X115.999 Y86.015 E6.03391
G1 X123.700 Y86.015 E6.31568
G1 F1800.000 E5.31568
G1 Z0.700
G92 E0
G1 X125.245 Y85.167 F9900.000
G1 X114.454 Y85.167
G1 X110.375 Y76.157
G1 X110.825 Y76.504
G1 Z0.400
G1 F1800.000 E1.00000
G1 X110.473 Y76.856 F540.000 E1.01822
G1 X110.065 Y77.141 E1.03645
G1 X109.613 Y77.352 E1.05467
G1 X109.132 Y77.481 E1.07290
G1 X108.636 Y77.524 E1.09112
G1 X108.139 Y77.481 E1.10935
G1 X107.658 Y77.352 E1.12757
G1 X107.207 Y77.141 E1.14580
G1 X106.799 Y76.856 E1.16402
G1 X106.447 Y76.504 E1.18225
G1 X106.161 Y76.095 E1.20047
G1 X105.950 Y75.644 E1.21869
G1 X105.821 Y75.163 E1.23692
G1 X105.778 Y74.667 E1.25514
G1 X105.822 Y74.170 E1.27337
G1 X105.950 Y73.689 E1.29159
G1 X106.161 Y73.238 E1.30982
G1 X106.447 Y72.830 E1.32804
G1 X106.799 Y72.478 E1.34626
G1 X107.207 Y72.192 E1.36449
G1 X107.658 Y71.981 E1.38271
G1 X108.140 Y71.852 E1.40094
G1 X108.636 Y71.809 E1.41916
G1 X109.132 Y71.852 E1.43739
G1 X109.613 Y71.981 E1.45561
G1 X110.065 Y72.192 E1.47384
G1 X110.473 Y72.478 E1.49206
G1 X110.825 Y72.830 E1.51029
G1 X111.111 Y73.238 E1.52851
G1 X111.321 Y73.689 E1.54674
G1 X111.450 Y74.170 E1.56496
G1 X111.493 Y74.667 E1.58319
G1 X111.450 Y75.163 E1.60141
G1 X111.321 Y75.644 E1.61963
G1 X111.110 Y76.096 E1.63787
G1 X110.888 Y76.413 E1.65205
G1 X110.259 Y76.029 F9900.000
G1 X109.998 Y76.290 F540.000 E1.66556
G1 X109.695 Y76.502 E1.67908
G1 X109.361 Y76.658 E1.69259
G1 X109.004 Y76.754 E1.70611
G1 X108.636 Y76.786 E1.71962
G1 X108.268 Y76.754 E1.73314
G1 X107.911 Y76.658 E1.74665
G1 X107.576 Y76.502 E1.76017
G1 X107.274 Y76.290 E1.77369
G1 X107.012 Y76.029 E1.78720
G1 X106.800 Y75.726 E1.80072
G1 X106.644 Y75.391 E1.81423
G1 X106.549 Y75.035 E1.82775
G1 X106.517 Y74.667 E1.84126
G1 X106.549 Y74.299 E1.85478
G1 X106.644 Y73.942 E1.86829
G1 X106.800 Y73.607 E1.88181
G1 X107.012 Y73.304 E1.89532
G1 X107.274 Y73.043 E1.90884
G1 X107.576 Y72.831 E1.92235
G1 X107.911 Y72.675 E1.93587
G1 X108.268 Y72.580 E1.94938
G1 X108.636 Y72.547 E1.96290
G1 X109.004 Y72.580 E1.97642
G1 X109.361 Y72.675 E1.98993
G1 X109.695 Y72.831 E2.00344
G1 X109.998 Y73.043 E2.01696
G1 X110.259 Y73.304 E2.03048
G1 X110.471 Y73.607 E2.04399
G1 X110.627 Y73.942 E2.05751
G1 X110.723 Y74.299 E2.07102
G1 X110.755 Y74.667 E2.08454
G1 X110.723 Y75.035 E2.09805
G1 X110.627 Y75.391 E2.11157
G1 X110.471 Y75.726 E2.12508
G1 X110.322 Y75.938 E2.13456
G1 X110.375 Y76.380 F9900.000
G1 X113.850 Y84.563
G1 X103.482 Y84.563 F900.000 E2.51389
G1 X103.482 Y64.770 E3.23805
G1 X113.850 Y64.770 E3.61738
G1 X113.850 Y84.453 E4.33751
G1 X114.586 Y85.299 F9900.000
G1 X103.386 Y85.299 F630.000 E4.74727
G1 X103.219 Y85.277 E4.75343
G1 X103.043 Y85.201 E4.76044
G1 X102.884 Y85.058 E4.76827
G1 X102.825 Y84.969 E4.77221
G1 X102.777 Y84.854 E4.77674
G1 X102.747 Y84.652 E4.78422
G1 X102.747 Y64.672 E5.51520
G1 X102.768 Y64.509 E5.52124
G1 X102.844 Y64.331 E5.52833
G1 X102.987 Y64.172 E5.53614
G1 X103.075 Y64.114 E5.54002
G1 X103.195 Y64.064 E5.54475
G1 X103.395 Y64.034 E5.55215
G1 X114.586 Y64.034 E5.96159
G1 X114.586 Y85.189 E6.73555
G1 X113.949 Y84.931 F9900.000
G1 X113.317 Y83.629
G1 X107.567 Y77.880 F900.000 E7.04382
G1 X108.810 Y78.044 E7.09135
G1 X113.317 Y82.551 E7.33299
G1 X113.317 Y81.473 E7.37386
G1 X109.719 Y77.876 E7.56676
G1 X110.447 Y77.525 E7.59737
G1 X113.317 Y80.395 E7.75127
G1 X113.317 Y79.317 E7.79214
G1 X111.041 Y77.041 E7.91417
G1 X111.519 Y76.442 E7.94325
G1 X113.317 Y78.239 E8.03964
G1 X113.317 Y77.161 E8.08051
G1 X111.858 Y75.702 E8.15876
G1 X112.018 Y74.785 E8.19406
G1 X113.317 Y76.083 E8.26370
G1 X113.317 Y75.005 E8.30456
G1 X111.826 Y73.515 E8.38449
G1 X113.317 Y73.927 F9900.000
G1 X104.693 Y65.303 F900.000 E8.84687
G1 X105.771 Y65.303 E8.88774
G1 X113.317 Y72.849 E9.29233
G1 X113.317 Y71.771 E9.33320
G1 X106.849 Y65.303 E9.67998
G1 X107.927 Y65.303 E9.72085
G1 X113.317 Y70.693 E10.00984
G1 X113.317 Y69.615 E10.05071
G1 X109.005 Y65.303 E10.28191
G1 X110.083 Y65.303 E10.32278
G1 X113.317 Y68.537 E10.49618
G1 X113.317 Y67.459 E10.53704
G1 X111.161 Y65.303 E10.65265
G1 X112.239 Y65.303 E10.69352
G1 X113.317 Y66.381 E10.75132
G1 X113.317 Y65.303 E10.79220
G1 X109.788 Y71.476 F9900.000
G1 X104.016 Y65.704 F900.000 E11.10167
G1 X104.016 Y66.782 E11.14254
G1 X108.518 Y71.284 E11.38392
G1 X107.600 Y71.445 E11.41923
G1 X104.016 Y67.860 E11.61143
G1 X104.016 Y68.938 E11.65230
G1 X106.861 Y71.783 E11.80485
G1 X106.261 Y72.261 E11.83393
G1 X104.016 Y70.016 E11.95432
G1 X104.016 Y71.094 E11.99519
G1 X105.777 Y72.856 E12.08965
G1 X105.427 Y73.583 E12.12026
G1 X104.016 Y72.172 E12.19592
G1 X104.016 Y73.250 E12.23679
G1 X105.258 Y74.492 E12.30341
G1 X105.423 Y75.735 E12.35094
G1 X104.016 Y74.328 E12.42638
G1 X104.016 Y75.406 E12.46725
G1 X112.640 Y84.030 E12.92963
G1 X111.562 Y84.030 E12.97050
G1 X104.016 Y76.484 E13.37509
G1 X104.016 Y77.562 E13.41596
G1 X110.484 Y84.030 E13.76275
G1 X109.406 Y84.030 E13.80361
G1 X104.016 Y78.640 E14.09261
G1 X104.016 Y79.718 E14.13348
G1 X108.328 Y84.030 E14.36467
G1 X107.250 Y84.030 E14.40554
G1 X104.016 Y80.796 E14.57894
G1 X104.016 Y81.874 E14.61981
G1 X106.172 Y84.030 E14.73541
G1 X105.094 Y84.030 E14.77628
G1 X104.016 Y82.952 E14.83409
G1 X104.016 Y84.030 E14.87496
G1 F1800.000 E13.87496
G1 Z0.700
G92 E0
G1 X103.587 Y85.167 F9900.000
G1 X114.454 Y85.167
G1 X125.245 Y85.167
G1 X128.781 Y74.667
G1 X128.378 Y75.644
G1 Z0.400
G1 F1800.000 E1.00000
G1 X128.249 Y75.163 F540.000 E1.01822
G1 X128.205 Y74.667 E1.03645
G1 X128.249 Y74.170 E1.05467
G1 X128.378 Y73.689 E1.07290
G1 X128.588 Y73.238 E1.09112
G1 X128.874 Y72.830 E1.10935
G1 X129.226 Y72.478 E1.12757
G1 X129.634 Y72.192 E1.14579
G1 X130.086 Y71.981 E1.16402
G1 X130.567 Y71.852 E1.18225
G1 X131.063 Y71.809 E1.20047
G1 X131.559 Y71.852 E1.21870
G1 X132.040 Y71.981 E1.23692
G1 X132.492 Y72.192 E1.25514
G1 X132.900 Y72.478 E1.27337
G1 X133.252 Y72.830 E1.29160
G1 X133.538 Y73.238 E1.30982
G1 X133.748 Y73.689 E1.32804
G1 X133.877 Y74.170 E1.34627
G1 X133.921 Y74.667 E1.36449
G1 X133.877 Y75.163 E1.38272
G1 X133.748 Y75.644 E1.40094
G1 X133.702 Y75.744 E1.40496
G1 X133.538 Y76.095 E1.41916
G1 X133.252 Y76.504 E1.43739
G1 X132.900 Y76.856 E1.45561
G1 X132.492 Y77.141 E1.47384
G1 X132.040 Y77.352 E1.49206
G1 X131.559 Y77.481 E1.51029
G1 X131.063 Y77.524 E1.52851
G1 X130.567 Y77.481 E1.54674
G1 X130.086 Y77.352 E1.56496
G1 X129.634 Y77.141 E1.58319
G1 X129.226 Y76.856 E1.60141
G1 X128.874 Y76.504 E1.61963
G1 X128.588 Y76.096 E1.63786
G1 X128.424 Y75.744 E1.65205
G1 X129.072 Y75.391 F9900.000
G1 X128.976 Y75.035 F540.000 E1.66556
G1 X128.944 Y74.667 E1.67908
G1 X128.976 Y74.299 E1.69259
G1 X129.072 Y73.942 E1.70611
G1 X129.228 Y73.607 E1.71962
G1 X129.440 Y73.304 E1.73314
G1 X129.701 Y73.043 E1.74665
G1 X130.003 Y72.831 E1.76017
G1 X130.338 Y72.675 E1.77368
G1 X130.695 Y72.580 E1.78720
G1 X131.063 Y72.547 E1.80071
G1 X131.431 Y72.580 E1.81423
G1 X131.788 Y72.675 E1.82775
G1 X132.123 Y72.831 E1.84126
G1 X132.425 Y73.043 E1.85478
G1 X132.687 Y73.304 E1.86829
G1 X132.898 Y73.607 E1.88181
G1 X133.054 Y73.942 E1.89532
G1 X133.150 Y74.299 E1.90884
G1 X133.182 Y74.667 E1.92235
G1 X133.150 Y75.035 E1.93587
G1 X133.035 Y75.433 E1.95103
G1 X132.898 Y75.726 E1.96287
G1 X132.686 Y76.029 E1.97639
G1 X132.425 Y76.290 E1.98990
G1 X132.123 Y76.502 E2.00342
G1 X131.788 Y76.658 E2.01694
G1 X131.431 Y76.754 E2.03045
G1 X131.063 Y76.786 E2.04397
G1 X130.695 Y76.754 E2.05748
G1 X130.338 Y76.658 E2.07100
G1 X130.003 Y76.502 E2.08451
G1 X129.701 Y76.290 E2.09803
G1 X129.440 Y76.029 E2.11154
G1 X129.228 Y75.726 E2.12506
G1 X129.118 Y75.491 E2.13454
G1 X128.710 Y75.317 F9900.000
G1 X125.849 Y84.563
G1 X125.849 Y64.770 F900.000 E2.85870
G1 X136.216 Y64.770 E3.23803
G1 X136.216 Y84.563 E3.96219
G1 X125.959 Y84.563 E4.33748
G1 X125.113 Y85.299 F9900.000
G1 X125.113 Y64.034 F630.000 E5.11548
G1 X136.313 Y64.034 E5.52524
G1 X136.480 Y64.056 E5.53140
G1 X136.656 Y64.132 E5.53841
G1 X136.815 Y64.275 E5.54624
G1 X136.874 Y64.365 E5.55018
G1 X136.922 Y64.479 E5.55471
G1 X136.952 Y64.681 E5.56219
G1 X136.952 Y84.661 E6.29317
G1 X136.931 Y84.825 E6.29921
G1 X136.855 Y85.003 E6.30630
G1 X136.712 Y85.162 E6.31412
G1 X136.623 Y85.220 E6.31800
G1 X136.504 Y85.269 E6.32272
G1 X136.304 Y85.299 E6.33012
G1 X125.223 Y85.299 E6.73553
G1 X125.481 Y84.662 F9900.000
G1 X126.382 Y84.030
G1 X126.382 Y82.952 F900.000 E6.77640
G1 X127.460 Y84.030 E6.83421
G1 X128.538 Y84.030 E6.87508
G1 X126.382 Y81.874 E6.99068
G1 X126.382 Y80.796 E7.03155
G1 X129.616 Y84.030 E7.20495
G1 X130.694 Y84.030 E7.24582
G1 X126.382 Y79.718 E7.47701
G1 X126.382 Y78.640 E7.51788
G1 X131.772 Y84.030 E7.80688
G1 X132.850 Y84.030 E7.84774
G1 X126.382 Y77.562 E8.19453
G1 X126.382 Y76.484 E8.23540
G1 X133.928 Y84.030 E8.63999
G1 X135.006 Y84.030 E8.68086
G1 X126.382 Y75.406 E9.14324
G1 X126.382 Y74.328 E9.18411
G1 X127.873 Y75.819 E9.26403
G1 X127.681 Y74.549 E9.31273
G1 X126.382 Y73.250 E9.38236
G1 X126.382 Y72.172 E9.42323
G1 X127.841 Y73.631 E9.50148
G1 X128.180 Y72.892 E9.53231
G1 X126.382 Y71.094 E9.62871
G1 X126.382 Y70.016 E9.66958
G1 X128.658 Y72.292 E9.79160
G1 X129.252 Y71.808 E9.82066
G1 X126.382 Y68.938 E9.97456
G1 X126.382 Y67.860 E10.01542
G1 X129.980 Y71.458 E10.20832
G1 X130.889 Y71.289 E10.24338
G1 X126.382 Y66.782 E10.48503
G1 X126.382 Y65.704 E10.52589
G1 X132.132 Y71.454 E10.83417
G1 X134.276 Y73.598 F9900.000
G1 X135.683 Y75.005 F900.000 E10.90962
G1 X135.683 Y76.083 E10.95048
G1 X134.441 Y74.841 E11.01710
G1 X134.272 Y75.750 E11.05216
G1 X135.683 Y77.161 E11.12782
G1 X135.683 Y78.239 E11.16869
G1 X133.921 Y76.477 E11.26316
G1 X133.438 Y77.072 E11.29221
G1 X135.683 Y79.317 E11.41260
G1 X135.683 Y80.395 E11.45346
G1 X132.838 Y77.550 E11.60601
G1 X132.098 Y77.888 E11.63685
G1 X135.683 Y81.473 E11.82905
G1 X135.683 Y82.551 E11.86992
G1 X131.181 Y78.049 E12.11130
G1 X129.911 Y77.857 E12.16000
G1 X135.683 Y83.629 E12.46947
G1 X135.683 Y73.927 F9900.000
G1 X127.059 Y65.303 F900.000 E12.93185
G1 X128.137 Y65.303 E12.97272
G1 X135.683 Y72.849 E13.37731
G1 X135.683 Y71.771 E13.41817
G1 X129.215 Y65.303 E13.76496
G1 X130.293 Y65.303 E13.80583
G1 X135.683 Y70.693 E14.09482
G1 X135.683 Y69.615 E14.13569
G1 X131.371 Y65.303 E14.36689
G1 X132.449 Y65.303 E14.40776
G1 X135.683 Y68.537 E14.58115
G1 X135.683 Y67.459 E14.62202
G1 X133.527 Y65.303 E14.73763
G1 X134.605 Y65.303 E14.77849
G1 X135.683 Y66.381 E14.83630
G1 X135.683 Y65.303 E14.87718
G1 F1800.000 E13.87718
G1 Z0.700
G92 E0
G1 X140.320 Y64.112 F9900.000
G1 X140.621 Y90.779
G1 X138.895 Y87.666
G1 X124.001 Y90.613
G1 Z0.400
G1 F1800.000 E1.00000
G1 X116.300 Y90.613 F1080.000 E1.28177
G1 X116.300 Y92.084 E1.33559
G1 X124.001 Y92.084 E1.61736
G1 X124.001 Y93.556 E1.67119
G1 X116.300 Y93.556 E1.95295
G1 X116.300 Y95.027 E2.00678
G1 X124.001 Y95.027 E2.28855
G1 X124.001 Y96.498 E2.34238
G1 X116.300 Y96.498 E2.62414
G1 X116.300 Y97.969 E2.67797
G1 X124.001 Y97.969 E2.95974
G1 X124.001 Y99.441 E3.01356
G1 X116.300 Y99.441 E3.29533
G1 X116.300 Y100.912 E3.34916
G1 X124.001 Y100.912 E3.63092
G1 X124.001 Y102.383 E3.68475
G1 X116.300 Y102.383 E3.96652
G1 X116.300 Y103.854 E4.02035
G1 X124.001 Y103.854 E4.30211
G1 X124.001 Y105.325 E4.35594
G1 X116.300 Y105.325 E4.63771
G1 X116.300 Y106.797 E4.69153
G1 X124.001 Y106.797 E4.97330
G1 X124.001 Y108.268 E5.02713
G1 X116.300 Y108.268 E5.30889
G1 X116.300 Y109.739 E5.36272
G1 X124.001 Y109.739 E5.64449
G1 X124.001 Y111.210 E5.69832
G1 X116.300 Y111.210 E5.98008
G1 X116.300 Y112.682 E6.03391
G1 X124.001 Y112.682 E6.31568
G1 F1800.000 E5.31568
G1 Z0.700
G92 E0
G1 X125.546 Y111.833 F9900.000
G1 X114.755 Y111.833
G1 X110.676 Y102.824
G1 X111.126 Y103.170
G1 Z0.400
G1 F1800.000 E1.00000
G1 X110.774 Y103.522 F540.000 E1.01822
G1 X110.366 Y103.808 E1.03645
G1 X109.914 Y104.019 E1.05467
G1 X109.433 Y104.148 E1.07290
G1 X108.937 Y104.191 E1.09112
G1 X108.441 Y104.148 E1.10935
G1 X107.960 Y104.019 E1.12757
G1 X107.508 Y103.808 E1.14580
