; generated by Slic3r 0.9.9-dev on 2013-09-29 at 10:27:39

; layer_height = 0.3
; perimeters = 2
; top_solid_layers = 4
; bottom_solid_layers = 4
; fill_density = 0.25
; perimeter_speed = 50
; infill_speed = 50
; travel_speed = 165
; nozzle_diameter = 0.5
; filament_diameter = 3.2
; extrusion_multiplier = 1
; perimeters extrusion width = 0.70mm
; infill extrusion width = 0.70mm
; solid infill extrusion width = 0.70mm
; top infill extrusion width = 0.70mm
; support material extrusion width = 0.70mm
; first layer extrusion width = 0.80mm

G21 ; set units to millimeters
M107
M190 S65 ; wait for bed temperature to be reached
M104 S185 ; set temperature
;G28 ; home all axes
;G1 Z5 F5000 ; lift nozzle
M109 S185 ; wait for temperature to be reached
G90 ; use absolute coordinates
G92 E0
M82 ; use absolute distances for extrusion
G1 F1800.000 E-1.00000
G1 Z0.700
G92 E0
G1 X78.730 Y66.700 F9900.000
G1 Z0.400
G1 F1800.000 E1.00000
G1 X79.080 Y66.300 F900.000 E1.01945
G1 X79.460 Y65.920 E1.03911
G1 X79.870 Y65.580 E1.05860
G1 X80.300 Y65.270 E1.07799
G1 X80.760 Y64.990 E1.09769
G1 X81.000 Y64.870 E1.10751
G1 X81.480 Y64.650 E1.12683
G1 X81.990 Y64.470 E1.14662
G1 X82.500 Y64.330 E1.16596
G1 X83.290 Y64.200 E1.19526
G1 X84.090 Y64.160 E1.22456
G1 X86.060 Y64.260 E1.29673
G1 X156.580 Y68.730 E3.88200
G1 X157.160 Y68.790 E3.90334
G1 X157.730 Y68.900 E3.92458
G1 X158.290 Y69.060 E3.94589
G1 X158.560 Y69.160 E3.95642
G1 X159.100 Y69.390 E3.97789
G1 X159.610 Y69.670 E3.99918
G1 X160.100 Y69.990 E4.02059
G1 X160.330 Y70.170 E4.03128
G1 X160.770 Y70.550 E4.05255
G1 X162.550 Y72.230 E4.14210
G1 X162.740 Y72.440 E4.15246
G1 X163.280 Y73.120 E4.18423
G1 X163.580 Y73.610 E4.20525
G1 X163.850 Y74.130 E4.22669
G1 X163.960 Y74.390 E4.23702
G1 X164.150 Y74.940 E4.25830
G1 X164.360 Y75.780 E4.28998
G1 X164.590 Y77.540 E4.35492
G1 X164.650 Y78.400 E4.38646
G1 X164.660 Y98.100 E5.10722
G1 X164.600 Y98.930 E5.13767
G1 X164.510 Y99.480 E5.15806
G1 X164.380 Y100.020 E5.17838
G1 X164.090 Y100.810 E5.20917
G1 X163.710 Y101.550 E5.23961
G1 X163.400 Y102.020 E5.26020
G1 X163.060 Y102.460 E5.28055
G1 X160.160 Y105.610 E5.43720
G1 X159.540 Y106.200 E5.46851
G1 X159.080 Y106.550 E5.48966
G1 X158.600 Y106.860 E5.51057
G1 X157.830 Y107.250 E5.54215
G1 X157.290 Y107.450 E5.56321
G1 X157.010 Y107.530 E5.57387
G1 X156.170 Y107.710 E5.60530
G1 X155.590 Y107.760 E5.62660
G1 X85.850 Y111.750 E8.18233
G1 X84.030 Y111.830 E8.24898
G1 X83.490 Y111.810 E8.26875
G1 X82.950 Y111.740 E8.28867
G1 X82.410 Y111.640 E8.30876
G1 X81.630 Y111.400 E8.33862
G1 X81.130 Y111.190 E8.35846
G1 X80.650 Y110.930 E8.37844
G1 X80.190 Y110.640 E8.39833
G1 X79.750 Y110.320 E8.41824
G1 X79.150 Y109.770 E8.44802
G1 X78.790 Y109.360 E8.46798
G1 X78.460 Y108.930 E8.48781
G1 X78.040 Y108.230 E8.51768
G1 X77.700 Y107.490 E8.54747
G1 X77.610 Y107.230 E8.55754
G1 X77.460 Y106.710 E8.57734
G1 X77.350 Y106.170 E8.59750
G1 X77.310 Y105.900 E8.60749
G1 X77.270 Y105.360 E8.62730
G1 X77.260 Y70.900 E9.88808
G1 X77.310 Y70.100 E9.91740
G1 X77.350 Y69.840 E9.92703
G1 X77.450 Y69.310 E9.94676
G1 X77.600 Y68.800 E9.96621
G1 X77.890 Y68.060 E9.99529
G1 X78.010 Y67.820 E10.00511
G1 X78.270 Y67.350 E10.02476
G1 X78.663 Y66.788 E10.04986
G1 F1800.000 E9.04986
G1 Z0.700
G92 E0
G1 X133.718 Y76.358 F9900.000
G1 Z0.400
G1 F1800.000 E1.00000
G1 X135.039 Y76.358 F1080.000 E1.04832
G1 F1800.000 E0.04832
G1 Z0.700
G92 E0
G1 X155.054 Y78.291 F9900.000
G1 X153.661 Y75.460
G1 Z0.400
G1 F1800.000 E1.00000
G1 X156.158 Y75.460 F1080.000 E1.09135
G1 X156.267 Y76.931 E1.14532
G1 X157.720 Y76.931 E1.19850
G1 X157.911 Y78.402 E1.25278
G1 X156.643 Y78.402 E1.29917
G1 X156.644 Y79.873 E1.35300
G1 F1800.000 E0.35300
G1 Z0.700
G92 E0
G1 X155.054 Y78.291 F9900.000
G1 X154.713 Y98.063
G1 X156.643 Y96.632
G1 Z0.400
G1 F1800.000 E1.00000
G1 X157.589 Y96.632 F1080.000 E1.03461
G1 X157.924 Y98.103 E1.08982
G1 X156.641 Y98.103 E1.13677
G1 X156.372 Y99.574 E1.19149
G1 X155.482 Y99.574 E1.22406
G1 X155.217 Y101.046 E1.27876
G1 F1800.000 E0.27876
G1 Z0.700
G92 E0
G1 X157.171 Y100.559 F9900.000
G1 X134.856 Y101.021
G1 Z0.400
G1 F1800.000 E1.00000
G1 X134.856 Y101.021 F1080.000 E1.00001
G1 F1800.000 E0.00001
G1 Z0.700
G92 E0
G1 X125.358 Y93.803 F9900.000
G1 X106.621 Y93.348
G1 Z0.400
G1 F1800.000 E1.00000
G1 X105.940 Y94.368 F540.000 E1.04485
G1 X103.067 Y94.368 E1.14998
G1 X97.604 Y86.170 E1.51040
G1 X97.604 Y81.632 E1.67643
G1 X105.940 Y81.632 E1.98142
G1 X106.621 Y82.649 E2.02619
G1 X106.621 Y93.238 E2.41362
G1 X107.069 Y93.932 F9900.000
G1 X107.568 Y94.022
G1 X107.086 Y93.298 F630.000 E2.44545
G1 X107.086 Y81.632 E2.87226
G1 X115.488 Y81.632 E3.17968
G1 X115.749 Y82.418 E3.20998
G1 X116.103 Y82.485 E3.22315
G1 X116.103 Y85.486 E3.33295
G1 X115.393 Y86.498 E3.37819
G1 X114.252 Y86.498 E3.41992
G1 X113.508 Y85.436 E3.46738
G1 X113.508 Y84.565 E3.49923
G1 X109.680 Y84.565 E3.63928
G1 X109.680 Y87.548 E3.74840
G1 X115.421 Y87.548 E3.95842
G1 X116.103 Y88.532 E4.00224
G1 X116.103 Y89.490 E4.03730
G1 X115.422 Y90.480 E4.08128
G1 X109.680 Y90.480 E4.29133
G1 X109.680 Y91.435 E4.32625
G1 X115.421 Y91.435 E4.53627
G1 X116.103 Y92.419 E4.58008
G1 X116.103 Y93.379 E4.61520
G1 X115.412 Y94.368 E4.65933
G1 X107.798 Y94.368 E4.93791
G1 X107.629 Y94.114 E4.94906
G1 X106.834 Y94.069 F9900.000
G1 X107.452 Y94.087
G1 X107.727 Y94.500
G1 X115.481 Y94.500
G1 X116.938 Y94.093
G1 X116.291 Y93.340
G1 X116.567 Y93.298
G1 X116.567 Y86.584 F630.000 E5.19470
G1 X117.277 Y85.520 E5.24151
G1 X118.839 Y85.520 E5.29864
G1 X116.248 Y81.632 E5.46956
G1 X119.280 Y81.632 E5.58049
G1 X121.847 Y85.520 E5.75092
G1 X122.990 Y85.520 E5.79274
G1 X122.990 Y82.692 E5.89618
G1 X123.731 Y81.632 E5.94351
G1 X124.878 Y81.632 E5.98546
G1 X125.585 Y82.645 E6.03064
G1 X125.585 Y93.348 E6.42224
G1 X124.904 Y94.368 E6.46710
G1 X117.280 Y94.368 E6.74605
G1 X116.629 Y93.390 E6.78903
G1 X115.871 Y93.061 F9900.000
G1 X116.291 Y93.340
G1 X117.209 Y94.500
G1 X124.975 Y94.500
G1 X126.492 Y94.157
G1 X125.724 Y93.378
G1 X126.083 Y93.327
G1 X126.083 Y92.473 F630.000 E6.82027
G1 X126.796 Y91.435 E6.86635
G1 X132.472 Y91.435 E7.07399
G1 X132.472 Y88.452 E7.18311
G1 X126.796 Y88.452 E7.39076
G1 X126.083 Y87.411 E7.43692
G1 X126.083 Y86.558 E7.46816
G1 X126.796 Y85.520 E7.51423
G1 X132.472 Y85.520 E7.72187
G1 X132.472 Y82.692 E7.82531
G1 X133.213 Y81.632 E7.87264
G1 X134.360 Y81.632 E7.91459
G1 X135.066 Y82.645 E7.95977
G1 X135.066 Y93.353 E8.35153
G1 X134.357 Y94.368 E8.39685
G1 X126.796 Y94.368 E8.67347
G1 X126.146 Y93.418 E8.71559
G1 X125.386 Y93.093 F9900.000
G1 X125.724 Y93.378
G1 X126.726 Y94.500
G1 X142.739 Y94.667
G1 X145.363 Y93.886
G1 X144.680 Y93.522
G1 X145.012 Y93.136
G1 X145.012 Y81.632 F630.000 E9.13648
G1 X146.900 Y81.632 E9.20554
G1 X147.607 Y82.642 E9.25064
G1 X147.607 Y85.520 E9.35592
G1 X151.289 Y85.520 E9.49063
G1 X151.435 Y85.295 E9.50042
G1 X151.435 Y82.692 E9.59565
G1 X152.176 Y81.632 E9.64298
G1 X153.322 Y81.632 E9.68489
G1 X154.030 Y82.636 E9.72983
G1 X154.030 Y86.166 E9.85900
G1 X148.594 Y94.199 E10.21384
G1 X145.735 Y94.199 E10.31845
G1 X145.075 Y93.227 E10.36143
G1 X144.315 Y92.901 F9900.000
G1 X144.548 Y93.401
G1 X143.672 Y94.184 F630.000 E10.40439
G1 X143.509 Y94.269 E10.41114
G1 X142.716 Y94.401 E10.44053
G1 X141.953 Y93.296 E10.48967
G1 X141.953 Y84.565 E10.80911
G1 X138.126 Y84.565 E10.94915
G1 X138.126 Y85.486 E10.98284
G1 X137.416 Y86.498 E11.02808
G1 X136.275 Y86.498 E11.06981
G1 X135.531 Y85.436 E11.11727
G1 X135.531 Y81.632 E11.25643
G1 X143.867 Y81.632 E11.56142
G1 X144.548 Y82.649 E11.60619
G1 X144.548 Y93.291 E11.99555
G1 X144.892 Y94.052 F9900.000
G1 X144.813 Y94.151
G1 X145.345 Y94.934 F900.000 E12.03020
G1 X148.984 Y94.934 E12.16334
G1 X154.280 Y87.110 E12.50902
G1 X154.495 Y87.176 E12.51725
G1 X154.495 Y97.495 E12.89480
G1 X101.723 Y97.491 E14.82555
G1 X100.412 Y97.568 E14.87360
G1 X99.087 Y97.803 E14.92284
G1 X97.798 Y98.191 E14.97208
G1 X96.564 Y98.726 E15.02132
G1 X95.397 Y99.404 E15.07066
G1 X93.052 Y101.186 E15.17843
G1 X91.686 Y102.025 E15.23707
G1 X90.244 Y102.724 E15.29572
G1 X88.739 Y103.275 E15.35437
G1 X87.186 Y103.673 E15.41301
G1 X85.601 Y103.913 E15.47166
G1 X85.103 Y103.938 E15.48989
G1 X85.103 Y94.003 E15.85337
G1 X86.089 Y93.739 E15.89070
G1 X87.054 Y93.289 E15.92965
G1 X87.926 Y92.679 E15.96860
G1 X88.679 Y91.926 E16.00755
G1 X89.289 Y91.054 E16.04650
G1 X89.739 Y90.089 E16.08545
G1 X90.015 Y89.061 E16.12440
G1 X90.108 Y88.000 E16.16336
G1 X90.015 Y86.939 E16.20231
G1 X89.739 Y85.911 E16.24126
G1 X89.289 Y84.946 E16.28021
G1 X88.679 Y84.074 E16.31916
G1 X87.926 Y83.321 E16.35811
G1 X87.054 Y82.711 E16.39706
G1 X86.089 Y82.261 E16.43602
G1 X85.103 Y81.997 E16.47334
G1 X85.103 Y72.066 E16.83668
G1 X85.601 Y72.091 E16.85489
G1 X87.185 Y72.331 E16.91352
G1 X88.737 Y72.728 E16.97215
G1 X90.242 Y73.279 E17.03078
G1 X91.684 Y73.978 E17.08942
G1 X93.049 Y74.818 E17.14805
G1 X95.400 Y76.598 E17.25591
G1 X96.564 Y77.274 E17.30515
G1 X97.798 Y77.809 E17.35439
G1 X99.087 Y78.197 E17.40363
G1 X100.412 Y78.432 E17.45286
G1 X101.723 Y78.509 E17.50092
G1 X154.495 Y78.505 E19.43167
G1 X154.495 Y81.667 E19.54736
G1 X154.292 Y81.731 E19.55515
G1 X153.703 Y80.897 E19.59252
G1 X151.793 Y80.897 E19.66241
G1 X150.699 Y82.461 E19.73223
G1 X150.699 Y84.784 E19.81724
G1 X148.343 Y84.784 E19.90345
G1 X148.343 Y82.410 E19.99031
G1 X147.283 Y80.897 E20.05791
G1 X132.830 Y80.897 E20.58670
G1 X131.736 Y82.461 E20.65653
G1 X131.736 Y84.784 E20.74153
G1 X126.320 Y84.784 E20.93967
G1 X126.320 Y82.414 E21.02639
G1 X125.262 Y80.897 E21.09408
G1 X123.348 Y80.897 E21.16409
G1 X122.254 Y82.461 E21.23391
G1 X122.254 Y84.398 E21.30478
G1 X122.032 Y84.464 E21.31328
G1 X119.676 Y80.897 E21.46970
G1 X96.868 Y80.897 E22.30416
G1 X96.868 Y86.393 E22.50525
G1 X102.673 Y95.103 E22.88823
G1 X106.334 Y95.103 E23.02215
G1 X106.870 Y94.301 E23.05745
G1 X107.404 Y95.103 E23.09272
G1 X115.795 Y95.103 E23.39974
G1 X116.354 Y94.304 E23.43540
G1 X116.886 Y95.103 E23.47052
G1 X125.297 Y95.103 E23.77827
G1 X125.846 Y94.282 E23.81441
G1 X126.408 Y95.103 E23.85084
G1 X134.740 Y95.103 E24.15568
G1 X135.802 Y93.584 E24.22349
G1 X135.802 Y87.234 E24.45584
G1 X137.798 Y87.234 E24.52887
G1 X138.861 Y85.718 E24.59660
G1 X138.861 Y85.301 E24.61187
G1 X141.218 Y85.301 E24.69809
G1 X141.218 Y93.525 E24.99900
G1 X142.377 Y95.204 E25.07365
G1 X143.744 Y94.975 E25.12438
G1 X144.093 Y94.794 E25.13877
G1 X144.731 Y94.225 E25.17003
G1 X144.680 Y93.522 F9900.000
G1 X145.363 Y93.886
G1 X142.739 Y94.667
G1 X117.209 Y94.500
G1 X116.291 Y93.340
G1 X116.425 Y86.560
G1 X115.584 Y87.416
G1 X113.376 Y85.600
G1 X113.574 Y86.812
G1 X110.416 Y86.812 F540.000 E25.28558
G1 X110.416 Y85.301 E25.34088
G1 X112.773 Y85.301 E25.42709
G1 X112.773 Y85.667 E25.44052
G1 X113.511 Y86.722 E25.48760
G1 X113.376 Y85.600 F9900.000
G1 X115.584 Y87.416
G1 X116.260 Y85.493
G1 X116.001 Y81.500
G1 X125.146 Y81.135
G1 X125.891 Y86.605
G1 X126.646 Y88.584
G1 X126.320 Y89.188
G1 X131.736 Y89.188 F540.000 E25.68575
G1 X131.736 Y90.699 E25.74104
G1 X126.320 Y90.699 E25.93919
G1 X126.320 Y89.298 E25.99045
G1 X126.646 Y88.584 F9900.000
G1 X125.724 Y93.378
G1 X126.726 Y94.500
G1 X154.713 Y98.063
G1 X136.121 Y98.223
G1 X101.745 Y98.226 F630.000 E27.24818
G1 X100.498 Y98.299 E27.29387
G1 X99.258 Y98.519 E27.33996
G1 X98.051 Y98.883 E27.38604
G1 X96.896 Y99.384 E27.43213
G1 X95.806 Y100.017 E27.47825
G1 X93.469 Y101.793 E27.58564
G1 X92.040 Y102.671 E27.64699
G1 X90.531 Y103.402 E27.70833
G1 X88.957 Y103.979 E27.76968
G1 X87.333 Y104.395 E27.83103
G1 X85.675 Y104.646 E27.89238
G1 X84.368 Y104.712 E27.94025
G1 X84.368 Y93.337 E28.35641
G1 X84.932 Y93.288 E28.37714
G1 X85.836 Y93.045 E28.41138
G1 X86.685 Y92.650 E28.44563
G1 X87.451 Y92.113 E28.47987
G1 X88.113 Y91.451 E28.51411
G1 X88.650 Y90.685 E28.54835
G1 X89.045 Y89.836 E28.58259
G1 X89.288 Y88.932 E28.61684
G1 X89.369 Y88.000 E28.65108
G1 X89.288 Y87.068 E28.68532
G1 X89.045 Y86.164 E28.71956
G1 X88.650 Y85.315 E28.75380
G1 X88.113 Y84.549 E28.78805
G1 X87.451 Y83.887 E28.82229
G1 X86.685 Y83.350 E28.85653
G1 X85.836 Y82.955 E28.89077
G1 X84.932 Y82.712 E28.92502
G1 X84.368 Y82.663 E28.94575
G1 X84.368 Y71.292 E29.36176
G1 X85.674 Y71.358 E29.40962
G1 X87.332 Y71.609 E29.47095
G1 X88.956 Y72.025 E29.53228
G1 X90.530 Y72.601 E29.59362
G1 X92.038 Y73.332 E29.65495
G1 X93.466 Y74.211 E29.71628
G1 X95.807 Y75.983 E29.82370
G1 X96.896 Y76.616 E29.86978
G1 X98.051 Y77.117 E29.91587
G1 X99.258 Y77.481 E29.96196
G1 X100.498 Y77.701 E30.00804
G1 X101.745 Y77.774 E30.05373
G1 X154.984 Y77.769 E32.00159
G1 X155.078 Y77.785 E32.00509
G1 X155.147 Y77.824 E32.00800
G1 X155.215 Y77.922 E32.01234
G1 X155.231 Y78.016 E32.01584
G1 X155.231 Y97.984 E32.74639
G1 X155.215 Y98.078 E32.74990
G1 X155.176 Y98.147 E32.75281
G1 X155.078 Y98.215 E32.75715
G1 X154.984 Y98.231 E32.76064
G1 X136.232 Y98.223 E33.44673
G1 X135.754 Y97.586 F9900.000
G1 F1800.000 E32.44673
G1 Z0.700
G92 E0
G1 X134.426 Y94.500 F9900.000
G1 X102.996 Y94.500
G1 X102.799 Y94.204
G1 X103.291 Y88.239
G1 Z0.400
G1 F1800.000 E1.00000
G1 X103.058 Y88.307 F540.000 E1.00887
G1 X101.140 Y85.301 E1.13936
G1 X103.291 Y85.301 E1.21807
G1 X103.291 Y88.129 E1.32155
G1 X104.027 Y90.976 F9900.000
G1 X103.910 Y91.010 F540.000 E1.32598
G1 X100.199 Y85.194 E1.57842
G1 X100.199 Y84.565 E1.60142
G1 X104.027 Y84.565 E1.74146
G1 X104.027 Y90.866 E1.97198
G1 X103.912 Y90.936 F9900.000
G1 F1800.000 E0.97198
G1 Z0.700
G92 E0
G1 X102.799 Y94.204 F9900.000
G1 X102.996 Y94.500
G1 X115.481 Y94.500
G1 X116.938 Y94.093
G1 X119.898 Y90.699
G1 Z0.400
G1 F1800.000 E1.00000
G1 X119.898 Y89.188 F540.000 E1.05530
G1 X122.254 Y89.188 E1.14152
G1 X122.254 Y90.699 E1.19682
G1 X120.008 Y90.699 E1.27900
G1 X119.162 Y91.435 F9900.000
G1 X119.162 Y88.452 F540.000 E1.38812
G1 X122.990 Y88.452 E1.52817
G1 X122.990 Y91.435 E1.63729
G1 X119.273 Y91.435 E1.77330
G1 X119.530 Y90.798 F9900.000
G1 F1800.000 E0.77330
G1 Z0.700
G92 E0
G1 X116.938 Y94.093 F9900.000
G1 X116.291 Y93.340
G1 X117.209 Y94.500
G1 X142.739 Y94.667
G1 X148.664 Y94.331
G1 X147.607 Y90.918
G1 Z0.400
G1 F1800.000 E1.00000
G1 X147.607 Y88.452 F540.000 E1.09020
G1 X149.432 Y88.452 E1.15694
G1 X147.712 Y90.950 E1.26787
G1 F1800.000 E0.26787
G1 Z0.700
G92 E0
G1 X148.664 Y94.331 F9900.000
G1 X145.665 Y94.331
G1 X144.680 Y93.522
G1 X144.765 Y89.163
G1 Z0.400
G1 F1800.000 E1.00000
G1 X144.765 Y91.879 F540.000 E1.09937
G1 X145.199 Y92.560 E1.12895
G1 X144.774 Y91.929 F9900.000
G1 X144.432 Y92.655 F540.000 E1.15830
G1 X144.432 Y92.655 F9900.000
G1 X144.437 Y92.682 F540.000 E1.15932
G1 X144.765 Y89.163 F9900.000
G1 X144.796 Y84.670 F540.000 E1.32368
G1 X144.360 Y83.228 E1.37879
G1 X145.099 Y84.052 F9900.000
G1 X144.775 Y84.436 F540.000 E1.39719
G1 X144.680 Y82.609 F9900.000
G1 X144.860 Y81.500
G1 X134.627 Y81.135
G1 X136.073 Y86.942
G1 X135.749 Y84.833
G1 X135.740 Y84.829 F540.000 E1.39754
G1 X135.740 Y84.829 F9900.000
G1 X135.549 Y84.202 F540.000 E1.42149
G1 X135.570 Y84.184 F9900.000
G1 X135.634 Y84.029 F540.000 E1.42760
G1 X135.570 Y84.184 F9900.000
G1 X135.047 Y83.878 F540.000 E1.44977
G1 X134.950 Y83.572 E1.46152
G1 X134.950 Y83.572 F9900.000
G1 X134.856 Y83.251 F540.000 E1.47374
G1 X134.856 Y83.251 F9900.000
G1 X134.848 Y83.247 F540.000 E1.47407
G1 X135.047 Y83.878 F9900.000
G1 X134.962 Y84.053 F540.000 E1.48117
G1 X135.325 Y81.500 F9900.000
G1 X134.627 Y81.135
G1 X125.146 Y81.135
G1 X106.932 Y81.500
G1 X107.172 Y84.052
G1 X106.848 Y84.437 F540.000 E1.49956
G1 X106.434 Y83.228 F9900.000
G1 X106.870 Y84.687 F540.000 E1.55528
G1 X106.840 Y89.163 E1.71902
G1 X106.840 Y89.163 F9900.000
G1 X106.858 Y91.707 F540.000 E1.81212
G1 X107.269 Y92.679 E1.85071
G1 X106.434 Y92.688 F9900.000
G1 X106.415 Y92.655 F540.000 E1.85212
G1 X106.415 Y92.655 F9900.000
G1 X106.534 Y92.267 F540.000 E1.86696
G1 X106.534 Y92.267 F9900.000
G1 X106.858 Y91.707 F540.000 E1.89061
G1 X106.754 Y93.388 F9900.000
G1 X107.452 Y94.087
G1 X106.011 Y94.500
G1 X102.996 Y94.500
G1 X102.891 Y95.637
G1 X104.212 Y96.958 F900.000 E1.95902
G1 X105.253 Y96.958 E1.99714
G1 X103.932 Y95.637 E2.06555
G1 X104.973 Y95.637 E2.10367
G1 X106.294 Y96.958 E2.17209
