; generated by Slic3r 0.9.9-dev on 2013-09-14 at 13:29:46

; layer_height = 0.3
; perimeters = 2
; top_solid_layers = 4
; bottom_solid_layers = 4
; fill_density = 0.25
; perimeter_speed = 50
; infill_speed = 50
; travel_speed = 165
; nozzle_diameter = 0.5
; filament_diameter = 3.2
; extrusion_multiplier = 1
; perimeters extrusion width = 0.70mm
; infill extrusion width = 0.70mm
; solid infill extrusion width = 0.70mm
; top infill extrusion width = 0.70mm
; first layer extrusion width = 0.80mm

G21 ; set units to millimeters
M107
M190 S65 ; wait for bed temperature to be reached
M104 S185 ; set temperature
;G28 ; home all axes
;G1 Z5 F5000 ; lift nozzle
M109 S185 ; wait for temperature to be reached
G90 ; use absolute coordinates
G92 E0
M82 ; use absolute distances for extrusion
G1 F1800.000 E-1.00000
G1 Z0.700
G92 E0
G1 X82.170 Y49.130 F9900.000
G1 Z0.400
G1 F1800.000 E1.00000
G1 X82.620 Y48.450 F900.000 E1.02983
G1 X83.140 Y47.830 E1.05944
G1 X83.740 Y47.280 E1.08922
G1 X84.170 Y46.960 E1.10883
G1 X84.630 Y46.670 E1.12872
G1 X85.110 Y46.410 E1.14870
G1 X85.360 Y46.300 E1.15869
G1 X86.130 Y46.030 E1.18854
G1 X86.650 Y45.900 E1.20815
G1 X87.190 Y45.810 E1.22818
G1 X88.000 Y45.760 E1.25787
G1 X141.760 Y45.770 E3.22478
G1 X142.300 Y45.810 E3.24459
G1 X143.100 Y45.960 E3.27437
G1 X143.880 Y46.200 E3.30422
G1 X144.620 Y46.530 E3.33387
G1 X145.090 Y46.800 E3.35370
G1 X145.750 Y47.280 E3.38356
G1 X146.150 Y47.640 E3.40325
G1 X146.700 Y48.230 E3.43276
G1 X147.030 Y48.670 E3.45288
G1 X147.320 Y49.120 E3.47247
G1 X157.160 Y66.110 E4.19080
G1 X157.460 Y66.700 E4.21502
G1 X157.820 Y67.490 E4.24678
G1 X158.190 Y68.520 E4.28682
G1 X158.480 Y69.610 E4.32809
G1 X158.580 Y70.090 E4.34603
G1 X158.610 Y70.340 E4.35524
G1 X158.730 Y71.990 E4.41577
G1 X158.730 Y103.990 E5.58654
G1 X158.610 Y105.640 E5.64707
G1 X158.490 Y106.360 E5.67378
G1 X158.140 Y107.650 E5.72268
G1 X157.810 Y108.530 E5.75707
G1 X157.450 Y109.310 E5.78850
G1 X157.160 Y109.860 E5.81125
G1 X147.180 Y127.100 E6.54006
G1 X146.870 Y127.540 E6.55976
G1 X146.530 Y127.960 E6.57953
G1 X146.150 Y128.350 E6.59945
G1 X145.750 Y128.710 E6.61914
G1 X145.310 Y129.040 E6.63926
G1 X144.850 Y129.330 E6.65916
G1 X144.370 Y129.580 E6.67896
G1 X143.880 Y129.790 E6.69846
G1 X143.100 Y130.030 E6.72832
G1 X142.570 Y130.140 E6.74812
G1 X142.300 Y130.180 E6.75811
G1 X141.490 Y130.230 E6.78780
G1 X88.000 Y130.230 E8.74482
G1 X87.190 Y130.180 E8.77452
G1 X86.650 Y130.090 E8.79454
G1 X85.870 Y129.880 E8.82410
G1 X85.110 Y129.580 E8.85399
G1 X84.400 Y129.180 E8.88381
G1 X83.740 Y128.710 E8.91345
G1 X83.330 Y128.350 E8.93341
G1 X82.780 Y127.750 E8.96319
G1 X82.460 Y127.320 E8.98280
G1 X82.170 Y126.860 E9.00270
G1 X81.910 Y126.380 E9.02267
G1 X81.700 Y125.880 E9.04251
G1 X81.460 Y125.100 E9.07237
G1 X81.350 Y124.570 E9.09218
G1 X81.310 Y124.300 E9.10216
G1 X81.260 Y123.490 E9.13185
G1 X81.260 Y52.500 E11.72914
G1 X81.310 Y51.690 E11.75884
G1 X81.460 Y50.890 E11.78862
G1 X81.700 Y50.110 E11.81847
G1 X81.910 Y49.610 E11.83831
G1 X82.117 Y49.227 E11.85425
G1 F1800.000 E10.85425
G1 Z0.700
G92 E0
G1 X127.686 Y59.504 F9900.000
G1 Z0.400
G1 F1800.000 E1.00000
G1 X127.815 Y59.023 F540.000 E1.01822
G1 X128.025 Y58.571 E1.03645
G1 X128.311 Y58.163 E1.05468
G1 X128.663 Y57.811 E1.07290
G1 X129.071 Y57.525 E1.09112
G1 X129.523 Y57.315 E1.10935
G1 X130.004 Y57.186 E1.12757
G1 X130.500 Y57.142 E1.14580
G1 X130.996 Y57.186 E1.16402
G1 X131.477 Y57.315 E1.18225
G1 X131.929 Y57.525 E1.20047
G1 X132.337 Y57.811 E1.21869
G1 X132.689 Y58.163 E1.23692
G1 X132.975 Y58.571 E1.25514
G1 X133.185 Y59.023 E1.27337
G1 X133.314 Y59.504 E1.29159
G1 X133.358 Y60.000 E1.30982
G1 X133.314 Y60.496 E1.32804
G1 X133.185 Y60.977 E1.34627
G1 X132.975 Y61.429 E1.36449
G1 X132.689 Y61.837 E1.38272
G1 X132.337 Y62.189 E1.40094
G1 X131.929 Y62.475 E1.41916
G1 X131.477 Y62.685 E1.43739
G1 X130.996 Y62.814 E1.45561
G1 X130.500 Y62.858 E1.47384
G1 X130.004 Y62.814 E1.49206
G1 X129.523 Y62.685 E1.51029
G1 X129.071 Y62.475 E1.52851
G1 X128.663 Y62.189 E1.54674
G1 X128.311 Y61.837 E1.56496
G1 X128.025 Y61.429 E1.58319
G1 X127.815 Y60.977 E1.60141
G1 X127.686 Y60.496 E1.61963
G1 X127.642 Y60.000 E1.63786
G1 X127.676 Y59.614 E1.65205
G1 X128.413 Y59.632 F9900.000
G1 X128.509 Y59.275 F540.000 E1.66556
G1 X128.665 Y58.940 E1.67908
G1 X128.877 Y58.638 E1.69259
G1 X129.138 Y58.377 E1.70611
G1 X129.440 Y58.165 E1.71962
G1 X129.775 Y58.009 E1.73314
G1 X130.132 Y57.913 E1.74665
G1 X130.500 Y57.881 E1.76017
G1 X130.868 Y57.913 E1.77368
G1 X131.225 Y58.009 E1.78720
G1 X131.560 Y58.165 E1.80072
G1 X131.862 Y58.377 E1.81423
G1 X132.123 Y58.638 E1.82774
G1 X132.335 Y58.940 E1.84126
G1 X132.491 Y59.275 E1.85478
G1 X132.587 Y59.632 E1.86829
G1 X132.619 Y60.000 E1.88181
G1 X132.587 Y60.368 E1.89532
G1 X132.491 Y60.725 E1.90884
G1 X132.335 Y61.060 E1.92235
G1 X132.123 Y61.362 E1.93587
G1 X131.862 Y61.623 E1.94938
G1 X131.560 Y61.835 E1.96290
G1 X131.225 Y61.991 E1.97641
G1 X130.868 Y62.087 E1.98993
G1 X130.500 Y62.119 E2.00344
G1 X130.132 Y62.087 E2.01696
G1 X129.775 Y61.991 E2.03047
G1 X129.440 Y61.835 E2.04399
G1 X129.138 Y61.623 E2.05750
G1 X128.877 Y61.362 E2.07102
G1 X128.665 Y61.060 E2.08453
G1 X128.509 Y60.725 E2.09805
G1 X128.413 Y60.368 E2.11157
G1 X128.381 Y60.000 E2.12508
G1 X128.403 Y59.742 E2.13456
G1 X128.137 Y59.386 F9900.000
G1 X130.004 Y67.186
G1 X130.500 Y67.142 F540.000 E2.15278
G1 X130.996 Y67.186 E2.17101
G1 X131.477 Y67.315 E2.18923
G1 X131.929 Y67.525 E2.20746
G1 X132.036 Y67.601 E2.21226
G1 X132.337 Y67.811 E2.22568
G1 X132.689 Y68.163 E2.24391
G1 X132.975 Y68.571 E2.26213
G1 X133.185 Y69.023 E2.28036
G1 X133.314 Y69.504 E2.29858
G1 X133.358 Y70.000 E2.31680
G1 X133.314 Y70.496 E2.33503
G1 X133.218 Y70.855 E2.34861
G1 X133.185 Y70.977 E2.35325
G1 X132.975 Y71.429 E2.37148
G1 X132.689 Y71.837 E2.38970
G1 X132.337 Y72.189 E2.40793
G1 X131.929 Y72.475 E2.42615
G1 X131.477 Y72.685 E2.44438
G1 X130.996 Y72.814 E2.46260
G1 X130.500 Y72.858 E2.48083
G1 X130.004 Y72.814 E2.49905
G1 X129.523 Y72.685 E2.51728
G1 X129.071 Y72.475 E2.53550
G1 X128.964 Y72.399 E2.54031
G1 X128.663 Y72.189 E2.55372
G1 X128.311 Y71.837 E2.57195
G1 X128.025 Y71.429 E2.59017
G1 X127.815 Y70.977 E2.60840
G1 X127.686 Y70.496 E2.62662
G1 X127.642 Y70.000 E2.64485
G1 X127.686 Y69.504 E2.66307
G1 X127.815 Y69.023 E2.68130
G1 X128.025 Y68.571 E2.69952
G1 X128.311 Y68.163 E2.71775
G1 X128.663 Y67.811 E2.73597
G1 X129.071 Y67.525 E2.75420
G1 X129.523 Y67.315 E2.77242
G1 X129.897 Y67.214 E2.78661
G1 X130.132 Y67.913 F9900.000
G1 X130.500 Y67.881 F540.000 E2.80012
G1 X130.868 Y67.913 E2.81364
G1 X131.225 Y68.009 E2.82715
G1 X131.615 Y68.203 E2.84309
G1 X131.862 Y68.377 E2.85415
G1 X132.123 Y68.638 E2.86767
G1 X132.335 Y68.940 E2.88118
G1 X132.491 Y69.275 E2.89470
G1 X132.587 Y69.632 E2.90821
G1 X132.619 Y70.000 E2.92173
G1 X132.587 Y70.368 E2.93524
G1 X132.491 Y70.725 E2.94876
G1 X132.335 Y71.060 E2.96227
G1 X132.123 Y71.362 E2.97579
G1 X131.862 Y71.623 E2.98930
G1 X131.560 Y71.835 E3.00282
G1 X131.225 Y71.991 E3.01633
G1 X130.868 Y72.087 E3.02985
G1 X130.500 Y72.119 E3.04337
G1 X130.132 Y72.087 E3.05688
G1 X129.775 Y71.991 E3.07040
G1 X129.440 Y71.835 E3.08391
G1 X129.138 Y71.623 E3.09743
G1 X128.877 Y71.362 E3.11094
G1 X128.665 Y71.060 E3.12446
G1 X128.509 Y70.725 E3.13797
G1 X128.413 Y70.368 E3.15149
G1 X128.381 Y70.000 E3.16500
G1 X128.413 Y69.632 E3.17852
G1 X128.509 Y69.275 E3.19203
G1 X128.665 Y68.940 E3.20555
G1 X128.877 Y68.638 E3.21906
G1 X129.138 Y68.377 E3.23258
G1 X129.440 Y68.165 E3.24609
G1 X129.775 Y68.009 E3.25961
G1 X130.025 Y67.942 E3.26909
G1 X130.268 Y67.570 F9900.000
G1 X144.220 Y71.377
G1 X144.315 Y71.023 F540.000 E3.28250
G1 X144.525 Y70.571 E3.30073
G1 X144.811 Y70.163 E3.31895
G1 X145.163 Y69.811 E3.33718
G1 X145.571 Y69.525 E3.35540
G1 X146.023 Y69.315 E3.37363
G1 X146.504 Y69.186 E3.39185
G1 X147.000 Y69.142 E3.41008
G1 X147.496 Y69.186 E3.42830
G1 X147.977 Y69.315 E3.44653
G1 X148.429 Y69.525 E3.46475
G1 X148.837 Y69.811 E3.48298
G1 X149.189 Y70.163 E3.50120
G1 X149.475 Y70.571 E3.51942
G1 X149.685 Y71.023 E3.53765
G1 X149.814 Y71.504 E3.55587
G1 X149.858 Y72.000 E3.57410
G1 X149.814 Y72.496 E3.59232
G1 X149.685 Y72.977 E3.61055
G1 X149.582 Y73.199 E3.61949
G1 X149.475 Y73.429 E3.62877
G1 X149.189 Y73.837 E3.64700
G1 X148.837 Y74.189 E3.66522
G1 X148.429 Y74.475 E3.68345
G1 X147.977 Y74.685 E3.70167
G1 X147.496 Y74.814 E3.71989
G1 X147.000 Y74.858 E3.73812
G1 X146.504 Y74.814 E3.75634
G1 X146.023 Y74.685 E3.77457
G1 X145.571 Y74.475 E3.79279
G1 X145.464 Y74.399 E3.79760
G1 X145.163 Y74.189 E3.81102
G1 X144.811 Y73.837 E3.82924
G1 X144.525 Y73.429 E3.84747
G1 X144.315 Y72.977 E3.86569
G1 X144.186 Y72.496 E3.88391
G1 X144.142 Y72.000 E3.90214
G1 X144.191 Y71.483 E3.92112
G1 X144.913 Y71.632 F9900.000
G1 X145.009 Y71.275 F540.000 E3.93464
G1 X145.165 Y70.940 E3.94815
G1 X145.377 Y70.638 E3.96167
G1 X145.638 Y70.377 E3.97518
G1 X145.940 Y70.165 E3.98870
G1 X146.340 Y69.991 E4.00464
G1 X146.632 Y69.913 E4.01570
G1 X147.000 Y69.881 E4.02921
G1 X147.368 Y69.913 E4.04273
G1 X147.725 Y70.009 E4.05625
G1 X148.060 Y70.165 E4.06976
G1 X148.362 Y70.377 E4.08328
G1 X148.623 Y70.638 E4.09679
G1 X148.835 Y70.940 E4.11031
G1 X148.991 Y71.275 E4.12382
G1 X149.087 Y71.632 E4.13734
G1 X149.119 Y72.000 E4.15085
G1 X149.087 Y72.368 E4.16437
G1 X148.991 Y72.725 E4.17788
G1 X148.901 Y72.920 E4.18575
G1 X148.835 Y73.060 E4.19140
G1 X148.623 Y73.362 E4.20491
G1 X148.362 Y73.623 E4.21843
G1 X148.060 Y73.835 E4.23194
G1 X147.725 Y73.991 E4.24546
G1 X147.368 Y74.087 E4.25897
G1 X147.000 Y74.119 E4.27249
G1 X146.632 Y74.087 E4.28600
G1 X146.275 Y73.991 E4.29952
G1 X145.940 Y73.835 E4.31303
G1 X145.638 Y73.623 E4.32655
G1 X145.377 Y73.362 E4.34007
G1 X145.165 Y73.060 E4.35358
G1 X145.009 Y72.725 E4.36710
G1 X144.913 Y72.368 E4.38061
G1 X144.881 Y72.000 E4.39413
G1 X144.903 Y71.742 E4.40360
G1 X144.637 Y71.386 F9900.000
G1 X144.650 Y72.103
G1 X132.240 Y71.490
G1 X141.441 Y97.051
G1 X145.509 Y102.260
G1 X147.000 Y101.718
G1 X147.000 Y101.142
G1 X147.496 Y101.186 F540.000 E4.42183
G1 X147.977 Y101.315 E4.44005
G1 X148.429 Y101.525 E4.45828
G1 X148.837 Y101.811 E4.47650
G1 X149.189 Y102.163 E4.49473
G1 X149.475 Y102.571 E4.51295
G1 X149.685 Y103.023 E4.53117
G1 X149.814 Y103.504 E4.54940
G1 X149.858 Y104.000 E4.56763
G1 X149.814 Y104.496 E4.58585
G1 X149.685 Y104.977 E4.60407
G1 X149.475 Y105.429 E4.62230
G1 X149.189 Y105.837 E4.64052
G1 X148.837 Y106.189 E4.65875
G1 X148.429 Y106.475 E4.67697
G1 X147.977 Y106.685 E4.69520
G1 X147.496 Y106.814 E4.71342
G1 X147.000 Y106.858 E4.73164
G1 X146.504 Y106.814 E4.74987
G1 X146.023 Y106.685 E4.76810
G1 X145.571 Y106.475 E4.78632
G1 X145.163 Y106.189 E4.80454
G1 X145.070 Y106.096 E4.80935
G1 X144.811 Y105.837 E4.82277
G1 X144.525 Y105.429 E4.84099
G1 X144.315 Y104.977 E4.85922
G1 X144.186 Y104.496 E4.87744
G1 X144.142 Y104.000 E4.89567
G1 X144.186 Y103.504 E4.91389
G1 X144.315 Y103.023 E4.93212
G1 X144.525 Y102.571 E4.95034
G1 X144.811 Y102.163 E4.96857
G1 X145.163 Y101.811 E4.98679
G1 X145.571 Y101.525 E5.00502
G1 X146.023 Y101.315 E5.02324
G1 X146.504 Y101.186 E5.04146
G1 X146.890 Y101.152 E5.05565
G1 X147.000 Y101.881 F9900.000
G1 X147.368 Y101.913 F540.000 E5.06917
G1 X147.725 Y102.009 E5.08268
G1 X148.060 Y102.165 E5.09620
G1 X148.362 Y102.377 E5.10971
G1 X148.623 Y102.638 E5.12323
G1 X148.835 Y102.940 E5.13674
G1 X148.991 Y103.275 E5.15026
G1 X149.087 Y103.632 E5.16377
G1 X149.119 Y104.000 E5.17729
G1 X149.087 Y104.368 E5.19080
G1 X148.991 Y104.725 E5.20432
G1 X148.835 Y105.060 E5.21784
G1 X148.623 Y105.362 E5.23135
G1 X148.362 Y105.623 E5.24487
G1 X148.060 Y105.835 E5.25838
G1 X147.725 Y105.991 E5.27190
G1 X147.368 Y106.087 E5.28541
G1 X147.000 Y106.119 E5.29893
G1 X146.632 Y106.087 E5.31244
G1 X146.275 Y105.991 E5.32596
G1 X145.940 Y105.835 E5.33947
G1 X145.590 Y105.576 E5.35541
G1 X145.377 Y105.362 E5.36647
G1 X145.165 Y105.060 E5.37999
G1 X145.009 Y104.725 E5.39350
G1 X144.913 Y104.368 E5.40702
G1 X144.881 Y104.000 E5.42053
G1 X144.913 Y103.632 E5.43405
G1 X145.009 Y103.275 E5.44756
G1 X145.165 Y102.940 E5.46108
G1 X145.377 Y102.638 E5.47459
G1 X145.638 Y102.377 E5.48811
G1 X145.940 Y102.165 E5.50162
G1 X146.275 Y102.009 E5.51514
G1 X146.632 Y101.913 E5.52865
G1 X146.890 Y101.890 E5.53813
G1 X147.194 Y101.566 F9900.000
G1 X133.219 Y105.150
G1 X133.314 Y105.504 F540.000 E5.55155
G1 X133.358 Y106.000 E5.56977
G1 X133.314 Y106.496 E5.58800
G1 X133.185 Y106.977 E5.60622
G1 X132.975 Y107.429 E5.62445
G1 X132.689 Y107.837 E5.64267
G1 X132.337 Y108.189 E5.66090
G1 X131.929 Y108.475 E5.67912
G1 X131.477 Y108.685 E5.69735
G1 X130.996 Y108.814 E5.71557
G1 X130.500 Y108.858 E5.73380
G1 X130.004 Y108.814 E5.75202
G1 X129.523 Y108.685 E5.77024
G1 X129.404 Y108.630 E5.77505
G1 X129.071 Y108.475 E5.78847
G1 X128.663 Y108.189 E5.80669
G1 X128.311 Y107.837 E5.82492
G1 X128.025 Y107.429 E5.84314
G1 X127.815 Y106.977 E5.86137
G1 X127.686 Y106.496 E5.87959
G1 X127.674 Y106.365 E5.88440
G1 X127.642 Y106.000 E5.89782
G1 X127.686 Y105.504 E5.91604
G1 X127.815 Y105.023 E5.93427
G1 X128.025 Y104.571 E5.95249
G1 X128.311 Y104.163 E5.97071
G1 X128.663 Y103.811 E5.98894
G1 X129.071 Y103.525 E6.00717
G1 X129.523 Y103.315 E6.02539
G1 X130.004 Y103.186 E6.04361
G1 X130.500 Y103.142 E6.06184
G1 X130.631 Y103.154 E6.06664
G1 X130.996 Y103.186 E6.08006
G1 X131.477 Y103.315 E6.09829
G1 X131.929 Y103.525 E6.11651
G1 X132.337 Y103.811 E6.13473
G1 X132.689 Y104.163 E6.15296
G1 X132.975 Y104.571 E6.17119
G1 X133.191 Y105.043 E6.19017
G1 X132.491 Y105.275 F9900.000
G1 X132.593 Y105.699 F540.000 E6.20611
G1 X132.619 Y106.000 E6.21717
G1 X132.587 Y106.368 E6.23068
G1 X132.491 Y106.725 E6.24420
G1 X132.335 Y107.060 E6.25771
G1 X132.123 Y107.362 E6.27123
G1 X131.862 Y107.623 E6.28475
G1 X131.560 Y107.835 E6.29826
G1 X131.225 Y107.991 E6.31178
G1 X130.868 Y108.087 E6.32529
G1 X130.500 Y108.119 E6.33881
G1 X130.132 Y108.087 E6.35232
G1 X129.714 Y107.963 E6.36826
G1 X129.440 Y107.835 E6.37932
G1 X129.138 Y107.623 E6.39284
G1 X128.877 Y107.362 E6.40635
G1 X128.665 Y107.060 E6.41987
G1 X128.509 Y106.725 E6.43338
G1 X128.407 Y106.301 E6.44932
G1 X128.381 Y106.000 E6.46038
G1 X128.413 Y105.632 E6.47390
G1 X128.509 Y105.275 E6.48741
G1 X128.665 Y104.940 E6.50093
G1 X128.877 Y104.638 E6.51444
G1 X129.138 Y104.377 E6.52796
G1 X129.440 Y104.165 E6.54147
G1 X129.775 Y104.009 E6.55499
G1 X130.132 Y103.913 E6.56850
G1 X130.500 Y103.881 E6.58202
G1 X130.868 Y103.913 E6.59553
G1 X131.225 Y104.009 E6.60905
G1 X131.560 Y104.165 E6.62256
G1 X131.862 Y104.377 E6.63608
G1 X132.123 Y104.638 E6.64959
G1 X132.335 Y104.940 E6.66311
G1 X132.445 Y105.175 E6.67259
G1 X132.916 Y105.371 F9900.000
G1 X130.996 Y113.186
G1 X131.477 Y113.315 F540.000 E6.69081
G1 X131.929 Y113.525 E6.70903
G1 X132.036 Y113.601 E6.71384
G1 X132.337 Y113.811 E6.72726
G1 X132.689 Y114.163 E6.74548
G1 X132.975 Y114.571 E6.76371
G1 X133.185 Y115.023 E6.78193
G1 X133.314 Y115.504 E6.80016
G1 X133.358 Y116.000 E6.81838
G1 X133.314 Y116.496 E6.83661
G1 X133.185 Y116.977 E6.85483
G1 X132.975 Y117.429 E6.87306
G1 X132.689 Y117.837 E6.89128
G1 X132.337 Y118.189 E6.90951
G1 X131.929 Y118.475 E6.92773
G1 X131.477 Y118.685 E6.94595
G1 X131.350 Y118.719 E6.95076
G1 X130.996 Y118.814 E6.96418
G1 X130.500 Y118.858 E6.98240
G1 X130.004 Y118.814 E7.00063
G1 X129.523 Y118.685 E7.01885
G1 X129.071 Y118.475 E7.03708
G1 X128.663 Y118.189 E7.05530
G1 X128.311 Y117.837 E7.07353
G1 X128.025 Y117.429 E7.09175
G1 X127.815 Y116.977 E7.10998
G1 X127.686 Y116.496 E7.12820
G1 X127.642 Y116.000 E7.14642
G1 X127.686 Y115.504 E7.16465
G1 X127.815 Y115.023 E7.18287
G1 X128.025 Y114.571 E7.20110
G1 X128.311 Y114.163 E7.21932
G1 X128.663 Y113.811 E7.23755
G1 X129.071 Y113.525 E7.25577
G1 X129.523 Y113.315 E7.27400
G1 X130.004 Y113.186 E7.29222
G1 X130.500 Y113.142 E7.31044
G1 X130.886 Y113.176 E7.32463
G1 X130.868 Y113.913 F9900.000
G1 X131.225 Y114.009 F540.000 E7.33815
G1 X131.560 Y114.165 E7.35166
G1 X131.910 Y114.424 E7.36760
G1 X132.123 Y114.638 E7.37866
G1 X132.335 Y114.940 E7.39218
G1 X132.491 Y115.275 E7.40569
