; generated by Slic3r 0.9.9-dev on 2013-09-14 at 13:28:58

; layer_height = 0.3
; perimeters = 2
; top_solid_layers = 4
; bottom_solid_layers = 4
; fill_density = 0.25
; perimeter_speed = 50
; infill_speed = 50
; travel_speed = 165
; nozzle_diameter = 0.5
; filament_diameter = 3.2
; extrusion_multiplier = 1
; perimeters extrusion width = 0.70mm
; infill extrusion width = 0.70mm
; solid infill extrusion width = 0.70mm
; top infill extrusion width = 0.70mm
; first layer extrusion width = 0.80mm

G21 ; set units to millimeters
M107
M190 S65 ; wait for bed temperature to be reached
M104 S185 ; set temperature
;G28 ; home all axes
;G1 Z5 F5000 ; lift nozzle
M109 S185 ; wait for temperature to be reached
G90 ; use absolute coordinates
G92 E0
M82 ; use absolute distances for extrusion
G1 F1800.000 E-1.00000
G1 Z0.700
G92 E0
G1 X79.460 Y69.030 F9900.000
G1 Z0.400
G1 F1800.000 E1.00000
G1 X79.830 Y68.640 F900.000 E1.01967
G1 X80.450 Y68.120 E1.04927
G1 X80.900 Y67.810 E1.06927
G1 X81.610 Y67.410 E1.09908
G1 X82.370 Y67.110 E1.12898
G1 X83.150 Y66.900 E1.15853
G1 X83.690 Y66.810 E1.17856
G1 X84.500 Y66.760 E1.20825
G1 X155.490 Y66.760 E3.80554
G1 X156.300 Y66.810 E3.83523
G1 X156.840 Y66.900 E3.85526
G1 X157.360 Y67.030 E3.87487
G1 X157.880 Y67.200 E3.89489
G1 X158.380 Y67.410 E3.91473
G1 X159.090 Y67.810 E3.94455
G1 X159.750 Y68.280 E3.97419
G1 X160.160 Y68.640 E3.99415
G1 X160.530 Y69.030 E4.01382
G1 X160.710 Y69.240 E4.02394
G1 X161.030 Y69.670 E4.04355
G1 X161.320 Y70.130 E4.06345
G1 X161.580 Y70.610 E4.08342
G1 X161.880 Y71.370 E4.11331
G1 X162.030 Y71.890 E4.13311
G1 X162.140 Y72.420 E4.15292
G1 X162.180 Y72.690 E4.16290
G1 X162.230 Y73.500 E4.19260
G1 X162.230 Y92.000 E4.86945
G1 X162.180 Y92.810 E4.89914
G1 X162.090 Y93.350 E4.91917
G1 X161.960 Y93.870 E4.93878
G1 X161.790 Y94.390 E4.95880
G1 X161.580 Y94.890 E4.97864
G1 X161.320 Y95.370 E4.99861
G1 X160.880 Y96.040 E5.02794
G1 X160.710 Y96.260 E5.03811
G1 X160.160 Y96.860 E5.06789
G1 X159.750 Y97.220 E5.08785
G1 X159.090 Y97.690 E5.11750
G1 X141.860 Y107.660 E5.84581
G1 X141.310 Y107.950 E5.86856
G1 X140.530 Y108.310 E5.89999
G1 X139.470 Y108.690 E5.94119
G1 X138.620 Y108.920 E5.97341
G1 X137.480 Y109.130 E6.01582
G1 X136.610 Y109.210 E6.04778
G1 X135.990 Y109.240 E6.07049
G1 X103.990 Y109.240 E7.24127
G1 X103.370 Y109.210 E7.26398
G1 X102.510 Y109.130 E7.29558
G1 X101.390 Y108.930 E7.33720
G1 X100.640 Y108.730 E7.36560
G1 X100.340 Y108.640 E7.37706
G1 X99.490 Y108.320 E7.41029
G1 X98.700 Y107.960 E7.44206
G1 X98.120 Y107.660 E7.46595
G1 X80.900 Y97.690 E8.19395
G1 X80.450 Y97.380 E8.21394
G1 X80.030 Y97.040 E8.23371
G1 X79.640 Y96.660 E8.25363
G1 X79.280 Y96.260 E8.27332
G1 X78.950 Y95.820 E8.29344
G1 X78.530 Y95.130 E8.32300
G1 X78.200 Y94.390 E8.35264
G1 X77.960 Y93.610 E8.38250
G1 X77.810 Y92.810 E8.41228
G1 X77.760 Y92.000 E8.44197
G1 X77.760 Y73.500 E9.11883
G1 X77.810 Y72.690 E9.14852
G1 X77.850 Y72.420 E9.15850
G1 X77.960 Y71.890 E9.17831
G1 X78.200 Y71.110 E9.20817
G1 X78.410 Y70.610 E9.22801
G1 X78.670 Y70.130 E9.24798
G1 X78.960 Y69.670 E9.26787
G1 X79.388 Y69.114 E9.29356
G1 F1800.000 E8.29356
G1 Z0.700
G92 E0
G1 X102.163 Y95.311 F9900.000
G1 Z0.400
G1 F1800.000 E1.00000
G1 X102.571 Y95.025 F540.000 E1.01822
G1 X103.023 Y94.815 E1.03645
G1 X103.504 Y94.686 E1.05467
G1 X104.000 Y94.642 E1.07290
G1 X104.496 Y94.686 E1.09112
G1 X104.977 Y94.815 E1.10935
G1 X105.429 Y95.025 E1.12757
G1 X105.837 Y95.311 E1.14580
G1 X106.189 Y95.663 E1.16402
G1 X106.475 Y96.071 E1.18225
G1 X106.685 Y96.523 E1.20047
G1 X106.814 Y97.004 E1.21869
G1 X106.858 Y97.500 E1.23692
G1 X106.814 Y97.996 E1.25514
G1 X106.685 Y98.477 E1.27337
G1 X106.630 Y98.596 E1.27818
G1 X106.475 Y98.929 E1.29159
G1 X106.189 Y99.337 E1.30982
G1 X105.837 Y99.689 E1.32804
G1 X105.429 Y99.975 E1.34626
G1 X104.977 Y100.185 E1.36449
G1 X104.850 Y100.219 E1.36930
G1 X104.496 Y100.314 E1.38271
G1 X104.000 Y100.358 E1.40094
G1 X103.504 Y100.314 E1.41917
G1 X103.023 Y100.185 E1.43739
G1 X102.571 Y99.975 E1.45561
G1 X102.163 Y99.689 E1.47384
G1 X101.811 Y99.337 E1.49206
G1 X101.525 Y98.929 E1.51029
G1 X101.315 Y98.477 E1.52851
G1 X101.186 Y97.996 E1.54674
G1 X101.142 Y97.500 E1.56496
G1 X101.186 Y97.004 E1.58318
G1 X101.315 Y96.523 E1.60141
G1 X101.525 Y96.071 E1.61963
G1 X101.811 Y95.663 E1.63786
G1 X102.085 Y95.389 E1.65205
G1 X102.638 Y95.877 F9900.000
G1 X102.940 Y95.665 F540.000 E1.66556
G1 X103.340 Y95.491 E1.68150
G1 X103.632 Y95.413 E1.69256
G1 X104.000 Y95.381 E1.70608
G1 X104.368 Y95.413 E1.71959
G1 X104.725 Y95.509 E1.73311
G1 X105.060 Y95.665 E1.74662
G1 X105.362 Y95.877 E1.76014
G1 X105.623 Y96.138 E1.77365
G1 X105.835 Y96.440 E1.78717
G1 X105.991 Y96.775 E1.80068
G1 X106.087 Y97.132 E1.81420
G1 X106.119 Y97.500 E1.82771
G1 X106.087 Y97.868 E1.84123
G1 X105.963 Y98.286 E1.85717
G1 X105.835 Y98.560 E1.86823
G1 X105.623 Y98.862 E1.88174
G1 X105.362 Y99.123 E1.89526
G1 X105.060 Y99.335 E1.90877
G1 X104.660 Y99.509 E1.92471
G1 X104.368 Y99.587 E1.93577
G1 X104.000 Y99.619 E1.94929
G1 X103.632 Y99.587 E1.96280
G1 X103.275 Y99.491 E1.97632
G1 X102.940 Y99.335 E1.98983
G1 X102.638 Y99.123 E2.00335
G1 X102.377 Y98.862 E2.01686
G1 X102.165 Y98.560 E2.03038
G1 X102.009 Y98.225 E2.04390
G1 X101.913 Y97.868 E2.05741
G1 X101.881 Y97.500 E2.07093
G1 X101.913 Y97.132 E2.08444
G1 X102.009 Y96.775 E2.09796
G1 X102.165 Y96.440 E2.11147
G1 X102.377 Y96.138 E2.12499
G1 X102.560 Y95.955 E2.13447
G1 X102.584 Y95.511 F9900.000
G1 X93.837 Y83.189
G1 X93.429 Y83.475 F540.000 E2.15269
G1 X92.977 Y83.685 E2.17091
G1 X92.496 Y83.814 E2.18914
G1 X92.000 Y83.858 E2.20736
G1 X91.869 Y83.846 E2.21217
G1 X91.504 Y83.814 E2.22559
G1 X91.023 Y83.685 E2.24381
G1 X90.571 Y83.475 E2.26204
G1 X90.163 Y83.189 E2.28026
G1 X89.811 Y82.837 E2.29849
G1 X89.525 Y82.429 E2.31671
G1 X89.315 Y81.977 E2.33494
G1 X89.186 Y81.496 E2.35316
G1 X89.142 Y81.000 E2.37139
G1 X89.186 Y80.504 E2.38961
G1 X89.220 Y80.377 E2.39442
G1 X89.315 Y80.023 E2.40783
G1 X89.525 Y79.571 E2.42606
G1 X89.811 Y79.163 E2.44428
G1 X90.163 Y78.811 E2.46251
G1 X90.571 Y78.525 E2.48073
G1 X91.023 Y78.315 E2.49896
G1 X91.504 Y78.186 E2.51718
G1 X92.000 Y78.142 E2.53541
G1 X92.496 Y78.186 E2.55363
G1 X92.977 Y78.315 E2.57186
G1 X93.429 Y78.525 E2.59008
G1 X93.837 Y78.811 E2.60831
G1 X94.189 Y79.163 E2.62653
G1 X94.475 Y79.571 E2.64475
G1 X94.685 Y80.023 E2.66298
G1 X94.814 Y80.504 E2.68120
G1 X94.858 Y81.000 E2.69943
G1 X94.814 Y81.496 E2.71765
G1 X94.685 Y81.977 E2.73588
G1 X94.475 Y82.429 E2.75410
G1 X94.189 Y82.837 E2.77233
G1 X93.915 Y83.111 E2.78651
G1 X93.362 Y82.623 F9900.000
G1 X93.060 Y82.835 F540.000 E2.80003
G1 X92.725 Y82.991 E2.81354
G1 X92.368 Y83.087 E2.82706
G1 X91.933 Y83.113 E2.84300
G1 X91.632 Y83.087 E2.85406
G1 X91.275 Y82.991 E2.86757
G1 X90.940 Y82.835 E2.88109
G1 X90.638 Y82.623 E2.89460
G1 X90.377 Y82.362 E2.90812
G1 X90.165 Y82.060 E2.92163
G1 X90.009 Y81.725 E2.93515
G1 X89.913 Y81.368 E2.94866
G1 X89.881 Y81.000 E2.96218
G1 X89.913 Y80.632 E2.97569
G1 X90.009 Y80.275 E2.98921
G1 X90.165 Y79.940 E3.00273
G1 X90.377 Y79.638 E3.01624
G1 X90.638 Y79.377 E3.02976
G1 X90.940 Y79.165 E3.04327
G1 X91.275 Y79.009 E3.05679
G1 X91.632 Y78.913 E3.07030
G1 X92.000 Y78.881 E3.08382
G1 X92.368 Y78.913 E3.09733
G1 X92.725 Y79.009 E3.11085
G1 X93.060 Y79.165 E3.12436
G1 X93.362 Y79.377 E3.13788
G1 X93.623 Y79.638 E3.15139
G1 X93.835 Y79.940 E3.16491
G1 X93.991 Y80.275 E3.17842
G1 X94.087 Y80.632 E3.19194
G1 X94.119 Y81.000 E3.20545
G1 X94.087 Y81.368 E3.21897
G1 X93.991 Y81.725 E3.23248
G1 X93.835 Y82.060 E3.24600
G1 X93.623 Y82.362 E3.25952
G1 X93.440 Y82.545 E3.26899
G1 X93.416 Y82.989 F9900.000
G1 X99.186 Y81.496
G1 X99.142 Y81.000 F540.000 E3.28722
G1 X99.186 Y80.504 E3.30544
G1 X99.315 Y80.023 E3.32367
G1 X99.525 Y79.571 E3.34189
G1 X99.811 Y79.163 E3.36012
G1 X100.163 Y78.811 E3.37834
G1 X100.571 Y78.525 E3.39657
G1 X101.023 Y78.315 E3.41479
G1 X101.504 Y78.186 E3.43301
G1 X102.000 Y78.142 E3.45124
G1 X102.496 Y78.186 E3.46946
G1 X102.977 Y78.315 E3.48769
G1 X103.429 Y78.525 E3.50591
G1 X103.536 Y78.601 E3.51072
G1 X103.837 Y78.811 E3.52414
G1 X104.189 Y79.163 E3.54236
G1 X104.475 Y79.571 E3.56059
G1 X104.685 Y80.023 E3.57881
G1 X104.814 Y80.504 E3.59704
G1 X104.858 Y81.000 E3.61526
G1 X104.814 Y81.496 E3.63348
G1 X104.685 Y81.977 E3.65171
G1 X104.475 Y82.429 E3.66993
G1 X104.399 Y82.536 E3.67474
G1 X104.189 Y82.837 E3.68816
G1 X103.837 Y83.189 E3.70638
G1 X103.429 Y83.475 E3.72461
G1 X102.977 Y83.685 E3.74283
G1 X102.496 Y83.814 E3.76106
G1 X102.000 Y83.858 E3.77928
G1 X101.504 Y83.814 E3.79751
G1 X101.023 Y83.685 E3.81573
G1 X100.571 Y83.475 E3.83395
G1 X100.163 Y83.189 E3.85218
G1 X99.811 Y82.837 E3.87040
G1 X99.525 Y82.429 E3.88863
G1 X99.315 Y81.977 E3.90685
G1 X99.214 Y81.603 E3.92104
G1 X99.913 Y81.368 F9900.000
G1 X99.881 Y81.000 F540.000 E3.93456
G1 X99.913 Y80.632 E3.94807
G1 X100.009 Y80.275 E3.96159
G1 X100.165 Y79.940 E3.97510
G1 X100.377 Y79.638 E3.98862
G1 X100.638 Y79.377 E4.00213
G1 X100.940 Y79.165 E4.01565
G1 X101.275 Y79.009 E4.02916
G1 X101.632 Y78.913 E4.04268
G1 X102.000 Y78.881 E4.05619
G1 X102.368 Y78.913 E4.06971
G1 X102.725 Y79.009 E4.08322
G1 X103.115 Y79.203 E4.09916
G1 X103.362 Y79.377 E4.11022
G1 X103.623 Y79.638 E4.12374
G1 X103.835 Y79.940 E4.13725
G1 X103.991 Y80.275 E4.15077
G1 X104.087 Y80.632 E4.16428
G1 X104.119 Y81.000 E4.17780
G1 X104.087 Y81.368 E4.19131
G1 X103.991 Y81.725 E4.20483
G1 X103.797 Y82.115 E4.22077
G1 X103.623 Y82.362 E4.23183
G1 X103.362 Y82.623 E4.24534
G1 X103.060 Y82.835 E4.25886
G1 X102.725 Y82.991 E4.27237
G1 X102.368 Y83.087 E4.28589
G1 X102.000 Y83.119 E4.29940
G1 X101.632 Y83.087 E4.31292
G1 X101.275 Y82.991 E4.32644
G1 X100.940 Y82.835 E4.33995
G1 X100.638 Y82.623 E4.35347
G1 X100.377 Y82.362 E4.36698
G1 X100.165 Y82.060 E4.38050
G1 X100.009 Y81.725 E4.39401
G1 X99.942 Y81.475 E4.40349
G1 X99.570 Y81.232 F9900.000
G1 X99.650 Y81.103
G1 X100.510 Y79.260
G1 X102.024 Y78.709
G1 X137.976 Y78.709
G1 X145.650 Y81.103
G1 X145.142 Y81.000
G1 X145.186 Y80.504 F540.000 E4.42171
G1 X145.315 Y80.023 E4.43994
G1 X145.525 Y79.571 E4.45816
G1 X145.811 Y79.163 E4.47639
G1 X146.163 Y78.811 E4.49461
G1 X146.571 Y78.525 E4.51284
G1 X147.023 Y78.315 E4.53106
G1 X147.504 Y78.186 E4.54929
G1 X148.000 Y78.142 E4.56751
G1 X148.496 Y78.186 E4.58573
G1 X148.977 Y78.315 E4.60396
G1 X149.429 Y78.525 E4.62218
G1 X149.837 Y78.811 E4.64041
G1 X150.189 Y79.163 E4.65863
G1 X150.475 Y79.571 E4.67686
G1 X150.685 Y80.023 E4.69508
G1 X150.814 Y80.504 E4.71331
G1 X150.858 Y81.000 E4.73153
G1 X150.814 Y81.496 E4.74976
G1 X150.685 Y81.977 E4.76798
G1 X150.475 Y82.429 E4.78621
G1 X150.189 Y82.837 E4.80443
G1 X149.837 Y83.189 E4.82265
G1 X149.429 Y83.475 E4.84088
G1 X148.977 Y83.685 E4.85910
G1 X148.496 Y83.814 E4.87733
G1 X148.000 Y83.858 E4.89555
G1 X147.504 Y83.814 E4.91378
G1 X147.023 Y83.685 E4.93200
G1 X146.571 Y83.475 E4.95023
G1 X146.163 Y83.189 E4.96845
G1 X145.811 Y82.837 E4.98668
G1 X145.525 Y82.429 E5.00490
G1 X145.315 Y81.977 E5.02312
G1 X145.186 Y81.496 E5.04135
G1 X145.152 Y81.110 E5.05554
G1 X145.881 Y81.000 F9900.000
G1 X145.913 Y80.632 F540.000 E5.06905
G1 X146.009 Y80.275 E5.08257
G1 X146.165 Y79.940 E5.09608
G1 X146.377 Y79.638 E5.10960
G1 X146.638 Y79.377 E5.12311
G1 X146.940 Y79.165 E5.13663
G1 X147.275 Y79.009 E5.15014
G1 X147.632 Y78.913 E5.16366
G1 X148.000 Y78.881 E5.17717
G1 X148.368 Y78.913 E5.19069
G1 X148.725 Y79.009 E5.20420
G1 X149.060 Y79.165 E5.21772
G1 X149.362 Y79.377 E5.23124
G1 X149.623 Y79.638 E5.24475
G1 X149.835 Y79.940 E5.25827
G1 X149.991 Y80.275 E5.27178
G1 X150.087 Y80.632 E5.28530
G1 X150.119 Y81.000 E5.29881
G1 X150.087 Y81.368 E5.31233
G1 X149.991 Y81.725 E5.32584
G1 X149.835 Y82.060 E5.33936
G1 X149.623 Y82.362 E5.35287
G1 X149.362 Y82.623 E5.36639
G1 X149.060 Y82.835 E5.37990
G1 X148.725 Y82.991 E5.39342
G1 X148.368 Y83.087 E5.40693
G1 X148.000 Y83.119 E5.42045
G1 X147.632 Y83.087 E5.43396
G1 X147.275 Y82.991 E5.44748
G1 X146.940 Y82.835 E5.46100
G1 X146.638 Y82.623 E5.47451
G1 X146.377 Y82.362 E5.48803
G1 X146.165 Y82.060 E5.50154
G1 X146.009 Y81.725 E5.51506
G1 X145.913 Y81.368 E5.52857
G1 X145.890 Y81.110 E5.53805
G1 X145.566 Y80.806 F9900.000
G1 X140.858 Y81.000
G1 X140.814 Y81.496 F540.000 E5.55628
G1 X140.685 Y81.977 E5.57450
G1 X140.475 Y82.429 E5.59272
G1 X140.399 Y82.536 E5.59753
G1 X140.189 Y82.837 E5.61095
G1 X139.837 Y83.189 E5.62917
G1 X139.429 Y83.475 E5.64740
G1 X138.977 Y83.685 E5.66562
G1 X138.496 Y83.814 E5.68385
G1 X138.000 Y83.858 E5.70207
G1 X137.504 Y83.814 E5.72030
G1 X137.023 Y83.685 E5.73852
G1 X136.571 Y83.475 E5.75675
G1 X136.163 Y83.189 E5.77497
G1 X135.811 Y82.837 E5.79319
G1 X135.525 Y82.429 E5.81142
G1 X135.315 Y81.977 E5.82964
G1 X135.186 Y81.496 E5.84787
G1 X135.142 Y81.000 E5.86609
G1 X135.186 Y80.504 E5.88432
G1 X135.315 Y80.023 E5.90254
G1 X135.370 Y79.904 E5.90735
G1 X135.525 Y79.571 E5.92077
G1 X135.811 Y79.163 E5.93899
G1 X136.163 Y78.811 E5.95721
G1 X136.571 Y78.525 E5.97544
G1 X137.023 Y78.315 E5.99366
G1 X137.504 Y78.186 E6.01189
G1 X138.000 Y78.142 E6.03011
G1 X138.496 Y78.186 E6.04834
G1 X138.977 Y78.315 E6.06656
G1 X139.429 Y78.525 E6.08479
G1 X139.837 Y78.811 E6.10301
G1 X140.189 Y79.163 E6.12124
G1 X140.475 Y79.571 E6.13946
G1 X140.685 Y80.023 E6.15769
G1 X140.814 Y80.504 E6.17591
G1 X140.848 Y80.890 E6.19010
G1 X140.119 Y81.000 F9900.000
G1 X140.087 Y81.368 F540.000 E6.20361
G1 X139.991 Y81.725 E6.21713
G1 X139.797 Y82.115 E6.23306
G1 X139.623 Y82.362 E6.24413
G1 X139.362 Y82.623 E6.25764
G1 X139.060 Y82.835 E6.27116
G1 X138.725 Y82.991 E6.28467
G1 X138.368 Y83.087 E6.29819
G1 X138.000 Y83.119 E6.31170
G1 X137.567 Y83.070 E6.32764
G1 X137.275 Y82.991 E6.33870
G1 X136.940 Y82.835 E6.35222
G1 X136.638 Y82.623 E6.36573
G1 X136.377 Y82.362 E6.37925
G1 X136.165 Y82.060 E6.39276
G1 X136.009 Y81.725 E6.40628
G1 X135.913 Y81.368 E6.41979
G1 X135.881 Y81.000 E6.43331
G1 X135.913 Y80.632 E6.44682
G1 X136.009 Y80.275 E6.46034
G1 X136.165 Y79.940 E6.47385
G1 X136.377 Y79.638 E6.48737
G1 X136.638 Y79.377 E6.50088
G1 X136.940 Y79.165 E6.51440
G1 X137.275 Y79.009 E6.52792
G1 X137.632 Y78.913 E6.54143
G1 X138.000 Y78.881 E6.55495
G1 X138.368 Y78.913 E6.56846
G1 X138.725 Y79.009 E6.58198
G1 X139.060 Y79.165 E6.59549
G1 X139.362 Y79.377 E6.60901
G1 X139.623 Y79.638 E6.62252
G1 X139.835 Y79.940 E6.63604
G1 X139.991 Y80.275 E6.64955
G1 X140.087 Y80.632 E6.66307
G1 X140.110 Y80.890 E6.67255
G1 X140.434 Y81.194 F9900.000
G1 X136.623 Y94.720
G1 X136.977 Y94.815 F540.000 E6.68596
G1 X137.429 Y95.025 E6.70419
G1 X137.837 Y95.311 E6.72241
G1 X138.189 Y95.663 E6.74064
G1 X138.475 Y96.071 E6.75886
G1 X138.685 Y96.523 E6.77708
G1 X138.814 Y97.004 E6.79531
G1 X138.858 Y97.500 E6.81353
G1 X138.814 Y97.996 E6.83176
G1 X138.685 Y98.477 E6.84998
G1 X138.475 Y98.929 E6.86821
G1 X138.189 Y99.337 E6.88643
G1 X137.837 Y99.689 E6.90466
G1 X137.429 Y99.975 E6.92288
G1 X136.977 Y100.185 E6.94111
G1 X136.496 Y100.314 E6.95933
G1 X136.000 Y100.358 E6.97755
G1 X135.504 Y100.314 E6.99578
G1 X135.023 Y100.185 E7.01400
G1 X134.769 Y100.067 E7.02423
G1 X134.571 Y99.975 E7.03223
G1 X134.163 Y99.689 E7.05045
G1 X133.811 Y99.337 E7.06868
G1 X133.525 Y98.929 E7.08690
G1 X133.315 Y98.477 E7.10513
G1 X133.186 Y97.996 E7.12335
G1 X133.142 Y97.500 E7.14158
G1 X133.186 Y97.004 E7.15980
G1 X133.315 Y96.523 E7.17802
G1 X133.525 Y96.071 E7.19625
G1 X133.811 Y95.663 E7.21447
G1 X134.163 Y95.311 E7.23270
G1 X134.571 Y95.025 E7.25092
G1 X135.023 Y94.815 E7.26915
G1 X135.504 Y94.686 E7.28737
G1 X136.000 Y94.642 E7.30560
G1 X136.517 Y94.691 E7.32458
G1 X136.368 Y95.413 F9900.000
G1 X136.725 Y95.509 F540.000 E7.33810
G1 X137.060 Y95.665 E7.35161
G1 X137.362 Y95.877 E7.36513
G1 X137.623 Y96.138 E7.37864
G1 X137.835 Y96.440 E7.39216
G1 X138.009 Y96.840 E7.40809
G1 X138.087 Y97.132 E7.41916
G1 X138.119 Y97.500 E7.43267
G1 X138.087 Y97.868 E7.44619
G1 X137.991 Y98.225 E7.45970
G1 X137.835 Y98.560 E7.47322
G1 X137.623 Y98.862 E7.48673
G1 X137.362 Y99.123 E7.50025
G1 X137.060 Y99.335 E7.51376
G1 X136.725 Y99.491 E7.52728
G1 X136.368 Y99.587 E7.54079
G1 X136.000 Y99.619 E7.55431
