; generated by Slic3r 0.9.9-dev on 2013-11-02 at 17:45:51

; layer_height = 0.3
; perimeters = 2
; top_solid_layers = 4
; bottom_solid_layers = 4
; fill_density = 0.25
; perimeter_speed = 50
; infill_speed = 50
; travel_speed = 165
; nozzle_diameter = 0.5
; filament_diameter = 3.2
; extrusion_multiplier = 1
; perimeters extrusion width = 0.70mm
; infill extrusion width = 0.70mm
; solid infill extrusion width = 0.70mm
; top infill extrusion width = 0.70mm
; first layer extrusion width = 0.80mm

G21 ; set units to millimeters
M107
M190 S60 ; wait for bed temperature to be reached
M104 S195 ; set temperature
;G28 ; home all axes
;G1 Z5 F5000 ; lift nozzle
M109 S195 ; wait for temperature to be reached
G90 ; use absolute coordinates
G92 E0
M82 ; use absolute distances for extrusion
G1 F1800.000 E-1.00000
G1 Z0.700
G92 E0
G1 X74.005 Y55.850 F9900.000
G1 Z0.400
G1 F1800.000 E1.00000
G1 X74.365 Y55.430 F900.000 E1.02024
G1 X80.755 Y49.040 E1.35087
G1 X81.175 Y48.680 E1.37111
G1 X81.865 Y48.210 E1.40165
G1 X82.105 Y48.080 E1.41164
G1 X82.605 Y47.830 E1.43209
G1 X83.125 Y47.630 E1.45247
G1 X83.665 Y47.470 E1.47308
G1 X84.485 Y47.320 E1.50358
G1 X85.315 Y47.260 E1.53402
G1 X107.315 Y47.260 E2.33893
G1 X107.925 Y47.290 E2.36128
G1 X108.535 Y47.380 E2.38384
G1 X109.135 Y47.520 E2.40638
G1 X162.745 Y62.580 E4.44371
G1 X163.255 Y62.770 E4.46363
G1 X163.995 Y63.130 E4.49373
G1 X164.685 Y63.580 E4.52387
G1 X165.105 Y63.920 E4.54364
G1 X165.505 Y64.300 E4.56383
G1 X165.685 Y64.500 E4.57367
G1 X166.195 Y65.140 E4.60361
G1 X166.485 Y65.600 E4.62351
G1 X166.855 Y66.330 E4.65345
G1 X167.135 Y67.100 E4.68343
G1 X167.265 Y67.630 E4.70339
G1 X167.355 Y68.170 E4.72342
G1 X167.405 Y68.990 E4.75348
G1 X167.405 Y79.990 E5.15593
G1 X167.375 Y80.630 E5.17938
G1 X167.335 Y80.940 E5.19081
G1 X167.215 Y81.570 E5.21428
G1 X167.135 Y81.870 E5.22564
G1 X166.925 Y82.480 E5.24924
G1 X158.585 Y103.480 E6.07593
G1 X158.195 Y104.300 E6.10915
G1 X157.865 Y104.820 E6.13169
G1 X157.685 Y105.060 E6.14266
G1 X157.495 Y105.300 E6.15386
G1 X157.085 Y105.750 E6.17614
G1 X150.855 Y111.980 E6.49848
G1 X150.365 Y112.380 E6.52163
G1 X150.115 Y112.560 E6.53290
G1 X149.855 Y112.730 E6.54426
G1 X149.305 Y113.040 E6.56736
G1 X148.735 Y113.290 E6.59013
G1 X109.445 Y128.390 E8.13013
G1 X108.845 Y128.560 E8.15295
G1 X108.545 Y128.620 E8.16414
G1 X107.935 Y128.710 E8.18670
G1 X107.315 Y128.740 E8.20941
G1 X85.315 Y128.740 E9.01432
G1 X84.485 Y128.680 E9.04477
G1 X83.655 Y128.530 E9.07562
G1 X83.125 Y128.370 E9.09588
G1 X82.605 Y128.170 E9.11626
G1 X82.105 Y127.920 E9.13672
G1 X81.625 Y127.640 E9.15705
G1 X81.395 Y127.480 E9.16730
G1 X80.955 Y127.140 E9.18764
G1 X80.545 Y126.760 E9.20809
G1 X74.555 Y120.760 E9.51828
G1 X74.185 Y120.350 E9.53849
G1 X73.845 Y119.910 E9.55883
G1 X73.535 Y119.440 E9.57943
G1 X73.275 Y118.960 E9.59941
G1 X73.045 Y118.450 E9.61988
G1 X72.865 Y117.920 E9.64035
G1 X72.795 Y117.650 E9.65056
G1 X72.645 Y116.830 E9.68106
G1 X72.585 Y116.000 E9.71150
G1 X72.585 Y59.990 E11.76073
G1 X72.615 Y59.430 E11.78124
G1 X72.685 Y58.880 E11.80153
G1 X72.795 Y58.340 E11.82169
G1 X72.955 Y57.800 E11.84230
G1 X73.155 Y57.280 E11.86268
G1 X73.405 Y56.780 E11.88313
G1 X73.535 Y56.540 E11.89312
G1 X73.942 Y55.941 E11.91963
G1 F1800.000 E10.91963
G1 Z0.700
G92 E0
G1 X152.957 Y74.097 F9900.000
G1 Z0.400
G1 F1800.000 E1.00000
G1 X153.075 Y73.658 F540.000 E1.01662
G1 X153.267 Y73.246 E1.03326
G1 X153.527 Y72.874 E1.04989
G1 X153.849 Y72.552 E1.06651
G1 X154.221 Y72.292 E1.08315
G1 X154.633 Y72.100 E1.09978
G1 X155.072 Y71.982 E1.11641
G1 X155.525 Y71.942 E1.13304
G1 X155.978 Y71.982 E1.14967
G1 X156.417 Y72.100 E1.16630
G1 X156.829 Y72.292 E1.18293
G1 X157.201 Y72.553 E1.19957
G1 X157.522 Y72.874 E1.21618
G1 X157.585 Y72.963 E1.22017
G1 X157.783 Y73.246 E1.23282
G1 X157.975 Y73.658 E1.24945
G1 X158.093 Y74.097 E1.26607
G1 X158.133 Y74.550 E1.28270
G1 X158.093 Y75.002 E1.29932
G1 X157.975 Y75.442 E1.31596
G1 X157.783 Y75.854 E1.33259
G1 X157.523 Y76.226 E1.34922
G1 X157.201 Y76.548 E1.36586
G1 X156.829 Y76.808 E1.38248
G1 X156.417 Y77.000 E1.39912
G1 X156.312 Y77.029 E1.40310
G1 X155.978 Y77.118 E1.41575
G1 X155.525 Y77.158 E1.43238
G1 X155.072 Y77.118 E1.44901
G1 X154.633 Y77.000 E1.46564
G1 X154.221 Y76.808 E1.48227
G1 X153.849 Y76.548 E1.49890
G1 X153.527 Y76.226 E1.51554
G1 X153.267 Y75.854 E1.53216
G1 X153.075 Y75.442 E1.54879
G1 X152.957 Y75.003 E1.56542
G1 X152.917 Y74.550 E1.58206
G1 X152.947 Y74.207 E1.59465
G1 X153.684 Y74.225 F9900.000
G1 X153.769 Y73.911 F540.000 E1.60657
G1 X153.906 Y73.615 E1.61849
G1 X154.093 Y73.348 E1.63041
G1 X154.323 Y73.118 E1.64233
G1 X154.590 Y72.931 E1.65425
G1 X154.886 Y72.793 E1.66617
G1 X155.200 Y72.709 E1.67809
G1 X155.525 Y72.681 E1.69002
G1 X155.850 Y72.709 E1.70194
G1 X156.164 Y72.794 E1.71386
G1 X156.460 Y72.931 E1.72578
G1 X156.727 Y73.118 E1.73770
G1 X156.982 Y73.385 E1.75123
G1 X157.144 Y73.615 E1.76152
G1 X157.281 Y73.911 E1.77344
G1 X157.366 Y74.225 E1.78536
G1 X157.394 Y74.550 E1.79728
G1 X157.366 Y74.874 E1.80920
G1 X157.282 Y75.189 E1.82112
G1 X157.144 Y75.485 E1.83304
G1 X156.957 Y75.751 E1.84496
G1 X156.690 Y76.007 E1.85850
G1 X156.460 Y76.169 E1.86878
G1 X156.164 Y76.306 E1.88070
G1 X155.850 Y76.391 E1.89263
G1 X155.525 Y76.419 E1.90455
G1 X155.200 Y76.391 E1.91647
G1 X154.886 Y76.306 E1.92839
G1 X154.590 Y76.169 E1.94031
G1 X154.324 Y75.982 E1.95223
G1 X154.093 Y75.751 E1.96415
G1 X153.906 Y75.485 E1.97607
G1 X153.769 Y75.189 E1.98799
G1 X153.684 Y74.875 E1.99991
G1 X153.656 Y74.550 E2.01184
G1 X153.675 Y74.335 E2.01972
G1 X153.441 Y74.009 F9900.000
G1 X153.319 Y74.549
G1 X143.169 Y84.500
G1 X122.082 Y98.550
G1 X122.404 Y96.303
G1 X122.753 Y96.802 F540.000 E2.04199
G1 X123.010 Y97.354 E2.06430
G1 X123.168 Y97.943 E2.08659
G1 X123.221 Y98.550 E2.10889
G1 X123.168 Y99.157 E2.13119
G1 X123.010 Y99.746 E2.15348
G1 X122.753 Y100.298 E2.17578
G1 X122.403 Y100.797 E2.19807
G1 X121.972 Y101.228 E2.22037
G1 X121.473 Y101.578 E2.24265
G1 X120.921 Y101.835 E2.26497
G1 X120.332 Y101.993 E2.28725
G1 X119.725 Y102.046 E2.30955
G1 X119.118 Y101.993 E2.33186
G1 X118.530 Y101.835 E2.35413
G1 X117.977 Y101.578 E2.37644
G1 X117.478 Y101.228 E2.39875
G1 X117.046 Y100.797 E2.42106
G1 X116.697 Y100.298 E2.44332
G1 X116.440 Y99.746 E2.46563
G1 X116.282 Y99.157 E2.48792
G1 X116.229 Y98.550 E2.51022
G1 X116.282 Y97.943 E2.53251
G1 X116.440 Y97.354 E2.55481
G1 X116.697 Y96.802 E2.57711
G1 X117.047 Y96.303 E2.59941
G1 X117.478 Y95.872 E2.62170
G1 X117.977 Y95.522 E2.64399
G1 X118.529 Y95.265 E2.66630
G1 X119.118 Y95.107 E2.68858
G1 X119.725 Y95.054 E2.71089
G1 X120.332 Y95.107 E2.73319
G1 X120.921 Y95.265 E2.75547
G1 X121.473 Y95.522 E2.77777
G1 X121.972 Y95.872 E2.80008
G1 X122.325 Y96.225 E2.81835
G1 X121.838 Y96.778 F9900.000
G1 X122.113 Y97.171 F540.000 E2.83592
G1 X122.316 Y97.607 E2.85351
G1 X122.441 Y98.071 E2.87109
G1 X122.483 Y98.550 E2.88869
G1 X122.441 Y99.029 E2.90627
G1 X122.316 Y99.493 E2.92386
G1 X122.113 Y99.929 E2.94144
G1 X121.838 Y100.323 E2.95903
G1 X121.498 Y100.663 E2.97662
G1 X121.104 Y100.938 E2.99420
G1 X120.668 Y101.141 E3.01179
G1 X120.204 Y101.266 E3.02938
G1 X119.725 Y101.308 E3.04696
G1 X119.246 Y101.266 E3.06456
G1 X118.782 Y101.141 E3.08213
G1 X118.346 Y100.938 E3.09972
G1 X117.952 Y100.662 E3.11732
G1 X117.612 Y100.322 E3.13491
G1 X117.337 Y99.929 E3.15248
G1 X117.134 Y99.493 E3.17008
G1 X117.009 Y99.029 E3.18766
G1 X116.967 Y98.550 E3.20525
G1 X117.009 Y98.071 E3.22283
G1 X117.134 Y97.607 E3.24042
G1 X117.337 Y97.171 E3.25801
G1 X117.613 Y96.777 E3.27560
G1 X117.952 Y96.438 E3.29318
G1 X118.346 Y96.162 E3.31077
G1 X118.782 Y95.959 E3.32836
G1 X119.246 Y95.834 E3.34594
G1 X119.725 Y95.792 E3.36353
G1 X120.204 Y95.834 E3.38112
G1 X120.668 Y95.959 E3.39870
G1 X121.104 Y96.162 E3.41628
G1 X121.498 Y96.438 E3.43388
G1 X121.760 Y96.700 E3.44744
G1 X121.272 Y97.252 F9900.000
G1 X121.474 Y97.540 F540.000 E3.46031
G1 X121.622 Y97.859 E3.47319
G1 X121.714 Y98.199 E3.48606
G1 X121.744 Y98.550 E3.49894
G1 X121.714 Y98.901 E3.51182
G1 X121.622 Y99.241 E3.52470
G1 X121.474 Y99.560 E3.53757
G1 X121.272 Y99.848 E3.55045
G1 X121.023 Y100.097 E3.56333
G1 X120.735 Y100.299 E3.57620
G1 X120.416 Y100.447 E3.58909
G1 X120.076 Y100.539 E3.60196
G1 X119.725 Y100.569 E3.61484
G1 X119.374 Y100.539 E3.62772
G1 X119.034 Y100.447 E3.64059
G1 X118.715 Y100.299 E3.65347
G1 X118.427 Y100.097 E3.66635
G1 X118.178 Y99.848 E3.67923
G1 X117.976 Y99.560 E3.69210
G1 X117.828 Y99.241 E3.70498
G1 X117.736 Y98.901 E3.71786
G1 X117.706 Y98.550 E3.73074
G1 X117.736 Y98.199 E3.74361
G1 X117.828 Y97.859 E3.75649
G1 X117.976 Y97.540 E3.76937
G1 X118.178 Y97.252 E3.78225
G1 X118.427 Y97.003 E3.79512
G1 X118.715 Y96.801 E3.80800
G1 X119.034 Y96.653 E3.82088
G1 X119.374 Y96.561 E3.83376
G1 X119.725 Y96.531 E3.84664
G1 X120.076 Y96.561 E3.85951
G1 X120.416 Y96.653 E3.87239
G1 X120.735 Y96.801 E3.88527
G1 X121.023 Y97.003 E3.89815
G1 X121.194 Y97.174 E3.90699
G1 X121.620 Y97.201 F9900.000
G1 X132.152 Y100.839
G1 X132.152 Y91.161 F900.000 E4.26108
G1 X144.508 Y91.161 E4.71314
G1 X144.508 Y100.839 E5.06723
G1 X132.263 Y100.839 E5.51525
G1 X132.888 Y100.103 F9900.000
G1 X132.888 Y91.897 F540.000 E5.81551
G1 X143.772 Y91.897 E6.21374
G1 X143.772 Y100.103 E6.51400
G1 X132.998 Y100.103 E6.90819
G1 X133.624 Y99.368 F9900.000
G1 X133.624 Y92.632 F540.000 E7.15462
G1 X143.037 Y92.632 E7.49902
G1 X143.037 Y99.368 E7.74546
G1 X133.734 Y99.368 E8.08582
G1 X132.888 Y99.368 F9900.000
G1 X132.152 Y85.839
G1 X132.152 Y76.161 F900.000 E8.43991
G1 X144.508 Y76.161 E8.89197
G1 X144.508 Y85.839 E9.24606
G1 X132.263 Y85.839 E9.69408
G1 X132.888 Y85.103 F9900.000
G1 X132.888 Y76.897 F540.000 E9.99434
G1 X143.772 Y76.897 E10.39257
G1 X143.772 Y85.103 E10.69283
G1 X132.998 Y85.103 E11.08702
G1 X133.624 Y84.368 F9900.000
G1 X133.624 Y77.632 F540.000 E11.33346
G1 X143.037 Y77.632 E11.67786
G1 X143.037 Y84.368 E11.92429
G1 X133.734 Y84.368 E12.26466
G1 X132.888 Y84.368 F9900.000
G1 X121.838 Y76.323
G1 X121.497 Y76.663 F540.000 E12.28225
G1 X121.104 Y76.938 E12.29984
G1 X120.668 Y77.141 E12.31742
G1 X120.204 Y77.266 E12.33500
G1 X119.725 Y77.308 E12.35259
G1 X119.246 Y77.266 E12.37017
G1 X118.782 Y77.141 E12.38776
G1 X118.346 Y76.938 E12.40536
G1 X117.952 Y76.662 E12.42295
G1 X117.612 Y76.323 E12.44053
G1 X117.337 Y75.929 E12.45812
G1 X117.134 Y75.493 E12.47570
G1 X117.009 Y75.029 E12.49328
G1 X116.967 Y74.550 E12.51088
G1 X117.009 Y74.071 E12.52846
G1 X117.134 Y73.607 E12.54604
G1 X117.337 Y73.171 E12.56364
G1 X117.612 Y72.777 E12.58122
G1 X117.953 Y72.437 E12.59881
G1 X118.346 Y72.162 E12.61639
G1 X118.782 Y71.959 E12.63398
G1 X119.246 Y71.834 E12.65157
G1 X119.725 Y71.792 E12.66916
G1 X120.204 Y71.834 E12.68674
G1 X120.668 Y71.959 E12.70433
G1 X121.104 Y72.162 E12.72191
G1 X121.498 Y72.438 E12.73951
G1 X121.837 Y72.777 E12.75709
G1 X122.113 Y73.171 E12.77468
G1 X122.316 Y73.607 E12.79226
G1 X122.441 Y74.071 E12.80985
G1 X122.483 Y74.550 E12.82744
G1 X122.441 Y75.029 E12.84503
G1 X122.316 Y75.493 E12.86261
G1 X122.113 Y75.929 E12.88020
G1 X121.901 Y76.232 E12.89374
G1 X121.272 Y75.848 F9900.000
G1 X121.023 Y76.097 F540.000 E12.90663
G1 X120.735 Y76.299 E12.91950
G1 X120.416 Y76.447 E12.93238
G1 X120.076 Y76.539 E12.94525
G1 X119.725 Y76.569 E12.95813
G1 X119.374 Y76.539 E12.97101
G1 X119.034 Y76.447 E12.98389
G1 X118.715 Y76.299 E12.99677
G1 X118.427 Y76.097 E13.00965
G1 X118.178 Y75.848 E13.02252
G1 X117.976 Y75.560 E13.03540
G1 X117.828 Y75.241 E13.04828
G1 X117.736 Y74.901 E13.06115
G1 X117.706 Y74.550 E13.07403
G1 X117.736 Y74.199 E13.08691
G1 X117.828 Y73.859 E13.09978
G1 X117.976 Y73.540 E13.11266
G1 X118.178 Y73.252 E13.12554
G1 X118.427 Y73.003 E13.13842
G1 X118.715 Y72.801 E13.15129
G1 X119.034 Y72.653 E13.16417
G1 X119.374 Y72.561 E13.17705
G1 X119.725 Y72.531 E13.18993
G1 X120.076 Y72.561 E13.20281
G1 X120.416 Y72.653 E13.21568
G1 X120.735 Y72.801 E13.22856
G1 X121.023 Y73.003 E13.24144
G1 X121.272 Y73.252 E13.25432
G1 X121.474 Y73.540 E13.26719
G1 X121.622 Y73.859 E13.28007
G1 X121.714 Y74.199 E13.29295
G1 X121.744 Y74.550 E13.30583
G1 X121.714 Y74.901 E13.31870
G1 X121.622 Y75.241 E13.33158
G1 X121.474 Y75.560 E13.34446
G1 X121.335 Y75.758 E13.35330
G1 X121.383 Y76.182 F9900.000
G1 X119.914 Y76.718
G1 X119.488 Y76.681
G1 X99.090 Y69.000
G1 X100.429 Y70.339
G1 X86.221 Y70.339 F900.000 E13.87313
G1 X86.221 Y60.661 E14.22722
G1 X100.429 Y60.661 E14.74705
G1 X100.429 Y70.229 E15.09710
G1 X99.693 Y69.603 F9900.000
G1 X86.957 Y69.603 F900.000 E15.56311
G1 X86.957 Y61.397 E15.86337
G1 X99.693 Y61.397 E16.32937
G1 X99.693 Y69.493 E16.62560
G1 X98.958 Y68.868 F9900.000
G1 X87.692 Y68.868 F540.000 E17.03777
G1 X87.692 Y62.132 E17.28421
G1 X98.958 Y62.132 E17.69638
G1 X98.958 Y68.757 E17.93878
G1 X98.958 Y69.603 F9900.000
G1 X100.431 Y75.661
G1 X100.431 Y85.339 F900.000 E18.29287
G1 X86.221 Y85.339 E18.81278
G1 X86.221 Y75.661 E19.16687
G1 X100.321 Y75.661 E19.68274
G1 X99.696 Y76.397 F9900.000
G1 X99.696 Y84.603 F900.000 E19.98300
G1 X86.957 Y84.603 E20.44908
G1 X86.957 Y76.397 E20.74934
G1 X99.585 Y76.397 E21.21139
G1 X98.960 Y77.132 F9900.000
G1 X98.960 Y83.868 F540.000 E21.45782
G1 X87.692 Y83.868 E21.87007
G1 X87.692 Y77.132 E22.11651
G1 X98.850 Y77.132 E22.52472
G1 X99.696 Y77.132 F9900.000
G1 X100.431 Y90.661
G1 X100.431 Y100.339 F900.000 E22.87881
G1 X86.221 Y100.339 E23.39872
G1 X86.221 Y90.661 E23.75281
G1 X100.321 Y90.661 E24.26868
G1 X99.696 Y91.397 F9900.000
G1 X99.696 Y99.603 F900.000 E24.56894
G1 X86.957 Y99.603 E25.03502
G1 X86.957 Y91.397 E25.33529
G1 X99.585 Y91.397 E25.79733
G1 X98.960 Y92.132 F9900.000
G1 X98.960 Y98.868 F540.000 E26.04376
G1 X87.692 Y98.868 E26.45602
G1 X87.692 Y92.132 E26.70245
G1 X98.850 Y92.132 E27.11067
G1 X99.696 Y92.132 F9900.000
G1 X100.429 Y105.661
G1 X100.429 Y115.339 F900.000 E27.46476
G1 X86.221 Y115.339 E27.98459
G1 X86.221 Y105.661 E28.33868
G1 X100.319 Y105.661 E28.85447
G1 X99.693 Y106.397 F9900.000
G1 X99.693 Y114.603 F900.000 E29.15473
G1 X86.957 Y114.603 E29.62074
G1 X86.957 Y106.397 E29.92100
G1 X99.583 Y106.397 E30.38296
G1 X98.958 Y107.132 F9900.000
G1 X98.958 Y113.868 F540.000 E30.62940
G1 X87.692 Y113.868 E31.04157
G1 X87.692 Y107.132 E31.28801
G1 X98.848 Y107.132 E31.69615
G1 X99.693 Y107.132 F9900.000
G1 X105.486 Y105.161
G1 X105.486 Y120.161 F900.000 E32.24495
G1 X86.087 Y120.161 E32.95470
G1 X81.164 Y115.238 E33.20941
G1 X81.164 Y60.762 E35.20252
G1 X86.087 Y55.839 E35.45723
G1 X105.486 Y55.839 E36.16698
G1 X105.486 Y70.839 E36.71578
G1 X118.595 Y70.839 E37.19541
G1 X118.660 Y71.044 E37.20328
G1 X117.478 Y71.872 E37.25607
G1 X117.047 Y72.303 E37.27838
G1 X116.697 Y72.802 E37.30066
G1 X116.440 Y73.354 E37.32297
G1 X116.282 Y73.943 E37.34527
G1 X116.229 Y74.550 E37.36755
G1 X116.282 Y75.157 E37.38986
G1 X116.440 Y75.746 E37.41214
G1 X116.697 Y76.298 E37.43444
G1 X117.047 Y76.797 E37.45674
G1 X117.477 Y77.228 E37.47903
G1 X117.977 Y77.578 E37.50132
G1 X118.529 Y77.835 E37.52364
G1 X119.118 Y77.993 E37.54594
G1 X119.725 Y78.046 E37.56823
G1 X120.332 Y77.993 E37.59052
G1 X120.921 Y77.835 E37.61281
G1 X121.473 Y77.578 E37.63510
G1 X121.972 Y77.228 E37.65740
G1 X122.403 Y76.797 E37.67971
G1 X122.753 Y76.298 E37.70200
G1 X123.010 Y75.746 E37.72430
G1 X123.168 Y75.157 E37.74659
G1 X123.221 Y74.550 E37.76888
G1 X123.168 Y73.943 E37.79119
G1 X123.010 Y73.354 E37.81348
G1 X122.753 Y72.802 E37.83577
G1 X122.403 Y72.303 E37.85808
G1 X121.972 Y71.872 E37.88036
G1 X120.790 Y71.044 E37.93317
G1 X120.855 Y70.839 E37.94104
G1 X154.822 Y70.839 E39.18381
G1 X154.895 Y71.166 E39.19606
G1 X153.852 Y71.652 E39.23815
G1 X153.374 Y71.987 E39.25950
G1 X152.962 Y72.399 E39.28083
G1 X152.627 Y72.877 E39.30217
G1 X152.381 Y73.406 E39.32352
G1 X152.230 Y73.969 E39.34485
G1 X152.179 Y74.550 E39.36618
G1 X152.230 Y75.131 E39.38754
G1 X152.381 Y75.694 E39.40888
G1 X152.627 Y76.223 E39.43021
G1 X152.961 Y76.701 E39.45154
G1 X153.374 Y77.113 E39.47290
G1 X153.852 Y77.448 E39.49423
G1 X154.680 Y77.834 E39.52767
G1 X154.608 Y78.161 E39.53992
G1 X150.486 Y78.161 E39.69073
G1 X150.486 Y100.238 E40.49846
G1 X145.563 Y105.161 E40.75317
