; generated by Slic3r 0.9.9-dev on 2013-11-03 at 13:39:26

; layer_height = 0.3
; perimeters = 2
; top_solid_layers = 4
; bottom_solid_layers = 4
; fill_density = 0.25
; perimeter_speed = 50
; infill_speed = 50
; travel_speed = 165
; nozzle_diameter = 0.5
; filament_diameter = 3.2
; extrusion_multiplier = 1
; perimeters extrusion width = 0.70mm
; infill extrusion width = 0.70mm
; solid infill extrusion width = 0.70mm
; top infill extrusion width = 0.70mm
; first layer extrusion width = 0.80mm

G21 ; set units to millimeters
M107
M190 S60 ; wait for bed temperature to be reached
M104 S195 ; set temperature
;G28 ; home all axes
;G1 Z5 F5000 ; lift nozzle
M109 S195 ; wait for temperature to be reached
G90 ; use absolute coordinates
G92 E0
M82 ; use absolute distances for extrusion
G1 F1800.000 E-1.00000
G1 Z0.700
G92 E0
G1 X48.011 Y35.361 F9900.000
G1 Z0.400
G1 F1800.000 E1.00000
G1 X48.261 Y35.041 F900.000 E1.01486
G1 X64.161 Y16.651 E1.90430
G1 X64.601 Y16.221 E1.92681
G1 X64.761 Y16.091 E1.93435
G1 X65.101 Y15.871 E1.94917
G1 X65.651 Y15.601 E1.97158
G1 X66.031 Y15.481 E1.98616
G1 X66.231 Y15.431 E1.99371
G1 X66.631 Y15.371 E2.00850
G1 X67.041 Y15.351 E2.02352
G1 X67.451 Y15.381 E2.03856
G1 X67.851 Y15.451 E2.05342
G1 X91.941 Y22.541 E2.97217
G1 X92.301 Y22.661 E2.98606
G1 X92.741 Y22.841 E3.00345
G1 X93.311 Y23.131 E3.02685
G1 X93.711 Y23.381 E3.04411
G1 X94.211 Y23.751 E3.06686
G1 X95.061 Y24.541 E3.10932
G1 X183.771 Y113.261 E7.69956
G1 X184.271 Y113.821 E7.72703
G1 X184.641 Y114.341 E7.75038
G1 X184.881 Y114.741 E7.76744
G1 X185.141 Y115.251 E7.78839
G1 X185.441 Y116.041 E7.81931
G1 X192.541 Y140.141 E8.73851
G1 X192.611 Y140.541 E8.75337
G1 X192.641 Y140.951 E8.76841
G1 X192.621 Y141.351 E8.78306
G1 X192.561 Y141.761 E8.79823
G1 X192.391 Y142.341 E8.82034
G1 X192.311 Y142.531 E8.82788
G1 X192.121 Y142.891 E8.84277
G1 X191.901 Y143.231 E8.85759
G1 X191.641 Y143.541 E8.87239
G1 X191.341 Y143.831 E8.88766
G1 X172.951 Y159.731 E9.77710
G1 X172.631 Y159.981 E9.79196
G1 X172.091 Y160.291 E9.81474
G1 X171.701 Y160.441 E9.83003
G1 X171.101 Y160.591 E9.85265
G1 X170.891 Y160.621 E9.86042
G1 X170.481 Y160.641 E9.87543
G1 X169.861 Y160.581 E9.89822
G1 X169.661 Y160.541 E9.90569
G1 X169.261 Y160.421 E9.92097
G1 X168.881 Y160.261 E9.93605
G1 X168.511 Y160.061 E9.95144
G1 X168.341 Y159.941 E9.95905
G1 X167.871 Y159.541 E9.98163
G1 X48.451 Y40.121 E16.16059
G1 X48.051 Y39.651 E16.18317
G1 X47.931 Y39.481 E16.19079
G1 X47.731 Y39.111 E16.20617
G1 X47.571 Y38.731 E16.22126
G1 X47.451 Y38.331 E16.23654
G1 X47.381 Y37.931 E16.25140
G1 X47.351 Y37.511 E16.26680
G1 X47.361 Y37.301 E16.27449
G1 X47.371 Y37.101 E16.28182
G1 X47.441 Y36.691 E16.29704
G1 X47.621 Y36.091 E16.31996
G1 X47.701 Y35.901 E16.32750
G1 X47.954 Y35.456 E16.34624
G1 F1800.000 E15.34624
G1 Z0.700
G92 E0
G1 X52.652 Y37.482 F9900.000
G1 Z0.400
G1 F1800.000 E1.00000
G1 X65.132 Y25.002 F900.000 E1.64574
G1 X65.019 Y26.203 E1.68988
G1 X65.150 Y27.973 E1.75481
G1 X65.575 Y29.696 E1.81974
G1 X66.280 Y31.325 E1.88468
G1 X67.248 Y32.813 E1.94962
G1 X68.449 Y34.119 E2.01455
G1 X69.852 Y35.206 E2.07948
G1 X71.417 Y36.044 E2.14441
G1 X73.099 Y36.610 E2.20935
G1 X74.852 Y36.887 E2.27429
G1 X76.627 Y36.868 E2.33922
G1 X78.373 Y36.553 E2.40415
G1 X80.043 Y35.952 E2.46909
G1 X81.589 Y35.080 E2.53402
G1 X82.969 Y33.963 E2.59896
G1 X84.142 Y32.632 E2.66389
G1 X84.961 Y31.311 E2.72077
G1 X88.598 Y27.674 E2.90894
G1 X88.857 Y27.453 E2.92140
G1 X89.110 Y27.297 E2.93227
G1 X89.387 Y27.183 E2.94321
G1 X89.672 Y27.115 E2.95394
G1 X89.970 Y27.091 E2.96488
G1 X90.266 Y27.114 E2.97575
G1 X90.555 Y27.184 E2.98662
G1 X90.829 Y27.297 E2.99749
G1 X91.083 Y27.453 E3.00836
G1 X91.342 Y27.674 E3.02082
G1 X91.677 Y28.009 E3.03817
G1 X180.326 Y116.658 E7.62500
G1 X180.547 Y116.917 E7.63746
G1 X180.703 Y117.171 E7.64833
G1 X180.816 Y117.445 E7.65920
G1 X180.886 Y117.734 E7.67007
G1 X180.909 Y118.030 E7.68094
G1 X180.886 Y118.326 E7.69181
G1 X180.816 Y118.615 E7.70268
G1 X180.703 Y118.890 E7.71355
G1 X180.547 Y119.143 E7.72441
G1 X180.326 Y119.402 E7.73687
G1 X176.689 Y123.039 E7.92505
G1 X175.368 Y123.858 E7.98193
G1 X174.037 Y125.031 E8.04686
G1 X172.920 Y126.410 E8.11178
G1 X172.048 Y127.957 E8.17674
G1 X171.447 Y129.627 E8.24166
G1 X171.132 Y131.373 E8.30660
G1 X171.113 Y133.148 E8.37153
G1 X171.390 Y134.901 E8.43647
G1 X171.956 Y136.583 E8.50140
G1 X172.794 Y138.148 E8.56634
G1 X173.881 Y139.551 E8.63128
G1 X175.187 Y140.752 E8.69619
G1 X176.675 Y141.720 E8.76113
G1 X178.303 Y142.425 E8.82606
G1 X180.027 Y142.850 E8.89101
G1 X181.797 Y142.981 E8.95594
G1 X182.998 Y142.868 E9.00008
G1 X170.518 Y155.348 E9.64582
G1 X152.279 Y137.110 E10.58950
G1 X166.736 Y122.653 E11.33751
G1 X167.950 Y121.207 E11.40658
G1 X168.918 Y119.530 E11.47742
G1 X169.580 Y117.711 E11.54825
G1 X169.916 Y115.803 E11.61911
G1 X169.916 Y113.868 E11.68993
G1 X169.580 Y111.961 E11.76077
G1 X168.918 Y110.141 E11.83161
G1 X167.950 Y108.465 E11.90245
G1 X166.736 Y107.018 E11.97152
G1 X100.982 Y41.264 E15.37375
G1 X99.535 Y40.050 E15.44282
G1 X97.859 Y39.082 E15.51365
G1 X96.141 Y38.457 E15.58052
G1 X96.039 Y38.420 E15.58450
G1 X94.132 Y38.084 E15.65534
G1 X92.196 Y38.084 E15.72617
G1 X90.289 Y38.420 E15.79701
G1 X88.470 Y39.082 E15.86785
G1 X86.793 Y40.050 E15.93868
G1 X85.347 Y41.264 E16.00776
G1 X70.890 Y55.721 E16.75576
G1 X52.730 Y37.560 E17.69541
G1 X51.982 Y37.112 F9900.000
G1 X64.952 Y24.142 F630.000 E18.36649
G1 X65.494 Y22.342 E18.43526
G1 X66.264 Y20.763 E18.49955
G1 X67.044 Y19.660 E18.54896
G1 X67.764 Y20.380 E18.58620
G1 X67.025 Y21.469 E18.63436
G1 X66.338 Y22.971 E18.69478
G1 X65.912 Y24.566 E18.75519
G1 X65.758 Y26.210 E18.81561
G1 X65.879 Y27.857 E18.87602
G1 X66.274 Y29.460 E18.93644
G1 X66.931 Y30.976 E18.99685
G1 X67.831 Y32.360 E19.05727
G1 X68.949 Y33.575 E19.11769
G1 X70.254 Y34.587 E19.17810
G1 X71.710 Y35.367 E19.23851
G1 X73.275 Y35.893 E19.29893
G1 X74.906 Y36.151 E19.35935
G1 X76.557 Y36.133 E19.41976
G1 X78.182 Y35.840 E19.48018
G1 X79.736 Y35.281 E19.54059
G1 X81.174 Y34.470 E19.60101
G1 X82.458 Y33.430 E19.66142
G1 X83.549 Y32.192 E19.72184
G1 X84.381 Y30.851 E19.77957
G1 X88.098 Y27.133 E19.97191
G1 X88.423 Y26.856 E19.98755
G1 X88.775 Y26.640 E20.00266
G1 X89.159 Y26.481 E20.01783
G1 X89.556 Y26.386 E20.03279
G1 X89.970 Y26.353 E20.04797
G1 X90.381 Y26.386 E20.06308
G1 X90.783 Y26.482 E20.07818
G1 X91.164 Y26.640 E20.09329
G1 X91.516 Y26.856 E20.10839
G1 X91.841 Y27.133 E20.12403
G1 X92.197 Y27.489 E20.14244
G1 X180.867 Y116.159 E24.73033
G1 X181.144 Y116.484 E24.74597
G1 X181.360 Y116.836 E24.76107
G1 X181.518 Y117.217 E24.77618
G1 X181.614 Y117.619 E24.79129
G1 X181.647 Y118.030 E24.80639
G1 X181.614 Y118.442 E24.82149
G1 X181.518 Y118.843 E24.83660
G1 X181.360 Y119.225 E24.85170
G1 X181.144 Y119.577 E24.86681
G1 X180.867 Y119.902 E24.88245
G1 X177.149 Y123.619 E25.07479
G1 X175.808 Y124.451 E25.13252
G1 X174.570 Y125.542 E25.19294
G1 X173.530 Y126.826 E25.25335
G1 X172.719 Y128.264 E25.31377
G1 X172.160 Y129.818 E25.37418
G1 X171.867 Y131.443 E25.43460
G1 X171.849 Y133.094 E25.49501
G1 X172.107 Y134.725 E25.55543
G1 X172.633 Y136.290 E25.61584
G1 X173.393 Y137.709 E25.67472
G1 X174.425 Y139.051 E25.73666
G1 X175.640 Y140.169 E25.79706
G1 X177.024 Y141.069 E25.85748
G1 X178.539 Y141.726 E25.91790
G1 X180.143 Y142.121 E25.97832
G1 X181.748 Y142.239 E26.03719
G1 X183.434 Y142.088 E26.09913
G1 X185.029 Y141.662 E26.15954
G1 X186.531 Y140.975 E26.21995
G1 X187.620 Y140.236 E26.26811
G1 X188.340 Y140.956 E26.30536
G1 X187.237 Y141.736 E26.35477
G1 X185.658 Y142.506 E26.41906
G1 X183.858 Y143.048 E26.48782
G1 X170.518 Y156.388 E27.17807
G1 X151.239 Y137.110 E28.17559
G1 X166.193 Y122.155 E28.94933
G1 X167.345 Y120.783 E29.01487
G1 X168.248 Y119.218 E29.08100
G1 X168.867 Y117.519 E29.14713
G1 X169.180 Y115.739 E29.21327
G1 X169.180 Y113.932 E29.27939
G1 X168.867 Y112.152 E29.34552
G1 X168.248 Y110.453 E29.41165
G1 X167.345 Y108.888 E29.47778
G1 X166.193 Y107.516 E29.54332
G1 X100.484 Y41.807 E32.94320
G1 X99.112 Y40.655 E33.00874
G1 X97.547 Y39.752 E33.07486
G1 X95.890 Y39.149 E33.13937
G1 X94.068 Y38.820 E33.20710
G1 X92.261 Y38.820 E33.27323
G1 X90.481 Y39.133 E33.33936
G1 X88.782 Y39.752 E33.40549
G1 X87.217 Y40.655 E33.47162
G1 X85.845 Y41.807 E33.53716
G1 X70.890 Y56.761 E34.31090
G1 X51.612 Y37.482 E35.30842
G1 X51.904 Y37.190 E35.32355
G1 X52.693 Y37.302 F9900.000
G1 X65.435 Y30.715
G1 X62.804 Y28.084 F900.000 E35.46018
G1 X63.326 Y27.562 E35.48730
G1 X64.883 Y29.119 E35.56817
G1 X64.602 Y27.794 E35.61792
G1 X63.848 Y27.040 E35.65709
G1 X64.370 Y26.518 E35.68420
G1 X64.519 Y26.666 E35.69192
G1 X66.921 Y33.245 F9900.000
G1 X62.282 Y28.606 F900.000 E35.93284
G1 X61.760 Y29.128 E35.95995
G1 X79.244 Y46.613 E36.86800
G1 X78.722 Y47.135 E36.89511
G1 X61.238 Y29.651 E37.80316
G1 X60.716 Y30.173 E37.83027
G1 X78.200 Y47.657 E38.73832
G1 X77.678 Y48.179 E38.76544
G1 X60.194 Y30.695 E39.67348
G1 X59.671 Y31.217 E39.70060
G1 X77.156 Y48.701 E40.60864
G1 X76.634 Y49.223 E40.63576
G1 X59.149 Y31.739 E41.54381
G1 X58.627 Y32.261 E41.57092
G1 X76.112 Y49.745 E42.47897
G1 X75.589 Y50.268 E42.50608
G1 X58.105 Y32.783 E43.41413
G1 X57.583 Y33.305 E43.44125
G1 X75.067 Y50.790 E44.34929
G1 X74.545 Y51.312 E44.37641
G1 X57.061 Y33.827 E45.28445
G1 X56.539 Y34.349 E45.31157
G1 X74.023 Y51.834 E46.21962
G1 X73.501 Y52.356 E46.24673
G1 X56.017 Y34.872 E47.15478
G1 X55.495 Y35.394 E47.18189
G1 X72.979 Y52.878 E48.08994
G1 X72.457 Y53.400 E48.11706
G1 X54.972 Y35.916 E49.02510
G1 X54.450 Y36.438 E49.05222
G1 X71.935 Y53.922 E49.96026
G1 X71.413 Y54.444 E49.98738
G1 X53.928 Y36.960 E50.89543
G1 X53.406 Y37.482 E50.92254
G1 X70.891 Y54.966 E51.83059
G1 X68.536 Y34.861 F9900.000
G1 X79.766 Y46.091 F900.000 E52.41381
G1 X80.288 Y45.569 E52.44093
G1 X71.281 Y36.561 E52.90873
G1 X72.854 Y37.090 E52.96968
G1 X80.811 Y45.046 E53.38290
G1 X81.333 Y44.524 E53.41001
G1 X74.119 Y37.311 E53.78465
G1 X75.268 Y37.416 E53.82702
G1 X81.855 Y44.002 E54.16909
G1 X82.377 Y43.480 E54.19621
G1 X76.301 Y37.405 E54.51174
G1 X77.240 Y37.299 E54.54643
G1 X82.899 Y42.958 E54.84033
G1 X83.421 Y42.436 E54.86744
G1 X78.125 Y37.140 E55.14250
G1 X78.944 Y36.914 E55.17369
G1 X83.943 Y41.914 E55.43333
G1 X84.465 Y41.392 E55.46044
G1 X79.711 Y36.638 E55.70733
G1 X80.451 Y36.334 E55.73671
G1 X84.987 Y40.870 E55.97229
G1 X85.555 Y40.393 E55.99951
G1 X81.119 Y35.957 E56.22989
G1 X81.787 Y35.581 E56.25804
G1 X86.123 Y39.917 E56.48323
G1 X86.725 Y39.474 E56.51066
G1 X82.378 Y35.128 E56.73640
G1 X82.955 Y34.660 E56.76367
G1 X87.387 Y39.092 E56.99383
G1 X88.049 Y38.710 E57.02190
G1 X83.503 Y34.164 E57.25801
G1 X83.992 Y33.609 E57.28518
G1 X88.784 Y38.401 E57.53405
G1 X89.549 Y38.122 E57.56397
G1 X84.481 Y33.054 E57.82720
G1 X84.897 Y32.426 E57.85486
G1 X90.341 Y37.870 E58.13759
G1 X91.229 Y37.713 E58.17069
G1 X85.297 Y31.781 E58.47876
G1 X85.793 Y31.233 E58.50591
G1 X92.116 Y37.557 E58.83432
G1 X93.155 Y37.551 E58.87246
G1 X86.315 Y30.711 E59.22768
G1 X86.837 Y30.189 E59.25480
G1 X94.203 Y37.555 E59.63736
G1 X95.471 Y37.779 E59.68463
G1 X87.359 Y29.667 E60.10592
G1 X87.881 Y29.145 E60.13303
G1 X96.904 Y38.168 E60.60164
G1 X98.779 Y38.998 E60.67694
G1 X88.403 Y28.623 E61.21579
G1 X88.926 Y28.100 E61.24290
G1 X179.900 Y119.074 E65.96761
G1 X180.310 Y118.440 E65.99535
G1 X89.559 Y27.690 E70.70845
G1 X90.979 Y28.065 E70.76237
G1 X179.935 Y117.021 E75.38229
G1 X169.002 Y109.221 F9900.000
G1 X179.377 Y119.597 F900.000 E75.92114
G1 X178.855 Y120.119 E75.94826
G1 X169.832 Y111.096 E76.41686
G1 X170.221 Y112.529 E76.47141
G1 X178.333 Y120.641 E76.89269
G1 X177.811 Y121.163 E76.91981
G1 X170.445 Y113.797 E77.30237
G1 X170.449 Y114.845 E77.34087
G1 X177.289 Y121.685 E77.69610
G1 X176.767 Y122.207 E77.72321
G1 X170.443 Y115.883 E78.05163
G1 X170.287 Y116.771 E78.08473
G1 X176.219 Y122.703 E78.39280
G1 X175.574 Y123.103 E78.42065
G1 X170.130 Y117.659 E78.70338
G1 X169.878 Y118.451 E78.73390
G1 X174.946 Y123.519 E78.99712
G1 X174.391 Y124.008 E79.02429
G1 X169.599 Y119.216 E79.27317
G1 X169.290 Y119.951 E79.30245
G1 X173.836 Y124.497 E79.53856
G1 X173.340 Y125.045 E79.56571
G1 X168.908 Y120.613 E79.79587
G1 X168.526 Y121.275 E79.82394
G1 X172.872 Y125.622 E80.04969
G1 X172.419 Y126.213 E80.07704
G1 X168.083 Y121.877 E80.30223
G1 X167.607 Y122.445 E80.32945
G1 X172.043 Y126.881 E80.55983
G1 X171.666 Y127.549 E80.58798
G1 X167.130 Y123.013 E80.82356
G1 X166.608 Y123.535 E80.85068
G1 X171.362 Y128.289 E81.09756
G1 X171.086 Y129.056 E81.12753
G1 X166.086 Y124.057 E81.38717
G1 X165.564 Y124.579 E81.41429
G1 X170.860 Y129.875 E81.68934
G1 X170.701 Y130.760 E81.72236
G1 X165.042 Y125.101 E82.01625
G1 X164.520 Y125.623 E82.04337
G1 X170.595 Y131.699 E82.35890
G1 X170.584 Y132.732 E82.39684
G1 X163.998 Y126.145 E82.73892
G1 X163.476 Y126.667 E82.76603
G1 X170.689 Y133.881 E83.14067
G1 X170.910 Y135.146 E83.18783
G1 X162.954 Y127.189 E83.60105
G1 X162.431 Y127.712 E83.62817
G1 X171.439 Y136.719 E84.09597
G1 X173.140 Y139.464 F9900.000
G1 X161.909 Y128.234 F900.000 E84.67921
G1 X161.387 Y128.756 E84.70633
G1 X178.872 Y146.240 E85.61438
G1 X178.349 Y146.762 E85.64149
G1 X160.865 Y129.278 E86.54954
G1 X160.343 Y129.800 E86.57665
G1 X177.827 Y147.284 E87.48470
G1 X177.305 Y147.806 E87.51182
G1 X159.821 Y130.322 E88.41986
G1 X159.299 Y130.844 E88.44698
G1 X176.783 Y148.329 E89.35502
G1 X176.261 Y148.851 E89.38214
G1 X158.777 Y131.366 E90.29019
G1 X158.255 Y131.888 E90.31730
G1 X175.739 Y149.373 E91.22535
G1 X175.217 Y149.895 E91.25246
G1 X157.732 Y132.410 E92.16051
G1 X157.210 Y132.933 E92.18762
G1 X174.695 Y150.417 E93.09567
G1 X174.173 Y150.939 E93.12279
G1 X156.688 Y133.455 E94.03083
G1 X156.166 Y133.977 E94.05795
G1 X173.651 Y151.461 E94.96600
G1 X173.128 Y151.983 E94.99311
G1 X155.644 Y134.499 E95.90116
G1 X155.122 Y135.021 E95.92827
G1 X172.606 Y152.505 E96.83632
G1 X172.084 Y153.028 E96.86343
G1 X154.600 Y135.543 E97.77148
G1 X154.078 Y136.065 E97.79860
G1 X171.562 Y153.550 E98.70664
G1 X171.040 Y154.072 E98.73376
G1 X153.556 Y136.587 E99.64180
G1 X153.034 Y137.109 E99.66892
G1 X170.518 Y154.594 E100.57697
G1 X174.756 Y141.080 F9900.000
G1 X179.394 Y145.718 F900.000 E100.81782
G1 X179.916 Y145.196 E100.84494
G1 X177.285 Y142.565 E100.98157
G1 X178.881 Y143.117 E101.04357
G1 X180.438 Y144.674 E101.12445
G1 X180.960 Y144.152 E101.15156
G1 X180.206 Y143.398 E101.19073
G1 X181.334 Y143.481 E101.23225
G1 X181.482 Y143.630 E101.23997
M140 S56 ; set bed temperature
G1 F1800.000 E100.23997
G1 Z1.000
G92 E0
G1 X181.683 Y142.850 F9900.000
G1 Z0.700
G1 F1800.000 E1.00000
G1 X181.796 Y142.859 F3000.000 E1.00276
G1 X183.323 Y142.715 E1.04021
G1 X170.518 Y155.520 E1.48232
G1 X152.107 Y137.110 E2.11798
G1 X166.646 Y122.571 E2.61996
G1 X167.849 Y121.137 E2.66566
G1 X168.807 Y119.478 E2.71241
G1 X169.421 Y117.791 E2.75624
G1 X169.462 Y117.679 E2.75916
G1 X169.794 Y115.793 E2.80591
G1 X169.794 Y113.878 E2.85266
G1 X169.462 Y111.992 E2.89941
G1 X168.807 Y110.193 E2.94616
G1 X167.849 Y108.535 E2.99291
G1 X166.646 Y107.101 E3.03861
G1 X100.899 Y41.354 E5.30864
G1 X99.465 Y40.151 E5.35434
G1 X97.807 Y39.193 E5.40109
G1 X96.120 Y38.579 E5.44492
G1 X96.008 Y38.538 E5.44784
G1 X94.122 Y38.206 E5.49459
G1 X92.207 Y38.206 E5.54134
G1 X90.439 Y38.517 E5.58517
G1 X90.321 Y38.538 E5.58809
G1 X88.522 Y39.193 E5.63484
G1 X86.863 Y40.151 E5.68159
G1 X85.429 Y41.354 E5.72729
G1 X70.890 Y55.893 E6.22927
G1 X52.480 Y37.482 E6.86493
G1 X65.285 Y24.677 E7.30704
G1 X65.141 Y26.204 E7.34449
G1 X65.271 Y27.954 E7.38732
G1 X65.690 Y29.657 E7.43015
G1 X66.388 Y31.267 E7.47298
G1 X67.344 Y32.738 E7.51581
G1 X68.532 Y34.029 E7.55864
G1 X69.829 Y35.034 E7.59871
G1 X69.919 Y35.104 E7.60148
G1 X71.465 Y35.932 E7.64431
G1 X73.128 Y36.491 E7.68714
G1 X74.861 Y36.765 E7.72997
G1 X76.615 Y36.746 E7.77280
G1 X78.342 Y36.435 E7.81563
G1 X79.992 Y35.841 E7.85846
G1 X81.521 Y34.979 E7.90129
G1 X82.884 Y33.875 E7.94413
G1 X84.044 Y32.559 E7.98696
G1 X84.865 Y31.235 E8.02500
G1 X88.515 Y27.584 E8.15103
G1 X88.785 Y27.354 E8.15970
G1 X89.055 Y27.189 E8.16742
G1 X89.352 Y27.066 E8.17527
G1 X89.649 Y26.994 E8.18273
