; generated by Slic3r 0.9.9-dev on 2013-11-03 at 11:25:12

; layer_height = 0.3
; perimeters = 2
; top_solid_layers = 4
; bottom_solid_layers = 4
; fill_density = 0.25
; perimeter_speed = 50
; infill_speed = 50
; travel_speed = 165
; nozzle_diameter = 0.5
; filament_diameter = 3.2
; extrusion_multiplier = 1
; perimeters extrusion width = 0.70mm
; infill extrusion width = 0.70mm
; solid infill extrusion width = 0.70mm
; top infill extrusion width = 0.70mm
; first layer extrusion width = 0.80mm

G21 ; set units to millimeters
M107
M190 S60 ; wait for bed temperature to be reached
M104 S195 ; set temperature
;G28 ; home all axes
;G1 Z5 F5000 ; lift nozzle
M109 S195 ; wait for temperature to be reached
G90 ; use absolute coordinates
G92 E0
M82 ; use absolute distances for extrusion
G1 F1800.000 E-1.00000
G1 Z0.700
G92 E0
G1 X56.221 Y113.261 F9900.000
G1 Z0.400
G1 F1800.000 E1.00000
G1 X145.261 Y24.221 F900.000 E5.60706
G1 X145.821 Y23.721 E5.63452
G1 X146.281 Y23.381 E5.65545
G1 X146.681 Y23.131 E5.67271
G1 X147.251 Y22.841 E5.69611
G1 X147.691 Y22.661 E5.71350
G1 X148.051 Y22.541 E5.72738
G1 X172.141 Y15.451 E6.64614
G1 X172.541 Y15.381 E6.66099
G1 X172.951 Y15.351 E6.67604
G1 X173.361 Y15.371 E6.69105
G1 X173.761 Y15.431 E6.70585
G1 X173.961 Y15.481 E6.71339
G1 X174.341 Y15.601 E6.72797
G1 X174.891 Y15.871 E6.75039
G1 X175.231 Y16.091 E6.76521
G1 X175.391 Y16.221 E6.77275
G1 X175.831 Y16.651 E6.79526
G1 X191.731 Y35.041 E7.68470
G1 X191.981 Y35.361 E7.69956
G1 X192.091 Y35.541 E7.70728
G1 X192.291 Y35.901 E7.72234
G1 X192.371 Y36.091 E7.72989
G1 X192.551 Y36.691 E7.75280
G1 X192.621 Y37.101 E7.76802
G1 X192.631 Y37.301 E7.77535
G1 X192.641 Y37.511 E7.78304
G1 X192.611 Y37.931 E7.79845
G1 X192.541 Y38.331 E7.81330
G1 X192.421 Y38.731 E7.82858
G1 X192.261 Y39.111 E7.84367
G1 X192.061 Y39.481 E7.85906
G1 X191.941 Y39.651 E7.86667
G1 X191.541 Y40.121 E7.88925
G1 X72.121 Y159.541 E14.06821
G1 X71.811 Y159.821 E14.08349
G1 X71.481 Y160.061 E14.09842
G1 X71.111 Y160.261 E14.11381
G1 X70.731 Y160.421 E14.12890
G1 X70.331 Y160.541 E14.14417
G1 X69.721 Y160.631 E14.16673
G1 X69.301 Y160.631 E14.18210
G1 X68.891 Y160.591 E14.19717
G1 X68.291 Y160.441 E14.21980
G1 X67.901 Y160.291 E14.23509
G1 X67.361 Y159.981 E14.25787
G1 X67.201 Y159.861 E14.26519
G1 X48.651 Y143.831 E15.16217
G1 X48.221 Y143.391 E15.18468
G1 X48.091 Y143.231 E15.19222
G1 X47.871 Y142.891 E15.20704
G1 X47.601 Y142.341 E15.22945
G1 X47.481 Y141.961 E15.24403
G1 X47.431 Y141.761 E15.25157
G1 X47.371 Y141.361 E15.26637
G1 X47.351 Y140.951 E15.28139
G1 X47.381 Y140.541 E15.29643
G1 X47.451 Y140.141 E15.31129
G1 X54.541 Y116.051 E16.23004
G1 X54.661 Y115.691 E16.24393
G1 X54.841 Y115.251 E16.26132
G1 X55.131 Y114.681 E16.28472
G1 X55.381 Y114.281 E16.30198
G1 X55.721 Y113.821 E16.32290
G1 X56.145 Y113.341 E16.34634
G1 F1800.000 E15.34634
G1 Z0.700
G92 E0
G1 X59.674 Y116.658 F9900.000
G1 Z0.400
G1 F1800.000 E1.00000
G1 X148.658 Y27.674 F900.000 E5.60419
G1 X148.917 Y27.453 E5.61665
G1 X149.171 Y27.297 E5.62752
G1 X149.445 Y27.184 E5.63839
G1 X149.734 Y27.114 E5.64926
G1 X150.030 Y27.091 E5.66012
G1 X150.326 Y27.114 E5.67099
G1 X150.615 Y27.184 E5.68186
G1 X150.890 Y27.297 E5.69273
G1 X151.143 Y27.453 E5.70360
G1 X151.402 Y27.674 E5.71606
G1 X155.039 Y31.311 E5.90424
G1 X155.858 Y32.632 E5.96112
G1 X157.031 Y33.963 E6.02604
G1 X158.411 Y35.080 E6.09097
G1 X159.957 Y35.952 E6.15591
G1 X161.626 Y36.553 E6.22084
G1 X163.373 Y36.868 E6.28578
G1 X165.148 Y36.887 E6.35071
G1 X166.901 Y36.610 E6.41565
G1 X168.583 Y36.044 E6.48059
G1 X170.056 Y35.255 E6.54172
G1 X170.148 Y35.206 E6.54552
G1 X171.551 Y34.119 E6.61045
G1 X172.752 Y32.813 E6.67539
G1 X173.720 Y31.325 E6.74032
G1 X174.425 Y29.697 E6.80525
G1 X174.850 Y27.973 E6.87019
G1 X174.981 Y26.203 E6.93513
G1 X174.868 Y25.002 E6.97926
G1 X187.348 Y37.482 E7.62500
G1 X169.110 Y55.721 E8.56869
G1 X154.653 Y41.264 E9.31670
G1 X153.207 Y40.050 E9.38577
G1 X151.530 Y39.082 E9.45660
G1 X149.711 Y38.420 E9.52744
G1 X147.804 Y38.084 E9.59828
G1 X145.868 Y38.084 E9.66912
G1 X143.961 Y38.420 E9.73996
G1 X142.141 Y39.082 E9.81080
G1 X140.465 Y40.050 E9.88163
G1 X139.018 Y41.264 E9.95071
G1 X73.690 Y106.592 E13.33087
G1 X73.264 Y107.018 E13.35293
G1 X72.050 Y108.465 E13.42201
G1 X71.082 Y110.141 E13.49284
G1 X70.420 Y111.961 E13.56368
G1 X70.084 Y113.868 E13.63452
G1 X70.084 Y115.804 E13.70536
G1 X70.420 Y117.711 E13.77620
G1 X71.082 Y119.530 E13.84704
G1 X72.050 Y121.207 E13.91787
G1 X73.264 Y122.653 E13.98695
G1 X87.721 Y137.110 E14.73495
G1 X69.482 Y155.348 E15.67864
G1 X57.002 Y142.868 E16.32438
G1 X58.203 Y142.981 E16.36851
G1 X59.973 Y142.850 E16.43345
G1 X61.697 Y142.425 E16.49840
G1 X63.325 Y141.720 E16.56331
G1 X64.813 Y140.752 E16.62825
G1 X66.119 Y139.551 E16.69319
G1 X67.206 Y138.148 E16.75813
G1 X68.430 Y135.863 E16.85297
G1 X68.286 Y135.863 E16.85823
G1 X68.610 Y134.901 E16.89535
G1 X68.887 Y133.148 E16.96029
G1 X68.868 Y131.373 E17.02521
G1 X68.553 Y129.627 E17.09015
G1 X67.952 Y127.957 E17.15508
G1 X67.080 Y126.411 E17.22002
G1 X65.963 Y125.032 E17.28494
G1 X64.632 Y123.858 E17.34988
G1 X63.311 Y123.039 E17.40676
G1 X59.674 Y119.402 E17.59494
G1 X59.453 Y119.143 E17.60740
G1 X59.297 Y118.890 E17.61827
G1 X59.183 Y118.613 E17.62921
G1 X59.115 Y118.328 E17.63993
G1 X59.091 Y118.030 E17.65087
G1 X59.114 Y117.734 E17.66174
G1 X59.184 Y117.445 E17.67261
G1 X59.297 Y117.171 E17.68348
G1 X59.453 Y116.917 E17.69435
G1 X59.602 Y116.742 E17.70277
G1 X59.133 Y116.159 F9900.000
G1 X148.159 Y27.133 F630.000 E22.30908
G1 X148.484 Y26.856 E22.32471
G1 X148.836 Y26.640 E22.33982
G1 X149.217 Y26.482 E22.35492
G1 X149.619 Y26.386 E22.37003
G1 X150.030 Y26.353 E22.38513
G1 X150.442 Y26.386 E22.40024
G1 X150.843 Y26.482 E22.41534
G1 X151.225 Y26.640 E22.43045
G1 X151.577 Y26.856 E22.44555
G1 X151.902 Y27.133 E22.46119
G1 X155.619 Y30.851 E22.65354
G1 X156.451 Y32.192 E22.71127
G1 X157.542 Y33.430 E22.77168
G1 X158.826 Y34.470 E22.83209
G1 X160.264 Y35.281 E22.89251
G1 X161.818 Y35.840 E22.95292
G1 X163.443 Y36.133 E23.01334
G1 X165.094 Y36.151 E23.07375
G1 X166.725 Y35.893 E23.13417
G1 X168.290 Y35.367 E23.19459
G1 X169.709 Y34.607 E23.25346
G1 X171.051 Y33.575 E23.31540
G1 X172.169 Y32.360 E23.37581
G1 X173.069 Y30.976 E23.43622
G1 X173.726 Y29.461 E23.49664
G1 X174.121 Y27.857 E23.55706
G1 X174.239 Y26.252 E23.61594
G1 X174.088 Y24.566 E23.67787
G1 X173.662 Y22.971 E23.73828
G1 X172.975 Y21.469 E23.79869
G1 X172.236 Y20.380 E23.84686
G1 X172.956 Y19.660 E23.88410
G1 X173.736 Y20.763 E23.93351
G1 X174.506 Y22.342 E23.99780
G1 X175.048 Y24.142 E24.06656
G1 X188.388 Y37.482 E24.75682
G1 X169.110 Y56.761 E25.75433
G1 X154.155 Y41.807 E26.52808
G1 X152.783 Y40.655 E26.59362
G1 X151.218 Y39.752 E26.65974
G1 X149.519 Y39.133 E26.72587
G1 X147.739 Y38.820 E26.79200
G1 X145.932 Y38.820 E26.85813
G1 X144.152 Y39.133 E26.92426
G1 X142.453 Y39.752 E26.99039
G1 X140.888 Y40.655 E27.05652
G1 X139.516 Y41.807 E27.12206
G1 X74.210 Y107.112 E30.50105
G1 X73.807 Y107.516 E30.52194
G1 X72.655 Y108.888 E30.58748
G1 X71.752 Y110.453 E30.65361
G1 X71.133 Y112.152 E30.71974
G1 X70.820 Y113.932 E30.78587
G1 X70.820 Y115.739 E30.85200
G1 X71.133 Y117.519 E30.91813
G1 X71.752 Y119.218 E30.98426
G1 X72.655 Y120.783 E31.05038
G1 X73.807 Y122.155 E31.11593
G1 X88.761 Y137.110 E31.88967
G1 X69.482 Y156.388 E32.88718
G1 X56.142 Y143.048 E33.57744
G1 X54.342 Y142.506 E33.64620
G1 X52.763 Y141.736 E33.71049
G1 X51.660 Y140.956 E33.75990
G1 X52.380 Y140.236 E33.79714
G1 X53.469 Y140.975 E33.84531
G1 X54.971 Y141.662 E33.90571
G1 X56.566 Y142.088 E33.96614
G1 X58.210 Y142.242 E34.02655
G1 X59.815 Y142.124 E34.08543
G1 X61.461 Y141.726 E34.14736
G1 X62.976 Y141.069 E34.20777
G1 X64.325 Y140.192 E34.26665
G1 X65.575 Y139.051 E34.32858
G1 X66.587 Y137.746 E34.38900
G1 X67.367 Y136.290 E34.44941
G1 X67.893 Y134.725 E34.50983
G1 X68.151 Y133.094 E34.57025
G1 X68.133 Y131.443 E34.63066
G1 X67.840 Y129.818 E34.69108
G1 X67.281 Y128.264 E34.75149
G1 X66.470 Y126.826 E34.81191
G1 X65.431 Y125.543 E34.87232
G1 X64.192 Y124.451 E34.93273
G1 X62.851 Y123.619 E34.99046
G1 X59.133 Y119.902 E35.18281
G1 X58.856 Y119.577 E35.19845
G1 X58.640 Y119.225 E35.21355
G1 X58.481 Y118.841 E35.22873
G1 X58.386 Y118.444 E35.24369
G1 X58.353 Y118.030 E35.25887
G1 X58.386 Y117.619 E35.27398
G1 X58.482 Y117.217 E35.28908
G1 X58.640 Y116.836 E35.30419
G1 X58.856 Y116.484 E35.31929
G1 X59.062 Y116.243 E35.33089
G1 X59.849 Y116.330 F9900.000
G1 X71.361 Y121.079
G1 X63.684 Y113.402 F900.000 E35.72835
G1 X64.205 Y112.882 E35.75530
G1 X70.322 Y118.999 E36.07200
G1 X69.837 Y117.473 E36.13060
G1 X64.725 Y112.361 E36.39525
G1 X65.246 Y111.841 E36.42220
G1 X69.614 Y116.209 E36.64837
G1 X69.551 Y115.105 E36.68886
G1 X65.766 Y111.320 E36.88480
G1 X66.287 Y110.800 E36.91175
G1 X69.551 Y114.064 E37.08074
G1 X69.670 Y113.142 E37.11476
G1 X66.807 Y110.279 E37.26300
G1 X67.328 Y109.759 E37.28995
G1 X69.826 Y112.257 E37.41932
G1 X70.044 Y111.434 E37.45049
G1 X67.848 Y109.238 E37.56419
G1 X68.369 Y108.718 E37.59114
G1 X70.322 Y110.671 E37.69228
G1 X70.601 Y109.909 E37.72199
G1 X68.889 Y108.197 E37.81061
G1 X69.410 Y107.677 E37.83756
G1 X70.982 Y109.249 E37.91896
G1 X71.363 Y108.589 E37.94686
G1 X69.930 Y107.156 E38.02104
G1 X70.451 Y106.636 E38.04799
G1 X71.777 Y107.962 E38.11663
G1 X72.252 Y107.396 E38.14368
G1 X70.971 Y106.115 E38.20997
G1 X71.492 Y105.595 E38.23692
G1 X72.726 Y106.829 E38.30085
G1 X73.233 Y106.295 E38.32780
G1 X72.012 Y105.074 E38.39102
G1 X72.533 Y104.554 E38.41797
G1 X73.754 Y105.775 E38.48118
G1 X74.274 Y105.254 E38.50813
G1 X73.053 Y104.033 E38.57134
G1 X73.574 Y103.513 E38.59829
G1 X74.795 Y104.734 E38.66150
G1 X75.315 Y104.213 E38.68845
G1 X74.094 Y102.992 E38.75166
G1 X74.615 Y102.472 E38.77861
G1 X75.836 Y103.693 E38.84182
G1 X76.356 Y103.172 E38.86877
G1 X75.135 Y101.951 E38.93199
G1 X75.656 Y101.431 E38.95893
G1 X76.877 Y102.652 E39.02215
G1 X77.397 Y102.131 E39.04909
G1 X76.176 Y100.910 E39.11231
G1 X76.697 Y100.390 E39.13926
G1 X77.918 Y101.611 E39.20247
G1 X78.438 Y101.090 E39.22942
G1 X77.217 Y99.869 E39.29263
G1 X77.738 Y99.349 E39.31958
G1 X78.959 Y100.570 E39.38279
G1 X79.479 Y100.049 E39.40974
G1 X78.258 Y98.828 E39.47295
G1 X78.779 Y98.308 E39.49990
G1 X80.000 Y99.529 E39.56311
G1 X80.520 Y99.008 E39.59006
G1 X79.299 Y97.787 E39.65328
G1 X79.820 Y97.267 E39.68022
G1 X81.041 Y98.488 E39.74344
G1 X81.561 Y97.967 E39.77039
G1 X80.340 Y96.746 E39.83360
G1 X80.861 Y96.226 E39.86055
G1 X82.082 Y97.447 E39.92376
G1 X82.602 Y96.926 E39.95071
G1 X81.381 Y95.705 E40.01392
G1 X81.902 Y95.185 E40.04087
G1 X83.123 Y96.406 E40.10408
G1 X83.643 Y95.885 E40.13103
G1 X82.422 Y94.664 E40.19424
G1 X82.943 Y94.144 E40.22119
G1 X84.164 Y95.365 E40.28440
G1 X84.684 Y94.844 E40.31135
G1 X83.463 Y93.623 E40.37457
G1 X83.984 Y93.103 E40.40151
G1 X85.205 Y94.324 E40.46473
G1 X85.725 Y93.803 E40.49168
G1 X84.504 Y92.582 E40.55489
G1 X85.025 Y92.062 E40.58184
G1 X86.246 Y93.283 E40.64505
G1 X86.766 Y92.762 E40.67200
G1 X85.545 Y91.541 E40.73521
G1 X86.066 Y91.021 E40.76216
G1 X87.287 Y92.242 E40.82537
G1 X87.807 Y91.721 E40.85232
G1 X86.586 Y90.500 E40.91553
G1 X87.107 Y89.980 E40.94248
G1 X88.328 Y91.201 E41.00569
G1 X88.848 Y90.680 E41.03264
G1 X87.627 Y89.459 E41.09586
G1 X88.148 Y88.939 E41.12280
G1 X89.369 Y90.160 E41.18602
G1 X89.889 Y89.639 E41.21297
G1 X88.668 Y88.418 E41.27618
G1 X89.189 Y87.898 E41.30313
G1 X90.410 Y89.119 E41.36634
G1 X90.930 Y88.598 E41.39329
G1 X89.709 Y87.377 E41.45650
G1 X90.230 Y86.857 E41.48345
G1 X91.451 Y88.078 E41.54666
G1 X91.971 Y87.557 E41.57361
G1 X90.750 Y86.336 E41.63682
G1 X91.271 Y85.816 E41.66377
G1 X92.492 Y87.037 E41.72698
G1 X93.012 Y86.516 E41.75393
G1 X91.791 Y85.295 E41.81715
G1 X92.312 Y84.775 E41.84409
G1 X93.533 Y85.996 E41.90731
G1 X94.053 Y85.475 E41.93426
G1 X92.832 Y84.254 E41.99747
G1 X93.353 Y83.734 E42.02442
G1 X94.574 Y84.955 E42.08763
G1 X95.094 Y84.434 E42.11458
G1 X93.873 Y83.213 E42.17779
G1 X94.394 Y82.693 E42.20474
G1 X95.615 Y83.914 E42.26795
G1 X96.135 Y83.393 E42.29490
G1 X94.914 Y82.172 E42.35811
G1 X95.435 Y81.652 E42.38506
G1 X96.655 Y82.873 E42.44827
G1 X97.176 Y82.352 E42.47522
G1 X95.955 Y81.131 E42.53844
G1 X96.476 Y80.611 E42.56538
G1 X97.696 Y81.832 E42.62860
G1 X98.217 Y81.311 E42.65555
G1 X96.996 Y80.090 E42.71876
G1 X97.517 Y79.570 E42.74571
G1 X98.737 Y80.791 E42.80892
G1 X99.258 Y80.270 E42.83587
G1 X98.037 Y79.049 E42.89908
G1 X98.558 Y78.529 E42.92603
G1 X99.778 Y79.750 E42.98924
G1 X100.299 Y79.229 E43.01619
G1 X99.078 Y78.008 E43.07940
G1 X99.599 Y77.488 E43.10635
G1 X100.819 Y78.709 E43.16956
G1 X101.340 Y78.188 E43.19651
G1 X100.119 Y76.967 E43.25973
G1 X100.640 Y76.447 E43.28667
G1 X101.860 Y77.668 E43.34989
G1 X102.381 Y77.147 E43.37684
G1 X101.160 Y75.926 E43.44005
G1 X101.681 Y75.406 E43.46700
G1 X102.901 Y76.627 E43.53021
G1 X103.422 Y76.106 E43.55716
G1 X102.201 Y74.885 E43.62037
G1 X102.722 Y74.365 E43.64732
G1 X103.942 Y75.586 E43.71053
G1 X104.463 Y75.065 E43.73748
G1 X103.242 Y73.844 E43.80069
G1 X103.763 Y73.324 E43.82764
G1 X104.983 Y74.545 E43.89086
G1 X105.504 Y74.024 E43.91780
G1 X104.283 Y72.803 E43.98102
G1 X104.804 Y72.283 E44.00797
G1 X106.024 Y73.504 E44.07118
G1 X106.545 Y72.983 E44.09813
G1 X105.324 Y71.762 E44.16134
G1 X105.845 Y71.242 E44.18829
G1 X107.065 Y72.463 E44.25150
G1 X107.586 Y71.942 E44.27845
G1 X106.365 Y70.721 E44.34166
G1 X106.886 Y70.201 E44.36861
G1 X108.106 Y71.422 E44.43182
G1 X108.627 Y70.901 E44.45877
G1 X107.406 Y69.680 E44.52198
G1 X107.927 Y69.160 E44.54893
G1 X109.147 Y70.381 E44.61215
G1 X109.668 Y69.860 E44.63909
G1 X108.447 Y68.639 E44.70231
G1 X108.968 Y68.119 E44.72926
G1 X110.188 Y69.340 E44.79247
G1 X110.709 Y68.819 E44.81942
G1 X109.488 Y67.598 E44.88263
G1 X110.008 Y67.078 E44.90958
G1 X111.229 Y68.299 E44.97279
G1 X111.750 Y67.778 E44.99974
G1 X110.529 Y66.557 E45.06295
G1 X111.049 Y66.037 E45.08990
G1 X112.270 Y67.258 E45.15311
G1 X112.791 Y66.737 E45.18006
G1 X111.570 Y65.516 E45.24327
G1 X112.090 Y64.996 E45.27022
G1 X113.311 Y66.217 E45.33344
G1 X113.832 Y65.696 E45.36038
G1 X112.611 Y64.476 E45.42360
G1 X113.131 Y63.955 E45.45055
G1 X114.352 Y65.176 E45.51376
G1 X114.873 Y64.655 E45.54071
G1 X113.652 Y63.435 E45.60392
G1 X114.172 Y62.914 E45.63087
G1 X115.393 Y64.135 E45.69408
G1 X115.914 Y63.614 E45.72103
G1 X114.693 Y62.394 E45.78424
G1 X115.213 Y61.873 E45.81119
G1 X116.434 Y63.094 E45.87440
G1 X116.955 Y62.573 E45.90135
G1 X115.734 Y61.353 E45.96457
G1 X116.254 Y60.832 E45.99151
G1 X117.475 Y62.053 E46.05473
G1 X117.996 Y61.532 E46.08168
G1 X116.775 Y60.312 E46.14489
G1 X117.295 Y59.791 E46.17184
G1 X118.516 Y61.012 E46.23505
G1 X119.037 Y60.491 E46.26200
G1 X117.816 Y59.271 E46.32521
G1 X118.336 Y58.750 E46.35216
G1 X119.557 Y59.971 E46.41537
G1 X120.078 Y59.450 E46.44232
G1 X118.857 Y58.230 E46.50553
G1 X119.377 Y57.709 E46.53248
G1 X120.598 Y58.930 E46.59569
G1 X121.119 Y58.409 E46.62264
G1 X119.898 Y57.189 E46.68586
G1 X120.418 Y56.668 E46.71280
G1 X121.639 Y57.889 E46.77602
G1 X122.160 Y57.368 E46.80297
G1 X120.939 Y56.148 E46.86618
G1 X121.459 Y55.627 E46.89313
G1 X122.680 Y56.848 E46.95634
G1 X123.201 Y56.327 E46.98329
G1 X121.980 Y55.107 E47.04650
G1 X122.500 Y54.586 E47.07345
G1 X123.721 Y55.807 E47.13666
G1 X124.242 Y55.286 E47.16361
G1 X123.021 Y54.066 E47.22682
G1 X123.541 Y53.545 E47.25377
G1 X124.762 Y54.766 E47.31698
G1 X125.283 Y54.245 E47.34393
G1 X124.062 Y53.025 E47.40715
G1 X124.582 Y52.504 E47.43409
G1 X125.803 Y53.725 E47.49731
G1 X126.324 Y53.204 E47.52426
G1 X125.103 Y51.984 E47.58747
G1 X125.623 Y51.463 E47.61442
G1 X126.844 Y52.684 E47.67763
G1 X127.365 Y52.164 E47.70458
G1 X126.144 Y50.943 E47.76779
G1 X126.664 Y50.422 E47.79474
G1 X127.885 Y51.643 E47.85795
G1 X128.406 Y51.123 E47.88490
G1 X127.185 Y49.902 E47.94811
G1 X127.705 Y49.381 E47.97506
G1 X128.926 Y50.602 E48.03828
G1 X129.447 Y50.082 E48.06522
G1 X128.226 Y48.861 E48.12844
G1 X128.746 Y48.340 E48.15539
G1 X129.967 Y49.561 E48.21860
G1 X130.488 Y49.041 E48.24555
G1 X129.267 Y47.820 E48.30876
G1 X129.787 Y47.299 E48.33571
