; generated by Slic3r 0.9.9-dev on 2013-08-11 at 13:05:13

; layer_height = 0.3
; perimeters = 2
; top_solid_layers = 4
; bottom_solid_layers = 4
; fill_density = 0.25
; perimeter_speed = 50
; infill_speed = 50
; travel_speed = 165
; nozzle_diameter = 0.5
; filament_diameter = 3.2
; extrusion_multiplier = 1
; perimeters extrusion width = 0.70mm
; infill extrusion width = 0.70mm
; solid infill extrusion width = 0.70mm
; top infill extrusion width = 0.70mm
; first layer extrusion width = 0.80mm

G21 ; set units to millimeters
M107
M190 S70 ; wait for bed temperature to be reached
M104 S187 ; set temperature
;G28 ; home all axes
;G1 Z5 F5000 ; lift nozzle
M109 S187 ; wait for temperature to be reached
G90 ; use absolute coordinates
G92 E0
M82 ; use absolute distances for extrusion
G1 F1800.000 E-1.00000
G1 Z0.700
G92 E0
G1 X99.608 Y65.670 F9900.000
G1 Z0.400
G1 F1800.000 E1.00000
G1 X99.928 Y65.240 F900.000 E1.01961
G1 X100.478 Y64.640 E1.04939
G1 X101.098 Y64.120 E1.07900
G1 X101.778 Y63.670 E1.10883
G1 X102.258 Y63.410 E1.12880
G1 X103.018 Y63.110 E1.15870
G1 X103.798 Y62.900 E1.18825
G1 X104.338 Y62.810 E1.20828
G1 X105.148 Y62.760 E1.23797
G1 X123.638 Y62.760 E1.91446
G1 X125.418 Y62.860 E1.97969
G1 X126.288 Y62.960 E2.01173
G1 X127.648 Y63.220 E2.06238
G1 X128.418 Y63.420 E2.09149
G1 X129.748 Y63.840 E2.14252
G1 X130.538 Y64.140 E2.17344
G1 X131.798 Y64.720 E2.22419
G1 X132.518 Y65.110 E2.25415
G1 X133.698 Y65.840 E2.30491
G1 X134.388 Y66.320 E2.33566
G1 X135.468 Y67.190 E2.38640
G1 X136.098 Y67.780 E2.41798
G1 X137.058 Y68.780 E2.46870
G1 X137.568 Y69.380 E2.49751
G1 X138.408 Y70.490 E2.54844
G1 X138.888 Y71.210 E2.58010
G1 X139.578 Y72.420 E2.63106
G1 X139.948 Y73.180 E2.66199
G1 X140.478 Y74.460 E2.71267
G1 X140.738 Y75.190 E2.74103
G1 X141.118 Y76.520 E2.79163
G1 X141.298 Y77.360 E2.82306
G1 X141.508 Y78.740 E2.87413
G1 X141.588 Y79.750 E2.91120
G1 X141.588 Y81.750 E2.98438
G1 X141.568 Y82.230 E3.00195
G1 X139.808 Y106.980 E3.90976
G1 X139.748 Y107.520 E3.92964
G1 X139.638 Y108.060 E3.94980
G1 X139.498 Y108.580 E3.96950
G1 X139.408 Y108.840 E3.97957
G1 X139.198 Y109.340 E3.99941
G1 X138.948 Y109.830 E4.01954
G1 X138.658 Y110.290 E4.03943
G1 X138.158 Y110.940 E4.06944
G1 X137.778 Y111.330 E4.08936
G1 X137.368 Y111.700 E4.10956
G1 X136.938 Y112.030 E4.12940
G1 X136.478 Y112.320 E4.14929
G1 X135.988 Y112.580 E4.16959
G1 X135.488 Y112.790 E4.18943
G1 X134.978 Y112.970 E4.20921
G1 X134.448 Y113.100 E4.22918
G1 X133.908 Y113.190 E4.24921
G1 X133.358 Y113.230 E4.26939
G1 X105.148 Y113.240 E5.30150
G1 X104.338 Y113.190 E5.33119
G1 X103.798 Y113.100 E5.35122
G1 X103.018 Y112.890 E5.38077
G1 X102.258 Y112.590 E5.41066
G1 X101.548 Y112.190 E5.44048
G1 X100.888 Y111.720 E5.47012
G1 X100.478 Y111.360 E5.49009
G1 X99.928 Y110.760 E5.51987
G1 X99.608 Y110.330 E5.53948
G1 X99.318 Y109.870 E5.55937
G1 X99.058 Y109.390 E5.57934
G1 X98.848 Y108.890 E5.59919
G1 X98.608 Y108.110 E5.62904
G1 X98.498 Y107.580 E5.64885
G1 X98.458 Y107.310 E5.65883
G1 X98.408 Y106.500 E5.68853
G1 X98.408 Y69.500 E7.04223
G1 X98.458 Y68.690 E7.07193
G1 X98.548 Y68.150 E7.09196
G1 X98.678 Y67.630 E7.11157
G1 X98.848 Y67.110 E7.13158
G1 X99.058 Y66.610 E7.15142
G1 X99.318 Y66.130 E7.17140
G1 X99.548 Y65.762 E7.18725
G1 F1800.000 E6.18725
G1 Z0.700
G92 E0
G1 X106.251 Y70.603 F9900.000
G1 Z0.400
G1 F1800.000 E1.00000
G1 X119.600 Y70.603 F900.000 E1.48839
G1 X119.673 Y70.927 E1.50051
G1 X118.453 Y71.502 E1.54983
G1 X117.204 Y72.325 E1.60459
G1 X116.082 Y73.316 E1.65934
G1 X115.111 Y74.455 E1.71409
G1 X114.310 Y75.719 E1.76884
G1 X113.695 Y77.083 E1.82360
G1 X113.169 Y78.893 E1.89256
G1 X113.225 Y78.893 E1.89458
G1 X113.067 Y80.002 E1.93555
G1 X113.067 Y81.498 E1.99030
G1 X113.278 Y82.980 E2.04505
G1 X113.695 Y84.417 E2.09981
G1 X114.310 Y85.781 E2.15456
G1 X115.111 Y87.045 E2.20931
G1 X116.082 Y88.184 E2.26406
G1 X117.204 Y89.175 E2.31882
G1 X118.453 Y89.998 E2.37357
G1 X119.807 Y90.637 E2.42832
G1 X121.236 Y91.079 E2.48307
G1 X122.714 Y91.315 E2.53783
G1 X124.211 Y91.341 E2.59258
G1 X125.696 Y91.156 E2.64733
G1 X127.140 Y90.764 E2.70208
G1 X128.515 Y90.173 E2.75684
G1 X129.792 Y89.394 E2.81159
G1 X130.948 Y88.443 E2.86634
G1 X131.990 Y87.303 E2.92286
G1 X131.990 Y105.397 E3.58483
G1 X106.251 Y105.397 E4.52654
G1 X106.251 Y70.714 E5.79547
G1 X105.516 Y69.868 F9900.000
G1 X123.635 Y69.868 F630.000 E6.45841
G1 X124.987 Y69.951 E6.50796
G1 X126.307 Y70.199 E6.55709
G1 X127.586 Y70.607 E6.60622
G1 X128.806 Y71.169 E6.65535
G1 X129.946 Y71.877 E6.70448
G1 X130.991 Y72.721 E6.75361
G1 X131.924 Y73.687 E6.80273
G1 X132.731 Y74.760 E6.85186
G1 X133.400 Y75.924 E6.90099
G1 X133.920 Y77.163 E6.95012
G1 X134.283 Y78.455 E6.99925
G1 X134.424 Y79.382 E7.03356
G1 X133.402 Y79.382 E7.07096
G1 X133.217 Y78.340 E7.10968
G1 X132.782 Y77.017 E7.16062
G1 X132.166 Y75.769 E7.21157
G1 X131.380 Y74.619 E7.26251
G1 X130.440 Y73.592 E7.31346
G1 X129.365 Y72.707 E7.36440
G1 X128.176 Y71.982 E7.41535
G1 X127.167 Y71.548 E7.45553
G1 X126.897 Y71.432 E7.46629
G1 X125.553 Y71.067 E7.51724
G1 X124.171 Y70.895 E7.56819
G1 X122.779 Y70.919 E7.61913
G1 X121.404 Y71.139 E7.67008
G1 X120.074 Y71.551 E7.72102
G1 X118.815 Y72.145 E7.77197
G1 X117.652 Y72.911 E7.82291
G1 X116.608 Y73.833 E7.87386
G1 X115.704 Y74.892 E7.92480
G1 X114.959 Y76.069 E7.97575
G1 X114.387 Y77.338 E8.02670
G1 X113.999 Y78.675 E8.07764
G1 X113.803 Y80.054 E8.12859
G1 X113.803 Y81.446 E8.17953
G1 X113.999 Y82.825 E8.23048
G1 X114.387 Y84.162 E8.28142
G1 X114.959 Y85.431 E8.33237
G1 X115.704 Y86.608 E8.38331
G1 X116.417 Y87.443 E8.42350
G1 X116.608 Y87.667 E8.43426
G1 X117.652 Y88.589 E8.48521
G1 X118.815 Y89.355 E8.53615
G1 X120.074 Y89.949 E8.58710
G1 X121.404 Y90.361 E8.63804
G1 X122.779 Y90.581 E8.68899
G1 X124.171 Y90.605 E8.73993
G1 X125.553 Y90.433 E8.79088
G1 X126.897 Y90.068 E8.84182
G1 X128.176 Y89.518 E8.89277
G1 X129.365 Y88.793 E8.94372
G1 X130.440 Y87.908 E8.99466
G1 X131.182 Y87.098 E9.03485
G1 X131.380 Y86.881 E9.04561
G1 X132.166 Y85.731 E9.09655
G1 X132.782 Y84.483 E9.14750
G1 X133.217 Y83.160 E9.19844
G1 X133.402 Y82.118 E9.23716
G1 X134.425 Y82.118 E9.27458
G1 X134.289 Y83.021 E9.30800
G1 X133.936 Y84.291 E9.35624
G1 X133.432 Y85.510 E9.40447
G1 X132.726 Y86.762 E9.45706
G1 X132.726 Y106.132 E10.16576
G1 X105.516 Y106.132 E11.16130
G1 X105.516 Y69.978 E12.48406
G1 X106.153 Y70.236 F9900.000
G1 X117.744 Y71.137
G1 X117.179 Y71.636 F900.000 E12.51226
G1 X116.679 Y71.137 E12.53867
G1 X115.616 Y71.137 E12.57848
G1 X116.614 Y72.135 E12.63130
G1 X116.049 Y72.634 E12.65951
G1 X114.552 Y71.137 E12.73873
G1 X113.488 Y71.137 E12.77854
G1 X115.513 Y73.162 E12.88570
G1 X115.023 Y73.736 E12.91394
G1 X112.424 Y71.137 E13.05148
G1 X111.360 Y71.137 E13.09129
G1 X114.557 Y74.333 E13.26045
G1 X114.144 Y74.985 E13.28930
G1 X110.296 Y71.137 E13.49292
G1 X109.232 Y71.137 E13.53273
G1 X113.753 Y75.657 E13.77194
G1 X113.422 Y76.391 E13.80204
G1 X108.168 Y71.137 E14.08006
G1 X107.104 Y71.137 E14.11987
G1 X113.119 Y77.152 E14.43818
G1 X112.880 Y77.977 E14.47031
G1 X106.784 Y71.881 E14.79287
G1 X106.784 Y72.945 E14.83268
G1 X112.641 Y78.801 E15.14257
G1 X112.534 Y79.758 E15.17860
G1 X106.784 Y74.009 E15.48283
G1 X106.784 Y75.073 E15.52264
G1 X112.534 Y80.822 E15.82687
G1 X112.592 Y81.944 E15.86890
G1 X106.784 Y76.137 E16.17620
G1 X106.784 Y77.201 E16.21601
G1 X112.787 Y83.204 E16.53366
G1 X113.252 Y84.732 E16.59343
G1 X106.784 Y78.265 E16.93565
G1 X106.784 Y79.329 E16.97546
G1 X114.442 Y86.986 E17.38068
G1 X114.828 Y85.482 F9900.000
G1 X116.521 Y87.777
G1 X132.594 Y106.000
G1 X129.435 Y88.923
G1 X131.242 Y88.891
G1 X131.457 Y89.106 F900.000 E17.39206
G1 X131.457 Y90.170 E17.43187
G1 X130.659 Y89.372 E17.47412
G1 X130.072 Y89.848 E17.50242
G1 X131.457 Y91.234 E17.57575
G1 X131.457 Y92.298 E17.61556
G1 X129.411 Y90.251 E17.72386
G1 X128.748 Y90.653 E17.75284
G1 X131.457 Y93.362 E17.89619
G1 X131.457 Y94.426 E17.93600
G1 X128.004 Y90.973 E18.11872
G1 X127.253 Y91.286 E18.14916
G1 X131.457 Y95.490 E18.37161
G1 X131.457 Y96.554 E18.41142
G1 X126.417 Y91.513 E18.67815
G1 X125.551 Y91.712 E18.71137
G1 X131.457 Y97.618 E19.02390
G1 X131.457 Y98.682 E19.06371
G1 X124.605 Y91.829 E19.42631
G1 X123.575 Y91.863 E19.46487
G1 X131.457 Y99.746 E19.88196
G1 X131.457 Y100.810 E19.92177
G1 X122.463 Y91.815 E20.39774
G1 X121.196 Y91.612 E20.44574
G1 X131.457 Y101.874 E20.98873
G1 X131.457 Y102.937 E21.02854
G1 X119.673 Y91.153 E21.65210
G1 X117.395 Y89.939 E21.74868
G1 X131.457 Y104.001 E22.49279
G1 X131.255 Y104.863 E22.52591
G1 X106.784 Y80.393 E23.82081
G1 X106.784 Y81.456 E23.86062
G1 X130.191 Y104.863 E25.09922
G1 X129.127 Y104.863 E25.13903
G1 X106.784 Y82.520 E26.32134
G1 X106.784 Y83.584 E26.36115
G1 X128.063 Y104.863 E27.48715
G1 X127.000 Y104.863 E27.52696
G1 X106.784 Y84.648 E28.59666
G1 X106.784 Y85.712 E28.63647
G1 X125.936 Y104.863 E29.64987
G1 X124.872 Y104.863 E29.68968
G1 X106.784 Y86.776 E30.64679
G1 X106.784 Y87.840 E30.68660
G1 X123.808 Y104.863 E31.58740
G1 X122.744 Y104.863 E31.62721
G1 X106.784 Y88.904 E32.47171
G1 X106.784 Y89.968 E32.51152
G1 X121.680 Y104.863 E33.29973
G1 X120.616 Y104.863 E33.33954
G1 X106.784 Y91.032 E34.07144
G1 X106.784 Y92.096 E34.11125
G1 X119.552 Y104.863 E34.78686
G1 X118.488 Y104.863 E34.82667
G1 X106.784 Y93.160 E35.44597
G1 X106.784 Y94.224 E35.48578
G1 X117.424 Y104.863 E36.04879
G1 X116.360 Y104.863 E36.08860
G1 X106.784 Y95.288 E36.59531
G1 X106.784 Y96.352 E36.63512
G1 X115.296 Y104.863 E37.08552
G1 X114.232 Y104.863 E37.12533
G1 X106.784 Y97.416 E37.51944
G1 X106.784 Y98.480 E37.55925
G1 X113.168 Y104.863 E37.89706
G1 X112.104 Y104.863 E37.93687
G1 X106.784 Y99.543 E38.21838
G1 X106.784 Y100.607 E38.25819
G1 X111.040 Y104.863 E38.48340
G1 X109.976 Y104.863 E38.52320
G1 X106.784 Y101.671 E38.69211
G1 X106.784 Y102.735 E38.73192
G1 X108.913 Y104.863 E38.84453
G1 X107.849 Y104.863 E38.88434
G1 X106.784 Y103.799 E38.94065
G1 X106.785 Y104.863 E38.98047
G1 X105.648 Y106.000 F9900.000
G1 X114.253 Y77.289
G1 X116.506 Y73.733
G1 X120.007 Y71.428
G1 X120.397 Y70.647
G1 X120.397 Y70.647 F360.000 E38.98048
G1 X121.678 Y70.561 F9900.000
G1 X122.112 Y70.396 F360.000 E38.99030
G1 X122.195 Y70.478 E38.99277
G1 X122.712 Y70.396 E39.00383
M106 S255
M140 S65 ; set bed temperature
G1 F1800.000 E38.00383
G1 Z1.000
G92 E0
G1 X120.291 Y70.769 F9900.000
G1 Z0.700
G1 F1800.000 E1.00000
G1 X118.513 Y71.609 F2581.564 E1.04799
G1 X117.278 Y72.422 E1.08411
G1 X116.169 Y73.401 E1.12022
G1 X115.209 Y74.527 E1.15634
G1 X114.417 Y75.777 E1.19246
G1 X113.809 Y77.125 E1.22857
G1 X113.397 Y78.546 E1.26469
G1 X113.189 Y80.010 E1.30080
G1 X113.189 Y81.490 E1.33692
G1 X113.397 Y82.954 E1.37303
G1 X113.809 Y84.375 E1.40915
G1 X114.417 Y85.723 E1.44527
G1 X115.209 Y86.973 E1.48138
G1 X116.169 Y88.099 E1.51750
G1 X117.278 Y89.078 E1.55361
G1 X118.513 Y89.891 E1.58973
G1 X119.851 Y90.523 E1.62585
G1 X121.264 Y90.960 E1.66196
G1 X122.725 Y91.194 E1.69808
G1 X124.204 Y91.219 E1.73419
G1 X125.672 Y91.037 E1.77031
G1 X127.100 Y90.649 E1.80642
G1 X128.459 Y90.065 E1.84254
G1 X129.722 Y89.295 E1.87866
G1 X130.864 Y88.355 E1.91477
G1 X132.112 Y86.990 E1.95992
G1 X132.112 Y105.518 E2.41227
G1 X106.130 Y105.518 E3.04661
G1 X106.130 Y70.482 E3.90200
G1 X120.226 Y70.482 E4.24616
G1 X120.269 Y70.674 E4.25096
G1 X120.815 Y71.364 F9900.000
G1 X120.088 Y71.589 F1807.095 E4.26952
G1 X118.834 Y72.181 E4.30337
G1 X117.676 Y72.943 E4.33723
G1 X116.637 Y73.861 E4.37109
G1 X115.737 Y74.916 E4.40494
G1 X114.995 Y76.088 E4.43880
G1 X114.425 Y77.352 E4.47265
G1 X114.038 Y78.684 E4.50651
G1 X113.843 Y80.057 E4.54036
G1 X113.843 Y81.443 E4.57422
G1 X114.038 Y82.816 E4.60807
G1 X114.425 Y84.148 E4.64193
G1 X114.995 Y85.412 E4.67579
G1 X115.737 Y86.584 E4.70964
G1 X116.637 Y87.639 E4.74350
G1 X117.676 Y88.557 E4.77735
G1 X118.834 Y89.319 E4.81121
G1 X120.088 Y89.911 E4.84506
G1 X121.413 Y90.321 E4.87892
G1 X122.783 Y90.540 E4.91277
G1 X124.169 Y90.564 E4.94663
G1 X125.545 Y90.393 E4.98049
G1 X126.884 Y90.030 E5.01434
G1 X128.157 Y89.482 E5.04820
G1 X128.692 Y89.156 E5.06349
G1 X129.342 Y88.760 E5.08205
G1 X130.412 Y87.879 E5.11591
G1 X131.348 Y86.856 E5.14976
G1 X132.131 Y85.711 E5.18362
G1 X132.745 Y84.467 E5.21747
G1 X133.177 Y83.150 E5.25133
G1 X133.368 Y82.077 E5.27793
G1 X134.472 Y82.077 E5.30487
G1 X134.328 Y83.029 E5.32838
G1 X133.974 Y84.305 E5.36069
G1 X133.469 Y85.528 E5.39300
G1 X132.767 Y86.773 E5.42790
G1 X132.767 Y106.173 E5.90153
G1 X105.475 Y106.173 E6.56783
G1 X105.475 Y69.827 E7.45517
G1 X123.637 Y69.827 E7.89857
G1 X124.992 Y69.911 E7.93172
G1 X126.317 Y70.159 E7.96463
G1 X127.601 Y70.569 E7.99754
G1 X128.825 Y71.133 E8.03044
G1 X129.970 Y71.844 E8.06335
G1 X131.019 Y72.691 E8.09625
G1 X131.955 Y73.660 E8.12916
G1 X132.765 Y74.738 E8.16207
G1 X133.436 Y75.906 E8.19497
G1 X133.958 Y77.149 E8.22788
G1 X134.323 Y78.447 E8.26079
G1 X134.471 Y79.423 E8.28489
G1 X133.368 Y79.423 E8.31183
G1 X133.177 Y78.350 E8.33843
G1 X132.745 Y77.033 E8.37228
G1 X132.131 Y75.789 E8.40614
G1 X131.348 Y74.644 E8.43999
G1 X130.412 Y73.621 E8.47385
G1 X129.342 Y72.740 E8.50770
G1 X128.157 Y72.018 E8.54156
G1 X126.884 Y71.470 E8.57541
G1 X125.545 Y71.107 E8.60927
G1 X124.169 Y70.936 E8.64312
G1 X122.783 Y70.960 E8.67698
G1 X121.413 Y71.179 E8.71084
G1 X120.909 Y71.335 E8.72373
G1 X120.335 Y70.919 F9900.000
G1 X106.604 Y70.956
G1 X106.604 Y71.895 F2581.564 E8.74696
G1 X107.543 Y70.956 E8.77982
G1 X108.481 Y70.956 E8.80305
G1 X106.604 Y72.833 E8.86875
G1 X106.604 Y73.772 E8.89198
G1 X109.419 Y70.956 E8.99054
G1 X110.358 Y70.956 E9.01377
G1 X106.604 Y74.710 E9.14517
G1 X106.604 Y75.648 E9.16840
G1 X111.296 Y70.956 E9.33266
G1 X112.235 Y70.956 E9.35589
G1 X106.604 Y76.587 E9.55299
G1 X106.604 Y77.525 E9.57622
G1 X113.173 Y70.956 E9.80618
G1 X114.112 Y70.956 E9.82940
G1 X106.604 Y78.464 E10.09221
G1 X106.604 Y79.402 E10.11544
G1 X115.050 Y70.956 E10.41110
G1 X115.988 Y70.956 E10.43432
G1 X106.604 Y80.341 E10.76283
G1 X106.604 Y81.279 E10.78606
G1 X116.927 Y70.956 E11.14742
G1 X117.865 Y70.956 E11.17064
G1 X106.604 Y82.217 E11.56485
G1 X106.604 Y83.156 E11.58808
G1 X113.826 Y75.934 E11.84088
G1 X113.210 Y77.489 E11.88227
G1 X106.604 Y84.094 E12.11351
G1 X106.604 Y85.033 E12.13674
G1 X112.889 Y78.748 E12.35674
G1 X112.733 Y79.842 E12.38409
G1 X106.604 Y85.971 E12.59866
G1 X106.604 Y86.910 E12.62189
G1 X112.714 Y80.799 E12.83578
G1 X112.741 Y81.711 E12.85836
G1 X106.604 Y87.848 E13.07318
G1 X106.604 Y88.786 E13.09641
G1 X112.858 Y82.533 E13.31533
G1 X113.009 Y83.320 E13.33517
G1 X106.604 Y89.725 E13.55938
G1 X106.604 Y90.663 E13.58261
G1 X113.220 Y84.047 E13.81421
G1 X113.457 Y84.749 E13.83253
G1 X106.604 Y91.602 E14.07243
G1 X106.604 Y92.540 E14.09566
G1 X113.749 Y85.395 E14.34577
G1 X114.051 Y86.032 E14.36320
G1 X106.604 Y93.479 E14.62389
G1 X106.604 Y94.417 E14.64712
G1 X114.415 Y86.606 E14.92054
G1 X114.779 Y87.180 E14.93738
G1 X106.604 Y95.356 E15.22355
G1 X106.604 Y96.294 E15.24677
G1 X115.202 Y87.696 E15.54775
G1 X115.634 Y88.202 E15.56423
G1 X106.604 Y97.232 E15.88033
G1 X106.604 Y98.171 E15.90356
G1 X116.102 Y88.673 E16.23605
G1 X116.600 Y89.113 E16.25250
G1 X106.604 Y99.109 E16.60244
G1 X106.604 Y100.048 E16.62566
G1 X117.114 Y89.538 E16.99356
G1 X117.680 Y89.911 E17.01033
G1 X106.604 Y100.986 E17.39804
G1 X106.604 Y101.925 E17.42126
G1 X118.245 Y90.283 E17.82878
G1 X118.878 Y90.588 E17.84617
G1 X106.604 Y102.863 E18.27585
G1 X106.604 Y103.801 E18.29908
G1 X119.516 Y90.889 E18.75106
G1 X120.213 Y91.131 E18.76932
G1 X106.604 Y104.740 E19.24569
G1 X107.238 Y105.044 E19.26310
G1 X120.929 Y91.353 E19.74236
G1 X121.709 Y91.512 E19.76205
G1 X108.177 Y105.044 E20.23576
G1 X109.115 Y105.044 E20.25899
G1 X122.518 Y91.641 E20.72816
G1 X123.417 Y91.680 E20.75044
G1 X110.054 Y105.044 E21.21824
G1 X110.992 Y105.044 E21.24147
G1 X124.358 Y91.678 E21.70934
G1 X125.429 Y91.545 E21.73607
G1 X111.931 Y105.044 E22.20860
G1 X112.869 Y105.044 E22.23183
G1 X126.650 Y91.263 E22.71424
G1 X128.128 Y90.723 E22.75318
G1 X113.807 Y105.044 E23.25447
G1 X114.746 Y105.044 E23.27770
G1 X130.619 Y89.170 E23.83336
G1 X131.638 Y89.090 E23.85865
