; generated by Slic3r 0.9.9-dev on 2013-07-27 at 10:31:46

; layer_height = 0.3
; perimeters = 3
; top_solid_layers = 4
; bottom_solid_layers = 4
; fill_density = 0.25
; perimeter_speed = 50
; infill_speed = 80
; travel_speed = 165
; nozzle_diameter = 0.5
; filament_diameter = 3.2
; extrusion_multiplier = 1
; perimeters extrusion width = 0.70mm
; infill extrusion width = 0.70mm
; solid infill extrusion width = 0.70mm
; top infill extrusion width = 0.70mm
; support material extrusion width = 0.70mm
; first layer extrusion width = 1.00mm

G21 ; set units to millimeters
M107
M190 S65 ; wait for bed temperature to be reached
M104 S185 ; set temperature
;G28 ; home all axes
;G1 Z5 F5000 ; lift nozzle
M109 S185 ; wait for temperature to be reached
G90 ; use absolute coordinates
G92 E0
M82 ; use absolute distances for extrusion
G1 F1800.000 E-1.00000
G1 Z0.800
G92 E0
G1 X94.410 Y62.580 F9900.000
G1 Z0.500
G1 F1800.000 E1.00000
G1 X94.900 Y61.910 F900.000 E1.04607
G1 X95.080 Y61.690 E1.06184
G1 X95.460 Y61.290 E1.09246
G1 X95.880 Y60.920 E1.12353
G1 X96.320 Y60.580 E1.15439
G1 X97.040 Y60.150 E1.20093
G1 X97.540 Y59.910 E1.23171
G1 X98.060 Y59.710 E1.26263
G1 X98.870 Y59.500 E1.30907
G1 X99.420 Y59.410 E1.34000
G1 X99.970 Y59.360 E1.37065
G1 X104.060 Y59.360 E1.59765
G1 X104.660 Y59.420 E1.63111
G1 X105.560 Y59.600 E1.68205
G1 X106.150 Y59.790 E1.71645
G1 X106.710 Y60.020 E1.75005
G1 X107.250 Y60.310 E1.78407
G1 X158.250 Y90.350 E5.06903
G1 X158.710 Y90.650 E5.09951
G1 X159.150 Y90.980 E5.13003
G1 X159.560 Y91.350 E5.16068
G1 X159.940 Y91.750 E5.19130
G1 X160.110 Y91.960 E5.20630
G1 X160.440 Y92.400 E5.23682
G1 X160.870 Y93.110 E5.28289
G1 X161.200 Y93.870 E5.32887
G1 X161.380 Y94.390 E5.35941
G1 X161.450 Y94.650 E5.37435
G1 X161.510 Y94.920 E5.38970
G1 X161.590 Y95.470 E5.42055
G1 X161.640 Y96.010 E5.45065
G1 X161.640 Y110.020 E6.22819
G1 X161.620 Y110.290 E6.24322
G1 X161.560 Y110.830 E6.27337
G1 X161.510 Y111.090 E6.28806
G1 X161.310 Y111.880 E6.33329
G1 X161.220 Y112.140 E6.34856
G1 X161.010 Y112.640 E6.37866
G1 X160.760 Y113.120 E6.40869
G1 X160.480 Y113.580 E6.43858
G1 X160.160 Y114.020 E6.46878
G1 X159.810 Y114.430 E6.49869
G1 X159.230 Y114.990 E6.54344
G1 X158.800 Y115.330 E6.57386
G1 X158.580 Y115.480 E6.58864
G1 X158.350 Y115.630 E6.60388
G1 X157.880 Y115.890 E6.63369
G1 X157.140 Y116.220 E6.67866
G1 X156.880 Y116.310 E6.69393
G1 X156.360 Y116.450 E6.72381
G1 X155.830 Y116.560 E6.75386
G1 X155.020 Y116.640 E6.79903
G1 X84.980 Y116.640 E10.68618
G1 X84.170 Y116.560 E10.73135
G1 X83.910 Y116.510 E10.74605
G1 X83.120 Y116.310 E10.79127
G1 X82.860 Y116.220 E10.80654
G1 X82.360 Y116.010 E10.83664
G1 X81.880 Y115.760 E10.86668
G1 X81.420 Y115.480 E10.89656
G1 X80.980 Y115.160 E10.92676
G1 X80.570 Y114.810 E10.95668
G1 X80.010 Y114.230 E11.00142
G1 X79.670 Y113.800 E11.03185
G1 X79.370 Y113.350 E11.06186
G1 X79.110 Y112.880 E11.09167
G1 X78.880 Y112.390 E11.12171
G1 X78.690 Y111.880 E11.15192
G1 X78.550 Y111.360 E11.18180
G1 X78.440 Y110.830 E11.21185
G1 X78.360 Y110.020 E11.25702
G1 X78.360 Y105.940 E11.48345
G1 X78.420 Y105.330 E11.51747
G1 X78.530 Y104.720 E11.55187
G1 X78.690 Y104.120 E11.58634
G1 X93.800 Y63.830 E13.97447
G1 X94.010 Y63.320 E14.00508
G1 X94.343 Y62.696 E14.04434
G1 F1800.000 E13.04434
G1 Z0.800
G92 E0
G1 X147.714 Y105.482 F9900.000
G1 Z0.500
G1 F1800.000 E1.00000
G1 X152.518 Y105.482 F540.000 E1.26662
G1 X152.518 Y107.518 E1.37964
G1 X147.714 Y107.518 E1.64626
G1 X147.714 Y105.616 E1.75186
G1 X146.821 Y104.589 F9900.000
G1 X151.589 Y104.589 F540.000 E2.01645
G1 X151.589 Y97.635 E2.40237
G1 X153.411 Y97.635 E2.50348
G1 X153.411 Y108.411 E3.10151
G1 X146.821 Y108.411 E3.46722
G1 X146.821 Y104.723 E3.67190
G1 X145.929 Y103.696 F9900.000
G1 X150.696 Y103.696 F630.000 E3.93650
G1 X150.696 Y96.743 E4.32241
G1 X154.304 Y96.743 E4.52262
G1 X154.304 Y109.304 E5.21973
G1 X145.929 Y109.304 E5.68453
G1 X145.929 Y103.830 E5.98830
G1 X146.702 Y104.143 F9900.000
G1 X148.661 Y106.572
G1 X150.044 Y106.428 F360.000 E6.08171
G1 X150.188 Y106.572 E6.09539
G1 X151.572 Y106.428 E6.18881
G1 X152.235 Y104.835 F9900.000
G1 X152.765 Y104.721 F360.000 E6.20414
G1 X152.235 Y104.191 E6.22533
G1 X152.765 Y104.077 E6.24067
G1 X152.235 Y103.548 E6.26186
G1 X152.765 Y103.433 E6.27719
G1 X152.235 Y102.904 E6.29838
G1 X152.765 Y102.789 E6.31372
G1 X152.235 Y102.260 E6.33491
G1 X152.765 Y102.145 E6.35024
G1 X152.235 Y101.616 E6.37143
G1 X152.765 Y101.501 E6.38676
G1 X152.235 Y100.972 E6.40796
G1 X152.765 Y100.857 E6.42329
G1 X152.235 Y100.328 E6.44448
G1 X152.765 Y100.214 E6.45981
G1 X152.235 Y99.684 E6.48100
G1 X152.765 Y99.570 E6.49634
G1 X152.235 Y99.040 E6.51753
G1 X152.765 Y98.926 E6.53286
G1 X152.235 Y98.396 E6.55405
G1 X152.765 Y98.282 E6.56939
G1 F1800.000 E5.56939
G1 Z0.800
G92 E0
G1 X154.250 Y96.796 F9900.000
G1 X150.750 Y103.750
G1 X145.982 Y103.750
G1 X144.018 Y103.750
G1 X135.982 Y103.750
G1 X134.018 Y103.750
G1 X125.982 Y103.750
G1 X124.018 Y103.750
G1 X122.286 Y105.482
G1 Z0.500
G1 F1800.000 E1.00000
G1 X122.286 Y107.518 F540.000 E1.11302
G1 X117.714 Y107.518 E1.36674
G1 X117.714 Y105.482 E1.47977
G1 X122.152 Y105.482 E1.72606
G1 X123.179 Y104.589 F9900.000
G1 X123.179 Y108.411 F540.000 E1.93817
G1 X116.821 Y108.411 E2.29098
G1 X116.821 Y104.589 E2.50309
G1 X123.045 Y104.589 E2.84846
G1 X124.071 Y103.696 F9900.000
G1 X124.071 Y109.304 F540.000 E3.15966
G1 X115.929 Y109.304 E3.61156
G1 X115.929 Y103.696 E3.92276
G1 X123.937 Y103.696 E4.36722
G1 X123.625 Y104.469 F9900.000
G1 X118.661 Y106.572
G1 X119.928 Y106.428 F360.000 E4.44636
G1 X120.072 Y106.572 E4.45900
G1 X121.340 Y106.428 E4.53815
G1 F1800.000 E3.53815
G1 Z0.800
G92 E0
G1 X124.018 Y103.750 F9900.000
G1 X115.982 Y103.750
G1 X114.018 Y103.750
G1 X112.286 Y105.482
G1 Z0.500
G1 F1800.000 E1.00000
G1 X112.286 Y107.518 F540.000 E1.11302
G1 X105.482 Y107.518 E1.49064
G1 X105.482 Y107.018 E1.51839
G1 X102.482 Y107.018 E1.68489
G1 X102.482 Y105.482 E1.77016
G1 X112.152 Y105.482 E2.30685
G1 X113.179 Y104.589 F9900.000
G1 X113.179 Y108.411 F540.000 E2.51896
G1 X104.589 Y108.411 E2.99567
G1 X104.589 Y107.911 E3.02342
G1 X101.589 Y107.911 E3.18991
G1 X101.589 Y104.589 E3.37427
G1 X113.045 Y104.589 E4.01005
G1 X114.071 Y103.696 F9900.000
G1 X114.071 Y109.304 F630.000 E4.32125
G1 X103.696 Y109.304 E4.89704
G1 X103.696 Y108.804 E4.92479
G1 X90.844 Y108.804 E5.63810
G1 X90.844 Y109.304 E5.66585
G1 X85.696 Y109.304 E5.95152
G1 X85.696 Y106.696 E6.09622
G1 X100.696 Y106.696 E6.92871
G1 X100.696 Y66.696 E9.14867
G1 X103.304 Y66.696 E9.29337
G1 X103.304 Y103.696 E11.34684
G1 X113.937 Y103.696 E11.93699
G1 X113.625 Y104.469 F9900.000
G1 X106.428 Y106.572
G1 X107.548 Y106.428 F360.000 E11.99972
G1 X107.692 Y106.572 E12.01103
G1 X108.812 Y106.428 E12.07376
G1 X108.956 Y106.572 E12.08507
G1 X110.076 Y106.428 E12.14780
G1 X110.220 Y106.572 E12.15911
G1 X111.340 Y106.428 E12.22184
G1 X103.128 Y106.372 F9900.000
G1 X103.595 Y106.128 F360.000 E12.23831
G1 X103.839 Y106.372 E12.24910
G1 X104.306 Y106.128 E12.26556
G1 X104.550 Y106.372 E12.27635
G1 X105.017 Y106.128 E12.29281
G1 X105.261 Y106.372 E12.30360
G1 X105.728 Y106.128 E12.32007
G1 X101.893 Y103.393 F9900.000
G1 X102.107 Y101.623 F360.000 E12.47555
G1 X101.893 Y101.408 E12.50204
G1 X102.107 Y99.639 E12.65751
G1 X101.893 Y99.424 E12.68400
G1 X102.107 Y97.655 E12.83947
G1 X101.893 Y97.440 E12.86596
G1 X102.107 Y95.671 E13.02143
G1 X101.893 Y95.456 E13.04792
G1 X102.107 Y93.687 E13.20339
G1 X101.893 Y93.472 E13.22988
G1 X102.107 Y91.703 E13.38535
G1 X101.893 Y91.488 E13.41184
G1 X102.107 Y89.718 E13.56731
G1 X101.893 Y89.504 E13.59380
G1 X102.107 Y87.734 E13.74927
G1 X101.893 Y87.519 E13.77576
G1 X102.107 Y85.750 E13.93123
G1 X101.893 Y85.535 E13.95772
G1 X102.107 Y83.766 E14.11319
G1 X101.893 Y83.551 E14.13968
G1 X102.107 Y81.782 E14.29515
G1 X101.893 Y81.567 E14.32164
G1 X102.107 Y79.798 E14.47711
G1 X101.893 Y79.583 E14.50360
G1 X102.107 Y77.814 E14.65907
G1 X101.893 Y77.599 E14.68556
G1 X102.107 Y75.829 E14.84103
G1 X101.893 Y75.615 E14.86752
G1 X102.107 Y73.845 E15.02299
G1 X101.893 Y73.630 E15.04948
G1 X102.107 Y71.861 E15.20495
G1 X101.893 Y71.646 E15.23144
G1 X102.107 Y69.877 E15.38691
G1 X101.893 Y69.662 E15.41340
G1 X102.107 Y67.893 E15.56888
G1 X103.250 Y66.750 F9900.000
G1 X100.750 Y106.750
G1 X91.280 Y109.250
G1 X90.897 Y107.857
G1 X92.105 Y107.643 F360.000 E15.64563
G1 X92.320 Y107.857 E15.66463
G1 X93.528 Y107.643 E15.74138
G1 X93.743 Y107.857 E15.76038
G1 X94.951 Y107.643 E15.83713
G1 X95.166 Y107.857 E15.85613
G1 X96.374 Y107.643 E15.93288
G1 X96.589 Y107.857 E15.95188
G1 X97.797 Y107.643 E16.02863
G1 X98.012 Y107.857 E16.04763
G1 X99.220 Y107.643 E16.12438
G1 X99.435 Y107.857 E16.14338
G1 X100.643 Y107.643 E16.22014
G1 X86.893 Y108.107 F9900.000
G1 X89.647 Y107.893 F360.000 E16.58079
G1 F1800.000 E15.58079
G1 Z0.800
G92 E0
G1 X91.280 Y109.250 F9900.000
G1 X100.750 Y106.750
G1 X114.018 Y109.227
G1 X115.982 Y109.250
G1 X124.018 Y109.250
G1 X125.982 Y109.250
G1 X127.714 Y107.518
G1 Z0.500
G1 F1800.000 E1.00000
G1 X127.714 Y105.482 F540.000 E1.11302
G1 X132.286 Y105.482 E1.36674
G1 X132.286 Y107.518 E1.47977
G1 X127.848 Y107.518 E1.72606
G1 X126.822 Y108.411 F9900.000
G1 X126.821 Y104.589 F540.000 E1.93817
G1 X133.179 Y104.589 E2.29097
G1 X133.179 Y108.411 E2.50309
G1 X126.955 Y108.411 E2.84846
G1 X125.929 Y109.304 F9900.000
G1 X125.929 Y103.696 F540.000 E3.15966
G1 X134.071 Y103.696 E3.61156
G1 X134.071 Y109.304 E3.92276
G1 X126.063 Y109.304 E4.36722
G1 X126.375 Y108.531 F9900.000
G1 X128.661 Y106.572
G1 X129.928 Y106.428 F360.000 E4.44636
G1 X130.072 Y106.572 E4.45899
G1 X131.340 Y106.428 E4.53814
G1 F1800.000 E3.53814
G1 Z0.800
G92 E0
G1 X134.018 Y103.750 F9900.000
G1 X135.982 Y103.750
G1 X137.714 Y105.482
G1 Z0.500
G1 F1800.000 E1.00000
G1 X142.286 Y105.482 F540.000 E1.25372
G1 X142.286 Y107.518 E1.36674
G1 X137.714 Y107.518 E1.62046
G1 X137.714 Y105.616 E1.72606
G1 X136.821 Y104.589 F9900.000
G1 X143.179 Y104.589 F540.000 E2.07886
G1 X143.179 Y108.411 E2.29098
G1 X136.821 Y108.411 E2.64378
G1 X136.821 Y104.723 E2.84846
G1 X135.929 Y103.696 F9900.000
G1 X144.071 Y103.696 F540.000 E3.30036
G1 X144.071 Y109.304 E3.61156
G1 X135.929 Y109.304 E4.06345
G1 X135.929 Y103.830 E4.36722
G1 X136.702 Y104.143 F9900.000
G1 X138.661 Y106.572
G1 X139.928 Y106.428 F360.000 E4.44636
G1 X140.072 Y106.572 E4.45900
G1 X141.340 Y106.428 E4.53815
M106 S255
M104 S180 ; set temperature
M140 S60 ; set bed temperature
G1 F1800.000 E3.53815
G1 Z1.100
G92 E0
G1 X151.886 Y104.886 F9900.000
G1 Z0.800
G1 F1800.000 E1.00000
G1 X151.886 Y98.211 F2093.510 E1.16298
G1 X153.114 Y98.211 E1.19295
G1 X153.114 Y108.114 E1.43472
G1 X104.886 Y108.114 E2.61215
G1 X104.886 Y107.614 E2.62436
G1 X101.886 Y107.614 E2.69760
G1 X101.886 Y104.886 E2.76419
G1 X151.788 Y104.886 E3.98250
G1 X151.232 Y104.232 F9900.000
G1 X151.232 Y97.556 F2093.510 E4.14548
G1 X153.768 Y97.556 E4.20741
G1 X153.768 Y108.768 E4.48114
G1 X104.232 Y108.768 E5.69053
G1 X104.232 Y108.268 E5.70273
G1 X90.337 Y108.268 E6.04196
G1 X90.337 Y108.768 E6.05417
G1 X86.232 Y108.768 E6.15439
G1 X86.232 Y107.232 E6.19191
G1 X101.232 Y107.232 E6.55812
G1 X101.232 Y67.232 E7.53468
G1 X102.768 Y67.232 E7.57219
G1 X102.768 Y104.232 E8.47551
G1 X151.134 Y104.232 E9.65631
G1 X150.577 Y103.577 F9900.000
G1 X150.577 Y96.902 F1465.457 E9.81929
G1 X154.423 Y96.902 E9.91317
G1 X154.423 Y109.423 E10.21886
G1 X103.577 Y109.423 E11.46021
G1 X103.577 Y108.923 E11.47242
G1 X90.991 Y108.923 E11.77969
G1 X90.991 Y109.423 E11.79189
G1 X85.577 Y109.423 E11.92408
G1 X85.577 Y106.577 E11.99355
G1 X100.577 Y106.577 E12.35976
G1 X100.577 Y66.577 E13.33632
G1 X103.423 Y66.577 E13.40579
G1 X103.423 Y103.577 E14.30911
G1 X150.479 Y103.577 E15.45795
G1 X151.232 Y103.577 F9900.000
G1 X145.335 Y105.676
M106 S255
G1 X144.665 Y105.676 F3600.000 E15.47431
G1 X144.665 Y106.068 E15.48390
G1 X145.335 Y106.068 E15.50027
G1 X145.335 Y106.461 E15.50985
G1 X144.665 Y106.461 E15.52622
G1 X144.665 Y106.854 E15.53581
G1 X145.335 Y106.854 E15.55217
G1 X145.335 Y107.247 E15.56176
G1 X144.665 Y107.247 E15.57812
G1 X144.665 Y107.639 E15.58771
G1 X145.335 Y107.639 E15.60408
G1 X144.370 Y107.639 F9900.000
M106 S255
G1 X143.368 Y107.639 F2512.212 E15.63055
G1 X144.370 Y106.637 E15.66799
G1 X144.370 Y105.636 E15.69446
G1 X142.367 Y107.639 E15.76933
G1 X141.365 Y107.639 E15.79580
G1 X143.644 Y105.361 E15.88095
G1 X142.642 Y105.361 E15.90741
G1 X140.363 Y107.639 E15.99256
G1 X139.361 Y107.639 E16.01903
G1 X141.640 Y105.361 E16.10418
G1 X140.638 Y105.361 E16.13065
G1 X138.360 Y107.639 E16.21580
G1 X137.358 Y107.639 E16.24227
G1 X139.637 Y105.361 E16.32742
G1 X138.635 Y105.361 E16.35388
G1 X136.356 Y107.639 E16.43903
G1 X135.630 Y107.364 E16.45956
G1 X137.633 Y105.361 E16.53443
G1 X136.632 Y105.361 E16.56090
G1 X135.630 Y106.363 E16.59834
G1 X135.630 Y105.361 E16.62481
G1 X145.630 Y105.361 F9900.000
G1 X146.559 Y105.361 F2512.212 E16.64757
G1 X145.630 Y106.290 E16.67976
G1 X145.630 Y107.218 E16.70251
G1 X147.487 Y105.361 E16.76688
G1 X148.416 Y105.361 E16.78964
G1 X146.137 Y107.639 E16.86858
G1 X147.066 Y107.639 E16.89134
G1 X149.345 Y105.361 E16.97029
G1 X150.274 Y105.361 E16.99304
G1 X147.995 Y107.639 E17.07199
G1 X148.924 Y107.639 E17.09475
G1 X151.203 Y105.361 E17.17370
G1 X152.131 Y105.361 E17.19645
G1 X149.853 Y107.639 E17.27540
G1 X150.782 Y107.639 E17.29816
G1 X152.639 Y105.782 E17.36252
G1 X152.639 Y106.710 E17.38528
G1 X151.710 Y107.639 E17.41747
G1 X152.639 Y107.639 E17.44022
G1 X152.647 Y105.074 F9900.000
G1 X152.353 Y104.891 F837.404 E17.44460
G1 X152.647 Y104.596 E17.44985
G1 X152.353 Y104.413 E17.45422
G1 X152.647 Y104.118 E17.45948
G1 X152.353 Y103.935 E17.46385
G1 X152.647 Y103.640 E17.46910
G1 X152.353 Y103.457 E17.47347
G1 X152.647 Y103.162 E17.47873
G1 X152.353 Y102.979 E17.48310
G1 X152.647 Y102.684 E17.48835
G1 X152.353 Y102.501 E17.49272
G1 X152.647 Y102.206 E17.49798
G1 X152.353 Y102.023 E17.50235
G1 X152.647 Y101.728 E17.50760
G1 X152.353 Y101.545 E17.51197
G1 X152.647 Y101.250 E17.51723
G1 X152.353 Y101.067 E17.52160
G1 X152.647 Y100.772 E17.52685
G1 X152.353 Y100.589 E17.53123
G1 X152.647 Y100.295 E17.53648
G1 X152.353 Y100.111 E17.54085
G1 X152.647 Y99.817 E17.54610
G1 X152.353 Y99.633 E17.55048
G1 X152.647 Y99.339 E17.55573
G1 X152.353 Y99.155 E17.56010
G1 X152.647 Y98.861 E17.56535
G1 X152.353 Y98.677 E17.56973
G1 X150.750 Y97.074 F9900.000
G1 X150.750 Y103.750
G1 X135.335 Y105.676
M106 S255
G1 X134.665 Y105.676 F3600.000 E17.58609
G1 X134.665 Y106.068 E17.59568
G1 X135.335 Y106.068 E17.61204
G1 X135.335 Y106.461 E17.62163
G1 X134.665 Y106.461 E17.63800
G1 X134.665 Y106.854 E17.64758
G1 X135.335 Y106.854 E17.66395
G1 X135.335 Y107.247 E17.67354
G1 X134.665 Y107.247 E17.68990
G1 X134.665 Y107.639 E17.69949
G1 X135.335 Y107.639 E17.71586
G1 X134.370 Y107.639 F9900.000
M106 S255
G1 X133.368 Y107.639 F2512.212 E17.74233
G1 X134.370 Y106.637 E17.77977
G1 X134.370 Y105.636 E17.80624
G1 X132.367 Y107.639 E17.88111
G1 X131.365 Y107.639 E17.90758
G1 X133.644 Y105.361 E17.99273
G1 X132.642 Y105.361 E18.01919
G1 X130.363 Y107.639 E18.10434
G1 X129.362 Y107.639 E18.13081
G1 X131.640 Y105.361 E18.21596
G1 X130.638 Y105.361 E18.24243
G1 X128.360 Y107.639 E18.32758
G1 X127.358 Y107.639 E18.35404
G1 X129.637 Y105.361 E18.43919
G1 X128.635 Y105.361 E18.46566
G1 X126.356 Y107.639 E18.55081
G1 X125.630 Y107.364 E18.57134
G1 X127.633 Y105.361 E18.64621
G1 X126.632 Y105.361 E18.67268
G1 X125.630 Y106.363 E18.71012
G1 X125.630 Y105.361 E18.73659
G1 X125.335 Y105.676 F9900.000
M106 S255
G1 X124.665 Y105.676 F3600.000 E18.75296
G1 X124.665 Y106.068 E18.76254
G1 X125.335 Y106.068 E18.77891
G1 X125.335 Y106.461 E18.78850
G1 X124.665 Y106.461 E18.80486
G1 X124.665 Y106.854 E18.81445
G1 X125.335 Y106.854 E18.83082
G1 X125.335 Y107.247 E18.84040
G1 X124.665 Y107.247 E18.85677
G1 X124.665 Y107.639 E18.86636
G1 X125.335 Y107.639 E18.88272
G1 X124.370 Y107.639 F9900.000
M106 S255
G1 X123.368 Y107.639 F2512.212 E18.90920
G1 X124.370 Y106.637 E18.94664
G1 X124.370 Y105.636 E18.97310
G1 X122.367 Y107.639 E19.04797
