; generated by Slic3r 0.9.9-dev on 2013-07-27 at 13:03:39

; layer_height = 0.3
; perimeters = 3
; top_solid_layers = 4
; bottom_solid_layers = 4
; fill_density = 0.25
; perimeter_speed = 50
; infill_speed = 80
; travel_speed = 165
; nozzle_diameter = 0.5
; filament_diameter = 3.2
; extrusion_multiplier = 1
; perimeters extrusion width = 0.70mm
; infill extrusion width = 0.70mm
; solid infill extrusion width = 0.70mm
; top infill extrusion width = 0.70mm
; support material extrusion width = 0.70mm
; first layer extrusion width = 1.00mm

G21 ; set units to millimeters
M107
M190 S65 ; wait for bed temperature to be reached
M104 S185 ; set temperature
;G28 ; home all axes
;G1 Z5 F5000 ; lift nozzle
M109 S185 ; wait for temperature to be reached
G90 ; use absolute coordinates
G92 E0
M82 ; use absolute distances for extrusion
G1 F1800.000 E-0.85000
G1 Z0.800
G92 E0
G1 X78.260 Y55.950 F9900.000
G1 Z0.500
G1 F1800.000 E0.85000
G1 X78.780 Y55.320 F900.000 E0.89534
G1 X79.360 Y54.760 E0.94008
G1 X79.790 Y54.420 E0.97050
G1 X80.010 Y54.270 E0.98528
G1 X80.240 Y54.120 E1.00052
G1 X80.710 Y53.860 E1.03033
G1 X81.450 Y53.530 E1.07530
G1 X81.710 Y53.440 E1.09057
G1 X82.230 Y53.300 E1.12046
G1 X82.760 Y53.190 E1.15050
G1 X83.570 Y53.110 E1.19567
G1 X156.420 Y53.110 E5.23877
G1 X157.230 Y53.190 E5.28395
G1 X157.490 Y53.240 E5.29864
G1 X158.280 Y53.440 E5.34387
G1 X158.540 Y53.530 E5.35914
G1 X159.280 Y53.860 E5.40411
G1 X159.750 Y54.120 E5.43392
G1 X160.200 Y54.420 E5.46393
G1 X160.830 Y54.940 E5.50927
G1 X161.390 Y55.520 E5.55401
G1 X161.730 Y55.950 E5.58444
G1 X161.880 Y56.170 E5.59921
G1 X162.030 Y56.400 E5.61445
G1 X162.290 Y56.870 E5.64426
G1 X162.620 Y57.610 E5.68923
G1 X162.710 Y57.870 E5.70450
G1 X162.850 Y58.390 E5.73439
G1 X162.960 Y58.920 E5.76443
G1 X163.040 Y59.730 E5.80960
G1 X163.040 Y114.990 E8.87648
G1 X162.940 Y116.170 E8.94220
G1 X162.840 Y116.690 E8.97159
G1 X162.690 Y117.270 E9.00484
G1 X162.490 Y117.830 E9.03784
G1 X162.240 Y118.380 E9.07137
G1 X161.810 Y119.120 E9.11887
G1 X161.460 Y119.630 E9.15320
G1 X160.840 Y120.330 E9.20509
G1 X160.370 Y120.750 E9.24008
G1 X159.720 Y121.260 E9.28593
G1 X159.200 Y121.580 E9.31982
G1 X158.930 Y121.720 E9.33669
G1 X158.380 Y121.970 E9.37022
G1 X158.010 Y122.110 E9.39218
G1 X157.180 Y122.350 E9.44013
G1 X156.670 Y122.440 E9.46887
G1 X155.490 Y122.540 E9.53460
G1 X84.500 Y122.540 E13.47447
G1 X83.320 Y122.440 E13.54020
G1 X82.770 Y122.340 E13.57122
G1 X82.140 Y122.170 E13.60744
G1 X81.530 Y121.940 E13.64362
G1 X80.950 Y121.650 E13.67960
G1 X80.480 Y121.390 E13.70941
G1 X79.730 Y120.860 E13.76038
G1 X79.280 Y120.450 E13.79417
G1 X78.850 Y120.010 E13.82831
G1 X78.310 Y119.320 E13.87694
G1 X77.800 Y118.490 E13.93101
G1 X77.410 Y117.590 E13.98544
G1 X77.150 Y116.720 E14.03584
G1 X77.070 Y116.370 E14.05576
G1 X77.020 Y116.030 E14.07484
G1 X76.970 Y115.560 E14.10107
G1 X76.950 Y114.990 E14.13272
G1 X76.950 Y59.730 E17.19960
G1 X77.030 Y58.920 E17.24477
G1 X77.140 Y58.390 E17.27481
G1 X77.280 Y57.870 E17.30470
G1 X77.580 Y57.110 E17.35004
G1 X77.960 Y56.400 E17.39474
G1 X78.185 Y56.061 E17.41732
G1 F1800.000 E16.56732
G1 Z0.800
G92 E0
G1 X111.250 Y69.414 F9900.000
G1 Z0.500
G1 F1800.000 E0.85000
G1 X111.544 Y68.784 F540.000 E0.88860
G1 X111.943 Y68.214 E0.92722
G1 X112.435 Y67.722 E0.96581
G1 X113.005 Y67.323 E1.00441
G1 X113.635 Y67.029 E1.04301
G1 X114.307 Y66.849 E1.08162
G1 X115.000 Y66.789 E1.12022
G1 X115.693 Y66.849 E1.15883
G1 X116.365 Y67.029 E1.19743
G1 X116.995 Y67.323 E1.23602
G1 X117.565 Y67.722 E1.27462
G1 X118.057 Y68.214 E1.31322
G1 X118.456 Y68.784 E1.35183
G1 X118.750 Y69.414 E1.39044
G1 X118.930 Y70.086 E1.42904
G1 X118.990 Y70.779 E1.46764
G1 X118.930 Y71.472 E1.50624
G1 X118.750 Y72.144 E1.54484
G1 X118.456 Y72.774 E1.58345
G1 X118.057 Y73.344 E1.62205
G1 X117.565 Y73.836 E1.66066
G1 X116.995 Y74.235 E1.69925
G1 X116.365 Y74.529 E1.73785
G1 X115.693 Y74.709 E1.77646
G1 X115.000 Y74.769 E1.81506
G1 X114.307 Y74.709 E1.85366
G1 X113.635 Y74.529 E1.89227
G1 X113.005 Y74.235 E1.93087
G1 X112.435 Y73.836 E1.96947
G1 X111.943 Y73.344 E2.00808
G1 X111.544 Y72.774 E2.04667
G1 X111.250 Y72.144 E2.08528
G1 X111.070 Y71.472 E2.12388
G1 X111.010 Y70.779 E2.16248
G1 X111.070 Y70.086 E2.20109
G1 X111.216 Y69.544 E2.23225
G1 X112.092 Y69.721 F9900.000
G1 X112.320 Y69.232 F540.000 E2.26219
G1 X112.630 Y68.790 E2.29213
G1 X113.011 Y68.409 E2.32206
G1 X113.453 Y68.099 E2.35199
G1 X113.942 Y67.872 E2.38192
G1 X114.463 Y67.732 E2.41185
G1 X115.000 Y67.685 E2.44179
G1 X115.537 Y67.732 E2.47173
G1 X116.058 Y67.872 E2.50166
G1 X116.547 Y68.099 E2.53159
G1 X116.989 Y68.409 E2.56152
G1 X117.370 Y68.790 E2.59145
G1 X117.680 Y69.232 E2.62139
G1 X117.908 Y69.721 E2.65132
G1 X118.047 Y70.242 E2.68126
G1 X118.094 Y70.779 E2.71119
G1 X118.047 Y71.316 E2.74112
G1 X117.908 Y71.837 E2.77105
G1 X117.680 Y72.326 E2.80099
G1 X117.370 Y72.768 E2.83092
G1 X116.989 Y73.149 E2.86086
G1 X116.547 Y73.459 E2.89079
G1 X116.058 Y73.687 E2.92072
G1 X115.537 Y73.826 E2.95066
G1 X115.000 Y73.873 E2.98059
G1 X114.463 Y73.826 E3.01052
G1 X113.942 Y73.687 E3.04046
G1 X113.453 Y73.459 E3.07039
G1 X113.011 Y73.149 E3.10032
G1 X112.630 Y72.768 E3.13026
G1 X112.320 Y72.326 E3.16018
G1 X112.092 Y71.837 E3.19012
G1 X111.953 Y71.316 E3.22006
G1 X111.906 Y70.779 E3.24999
G1 X111.953 Y70.242 E3.27992
G1 X112.058 Y69.850 E3.30242
G1 X112.935 Y70.027 F9900.000
G1 X113.096 Y69.680 F540.000 E3.32369
G1 X113.316 Y69.366 E3.34495
G1 X113.587 Y69.095 E3.36622
G1 X113.901 Y68.876 E3.38748
G1 X114.248 Y68.714 E3.40874
G1 X114.618 Y68.614 E3.43001
G1 X115.000 Y68.581 E3.45127
G1 X115.382 Y68.614 E3.47254
G1 X115.752 Y68.714 E3.49380
G1 X116.099 Y68.875 E3.51506
G1 X116.413 Y69.095 E3.53633
G1 X116.684 Y69.366 E3.55759
G1 X116.904 Y69.680 E3.57886
G1 X117.065 Y70.027 E3.60012
G1 X117.165 Y70.397 E3.62139
G1 X117.198 Y70.779 E3.64265
G1 X117.165 Y71.161 E3.66391
G1 X117.065 Y71.531 E3.68518
G1 X116.904 Y71.878 E3.70644
G1 X116.684 Y72.192 E3.72771
G1 X116.413 Y72.463 E3.74897
G1 X116.048 Y72.706 E3.77330
G1 X115.752 Y72.845 E3.79146
G1 X115.382 Y72.944 E3.81272
G1 X115.000 Y72.977 E3.83399
G1 X114.618 Y72.944 E3.85525
G1 X114.248 Y72.845 E3.87652
G1 X113.901 Y72.683 E3.89778
G1 X113.587 Y72.463 E3.91904
G1 X113.316 Y72.192 E3.94031
G1 X113.096 Y71.878 E3.96157
G1 X112.935 Y71.531 E3.98284
G1 X112.835 Y71.161 E4.00410
G1 X112.802 Y70.779 E4.02536
G1 X112.835 Y70.397 E4.04663
G1 X112.900 Y70.157 E4.06046
G1 X112.697 Y69.727 F9900.000
G1 X113.260 Y69.289
G1 X115.000 Y68.477
G1 X143.718 Y70.779
G1 X142.010 Y70.779
G1 X142.070 Y70.086 F540.000 E4.09908
G1 X142.250 Y69.414 E4.13768
G1 X142.544 Y68.784 E4.17627
G1 X142.943 Y68.214 E4.21488
G1 X143.435 Y67.722 E4.25347
G1 X144.005 Y67.323 E4.29208
G1 X144.635 Y67.029 E4.33068
G1 X145.307 Y66.849 E4.36928
G1 X146.000 Y66.789 E4.40789
G1 X146.693 Y66.849 E4.44649
G1 X147.365 Y67.029 E4.48509
G1 X147.557 Y67.119 E4.49687
G1 X147.995 Y67.323 E4.52369
G1 X148.565 Y67.722 E4.56229
G1 X149.057 Y68.214 E4.60089
G1 X149.456 Y68.784 E4.63949
G1 X149.750 Y69.414 E4.67811
G1 X149.930 Y70.086 E4.71671
G1 X149.990 Y70.779 E4.75531
G1 X149.930 Y71.472 E4.79392
G1 X149.750 Y72.144 E4.83253
G1 X149.456 Y72.774 E4.87112
G1 X149.057 Y73.344 E4.90972
G1 X148.565 Y73.836 E4.94832
G1 X147.995 Y74.235 E4.98692
G1 X147.365 Y74.529 E5.02553
G1 X146.693 Y74.709 E5.06413
G1 X146.000 Y74.769 E5.10273
G1 X145.307 Y74.709 E5.14134
G1 X144.635 Y74.529 E5.17993
G1 X144.005 Y74.235 E5.21853
G1 X143.435 Y73.836 E5.25713
G1 X142.943 Y73.344 E5.29575
G1 X142.544 Y72.774 E5.33433
G1 X142.250 Y72.144 E5.37296
G1 X142.070 Y71.472 E5.41155
G1 X142.021 Y70.913 E5.44271
G1 X142.906 Y70.779 F9900.000
G1 X142.953 Y70.242 F540.000 E5.47266
G1 X143.092 Y69.721 E5.50259
G1 X143.320 Y69.232 E5.53252
G1 X143.630 Y68.790 E5.56245
G1 X144.011 Y68.409 E5.59238
G1 X144.453 Y68.099 E5.62232
G1 X144.942 Y67.872 E5.65225
G1 X145.463 Y67.732 E5.68218
G1 X146.000 Y67.685 E5.71212
G1 X146.537 Y67.732 E5.74205
G1 X147.058 Y67.872 E5.77198
G1 X147.180 Y67.928 E5.77942
G1 X147.547 Y68.099 E5.80191
G1 X147.989 Y68.409 E5.83185
G1 X148.370 Y68.790 E5.86178
G1 X148.680 Y69.232 E5.89171
G1 X148.908 Y69.721 E5.92166
G1 X149.047 Y70.242 E5.95158
G1 X149.094 Y70.779 E5.98152
G1 X149.047 Y71.316 E6.01145
G1 X148.908 Y71.837 E6.04139
G1 X148.680 Y72.326 E6.07132
G1 X148.370 Y72.768 E6.10125
G1 X147.989 Y73.149 E6.13118
G1 X147.547 Y73.459 E6.16111
G1 X147.426 Y73.515 E6.16856
G1 X147.058 Y73.687 E6.19105
G1 X146.537 Y73.826 E6.22098
G1 X146.000 Y73.873 E6.25092
G1 X145.463 Y73.826 E6.28085
G1 X144.942 Y73.687 E6.31078
G1 X144.453 Y73.459 E6.34071
G1 X144.011 Y73.149 E6.37065
G1 X143.630 Y72.768 E6.40059
G1 X143.320 Y72.326 E6.43051
G1 X143.092 Y71.837 E6.46046
G1 X142.953 Y71.316 E6.49039
G1 X142.918 Y70.913 E6.51288
G1 X143.802 Y70.779 F9900.000
G1 X143.835 Y70.397 F540.000 E6.53415
G1 X143.935 Y70.027 E6.55541
G1 X144.096 Y69.680 E6.57668
G1 X144.316 Y69.366 E6.59794
G1 X144.633 Y69.063 E6.62227
G1 X144.901 Y68.875 E6.64043
G1 X145.248 Y68.714 E6.66169
G1 X145.618 Y68.614 E6.68295
G1 X146.000 Y68.581 E6.70422
G1 X146.382 Y68.614 E6.72549
G1 X146.803 Y68.737 E6.74981
G1 X147.099 Y68.875 E6.76797
G1 X147.413 Y69.095 E6.78923
G1 X147.684 Y69.366 E6.81050
G1 X147.904 Y69.680 E6.83176
G1 X148.066 Y70.027 E6.85303
G1 X148.165 Y70.397 E6.87429
G1 X148.198 Y70.779 E6.89556
G1 X148.165 Y71.161 E6.91682
G1 X148.065 Y71.531 E6.93809
G1 X147.904 Y71.878 E6.95935
G1 X147.684 Y72.192 E6.98061
G1 X147.413 Y72.463 E7.00188
G1 X147.048 Y72.706 E7.02621
G1 X146.752 Y72.845 E7.04437
G1 X146.382 Y72.944 E7.06563
G1 X146.000 Y72.977 E7.08689
G1 X145.618 Y72.944 E7.10816
G1 X145.248 Y72.845 E7.12942
G1 X144.901 Y72.683 E7.15069
G1 X144.587 Y72.463 E7.17195
G1 X144.316 Y72.192 E7.19322
G1 X144.096 Y71.878 E7.21448
G1 X143.934 Y71.531 E7.23575
G1 X143.835 Y71.161 E7.25701
G1 X143.814 Y70.912 E7.27084
G1 X143.476 Y70.578 F9900.000
G1 X146.000 Y99.231
G1 X146.693 Y99.291 F540.000 E7.30945
G1 X147.365 Y99.471 E7.34805
G1 X147.995 Y99.765 E7.38665
G1 X148.565 Y100.164 E7.42525
G1 X149.057 Y100.656 E7.46385
G1 X149.456 Y101.226 E7.50245
G1 X149.545 Y101.418 E7.51423
G1 X149.750 Y101.856 E7.54106
G1 X149.930 Y102.528 E7.57966
G1 X149.990 Y103.221 E7.61826
G1 X149.930 Y103.914 E7.65687
G1 X149.750 Y104.586 E7.69547
G1 X149.456 Y105.216 E7.73406
G1 X149.057 Y105.786 E7.77268
G1 X148.565 Y106.278 E7.81126
G1 X147.995 Y106.677 E7.84987
G1 X147.365 Y106.971 E7.88848
G1 X146.693 Y107.151 E7.92708
G1 X146.000 Y107.211 E7.96568
G1 X145.307 Y107.151 E8.00428
G1 X144.635 Y106.971 E8.04289
G1 X144.005 Y106.677 E8.08148
G1 X143.435 Y106.278 E8.12009
G1 X142.943 Y105.786 E8.15870
G1 X142.544 Y105.216 E8.19729
G1 X142.455 Y105.024 E8.20907
G1 X142.250 Y104.586 E8.23590
G1 X142.070 Y103.914 E8.27451
G1 X142.010 Y103.221 E8.31310
G1 X142.070 Y102.528 E8.35172
G1 X142.250 Y101.856 E8.39032
G1 X142.544 Y101.226 E8.42891
G1 X142.943 Y100.656 E8.46751
G1 X143.435 Y100.164 E8.50611
G1 X144.005 Y99.765 E8.54471
G1 X144.635 Y99.471 E8.58332
G1 X145.307 Y99.291 E8.62193
G1 X145.867 Y99.242 E8.65309
G1 X146.000 Y100.127 F9900.000
G1 X146.537 Y100.174 F540.000 E8.68303
G1 X147.058 Y100.313 E8.71296
G1 X147.547 Y100.541 E8.74289
G1 X147.989 Y100.851 E8.77283
G1 X148.370 Y101.232 E8.80276
G1 X148.680 Y101.674 E8.83269
G1 X148.736 Y101.795 E8.84014
G1 X148.908 Y102.163 E8.86263
G1 X149.047 Y102.684 E8.89256
G1 X149.094 Y103.221 E8.92249
G1 X149.047 Y103.758 E8.95243
G1 X148.908 Y104.279 E8.98237
G1 X148.680 Y104.768 E9.01229
G1 X148.370 Y105.210 E9.04223
G1 X147.989 Y105.591 E9.07215
G1 X147.547 Y105.901 E9.10209
G1 X147.058 Y106.129 E9.13203
G1 X146.537 Y106.268 E9.16196
G1 X146.000 Y106.315 E9.19189
G1 X145.463 Y106.268 E9.22183
G1 X144.942 Y106.128 E9.25176
G1 X144.453 Y105.901 E9.28169
G1 X144.011 Y105.591 E9.31163
G1 X143.630 Y105.210 E9.34156
G1 X143.320 Y104.768 E9.37149
G1 X143.264 Y104.647 E9.37893
G1 X143.092 Y104.279 E9.40143
G1 X142.953 Y103.758 E9.43136
G1 X142.906 Y103.221 E9.46129
G1 X142.953 Y102.683 E9.49123
G1 X143.092 Y102.163 E9.52117
G1 X143.320 Y101.674 E9.55109
G1 X143.630 Y101.232 E9.58103
G1 X144.011 Y100.851 E9.61096
G1 X144.453 Y100.541 E9.64089
G1 X144.942 Y100.313 E9.67083
G1 X145.463 Y100.174 E9.70076
G1 X145.867 Y100.138 E9.72326
G1 X146.000 Y101.023 F9900.000
G1 X146.382 Y101.056 F540.000 E9.74453
G1 X146.752 Y101.155 E9.76579
G1 X147.099 Y101.317 E9.78705
G1 X147.413 Y101.537 E9.80832
G1 X147.684 Y101.808 E9.82958
G1 X147.927 Y102.173 E9.85391
G1 X148.066 Y102.469 E9.87207
G1 X148.165 Y102.839 E9.89333
G1 X148.198 Y103.221 E9.91460
G1 X148.165 Y103.603 E9.93586
G1 X148.065 Y103.973 E9.95713
G1 X147.904 Y104.320 E9.97839
G1 X147.684 Y104.634 E9.99966
G1 X147.413 Y104.905 E10.02092
G1 X147.099 Y105.124 E10.04218
G1 X146.752 Y105.286 E10.06345
G1 X146.382 Y105.386 E10.08471
G1 X146.000 Y105.419 E10.10598
G1 X145.618 Y105.386 E10.12724
G1 X145.248 Y105.286 E10.14850
G1 X144.901 Y105.125 E10.16977
G1 X144.587 Y104.905 E10.19103
G1 X144.316 Y104.634 E10.21230
G1 X144.073 Y104.269 E10.23663
G1 X143.935 Y103.973 E10.25479
G1 X143.835 Y103.603 E10.27605
G1 X143.802 Y103.221 E10.29731
G1 X143.835 Y102.839 E10.31858
G1 X143.935 Y102.469 E10.33984
G1 X144.096 Y102.122 E10.36111
G1 X144.316 Y101.808 E10.38237
G1 X144.587 Y101.537 E10.40363
G1 X144.901 Y101.317 E10.42490
G1 X145.248 Y101.155 E10.44616
G1 X145.618 Y101.056 E10.46743
G1 X145.867 Y101.035 E10.48126
G1 X146.201 Y100.697 F9900.000
G1 X142.912 Y97.435
G1 X141.229 Y99.191 F900.000 E10.61627
G1 X139.015 Y100.829 E10.76914
G1 X136.555 Y102.069 E10.92201
G1 X133.921 Y102.875 E11.07488
G1 X131.189 Y103.225 E11.22775
G1 X128.437 Y103.108 E11.38062
G1 X125.745 Y102.528 E11.53349
G1 X125.446 Y102.408 E11.55135
G1 X123.189 Y101.501 E11.68636
G1 X120.843 Y100.057 E11.83923
G1 X118.776 Y98.237 E11.99210
G1 X117.045 Y96.094 E12.14497
G1 X115.702 Y93.689 E12.29784
G1 X114.784 Y91.092 E12.45071
G1 X114.319 Y88.377 E12.60358
G1 X114.319 Y85.623 E12.75645
G1 X114.784 Y82.908 E12.90932
G1 X115.702 Y80.311 E13.06219
G1 X117.045 Y77.906 E13.21506
G1 X118.776 Y75.763 E13.36793
G1 X120.843 Y73.943 E13.52080
G1 X123.189 Y72.499 E13.67367
G1 X125.745 Y71.472 E13.82654
G1 X128.437 Y70.892 E13.97941
G1 X130.966 Y70.784 E14.11991
G1 X131.189 Y70.775 E14.13228
G1 X133.921 Y71.125 E14.28515
G1 X136.555 Y71.931 E14.43802
G1 X139.015 Y73.171 E14.59089
G1 X141.229 Y74.809 E14.74376
G1 X143.135 Y76.798 E14.89663
G1 X144.678 Y79.080 E15.04950
G1 X145.812 Y81.590 E15.20237
G1 X146.506 Y84.255 E15.35524
G1 X146.740 Y87.000 E15.50811
G1 X146.506 Y89.745 E15.66098
G1 X145.812 Y92.410 E15.81385
G1 X144.678 Y94.920 E15.96672
G1 X143.135 Y97.202 E16.11959
G1 X143.005 Y97.338 E16.13002
G1 X142.438 Y96.639 F9900.000
G1 X140.637 Y98.518 F900.000 E16.27446
G1 X138.545 Y100.066 E16.41890
G1 X136.221 Y101.237 E16.56333
G1 X133.733 Y102.000 E16.70777
G1 X131.151 Y102.330 E16.85221
G1 X128.551 Y102.220 E16.99664
G1 X126.007 Y101.671 E17.14108
G1 X123.592 Y100.701 E17.28551
G1 X121.376 Y99.336 E17.42995
G1 X119.422 Y97.617 E17.57439
G1 X117.787 Y95.592 E17.71882
G1 X116.518 Y93.320 E17.86326
G1 X115.651 Y90.866 E18.00770
G1 X115.211 Y88.301 E18.15213
G1 X115.211 Y85.699 E18.29657
G1 X115.651 Y83.134 E18.44101
G1 X116.518 Y80.680 E18.58544
G1 X117.787 Y78.408 E18.72988
G1 X119.422 Y76.383 E18.87432
G1 X121.376 Y74.664 E19.01875
G1 X123.592 Y73.299 E19.16319
G1 X126.007 Y72.329 E19.30762
G1 X126.247 Y72.277 E19.32127
G1 X128.551 Y71.780 E19.45206
G1 X131.151 Y71.670 E19.59650
G1 X133.733 Y72.000 E19.74093
G1 X136.221 Y72.763 E19.88537
G1 X138.545 Y73.934 E20.02981
G1 X140.637 Y75.482 E20.17424
G1 X142.438 Y77.361 E20.31868
G1 X143.895 Y79.517 E20.46312
G1 X144.967 Y81.888 E20.60755
G1 X145.623 Y84.407 E20.75199
G1 X145.844 Y87.000 E20.89643
G1 X145.623 Y89.593 E21.04086
G1 X144.967 Y92.112 E21.18530
G1 X143.895 Y94.483 E21.32974
G1 X142.513 Y96.528 E21.46674
G1 X141.741 Y96.076 F9900.000
G1 X140.045 Y97.846 F630.000 E21.60274
G1 X138.075 Y99.303 E21.73875
G1 X135.887 Y100.406 E21.87475
G1 X133.544 Y101.124 E22.01075
G1 X131.113 Y101.435 E22.14676
