; generated by Slic3r 0.9.9-dev on 2013-07-21 at 16:54:59

; layer_height = 0.3
; perimeters = 3
; top_solid_layers = 4
; bottom_solid_layers = 4
; fill_density = 0.25
; perimeter_speed = 50
; infill_speed = 80
; travel_speed = 165
; nozzle_diameter = 0.5
; filament_diameter = 3.2
; extrusion_multiplier = 1
; perimeters extrusion width = 0.70mm
; infill extrusion width = 0.70mm
; solid infill extrusion width = 0.70mm
; top infill extrusion width = 0.70mm
; support material extrusion width = 0.70mm
; first layer extrusion width = 1.00mm

G21 ; set units to millimeters
M107
M190 S65 ; wait for bed temperature to be reached
M104 S185 ; set temperature
;G28 ; home all axes
;G1 Z5 F5000 ; lift nozzle
M109 S185 ; wait for temperature to be reached
G90 ; use absolute coordinates
G92 E0
M82 ; use absolute distances for extrusion
G1 F1800.000 E-1.00000
G1 Z0.800
G92 E0
G1 X106.070 Y66.460 F9900.000
G1 Z0.500
G1 F1800.000 E1.00000
G1 X106.700 Y65.600 F900.000 E1.05917
G1 X107.210 Y65.000 E1.10287
G1 X108.000 Y64.210 E1.16487
G1 X108.600 Y63.700 E1.20858
G1 X109.460 Y63.070 E1.26774
G1 X110.130 Y62.660 E1.31134
G1 X111.080 Y62.180 E1.37041
G1 X111.800 Y61.880 E1.41370
G1 X112.860 Y61.530 E1.47565
G1 X113.620 Y61.350 E1.51900
G1 X114.680 Y61.190 E1.57849
G1 X115.990 Y61.110 E1.65133
G1 X123.990 Y61.110 E2.09532
G1 X124.540 Y61.130 E2.12587
G1 X125.670 Y61.220 E2.18878
G1 X126.170 Y61.300 E2.21688
G1 X127.510 Y61.650 E2.29375
G1 X128.600 Y62.040 E2.35800
G1 X129.600 Y62.510 E2.41932
G1 X130.220 Y62.860 E2.45883
G1 X131.540 Y63.790 E2.54845
G1 X131.910 Y64.120 E2.57596
G1 X132.870 Y65.080 E2.65131
G1 X133.200 Y65.450 E2.67883
G1 X133.350 Y65.650 E2.69270
G1 X134.130 Y66.770 E2.76845
G1 X134.370 Y67.180 E2.79482
G1 X134.590 Y67.610 E2.82162
G1 X134.950 Y68.390 E2.86930
G1 X135.340 Y69.480 E2.93355
G1 X135.570 Y70.330 E2.98242
G1 X135.780 Y71.500 E3.04839
G1 X135.860 Y72.370 E3.09688
G1 X135.890 Y73.000 E3.13188
G1 X135.890 Y102.990 E4.79630
G1 X135.860 Y103.620 E4.83130
G1 X135.780 Y104.490 E4.87979
G1 X135.570 Y105.660 E4.94576
G1 X135.340 Y106.510 E4.99463
G1 X134.950 Y107.600 E5.05888
G1 X134.480 Y108.600 E5.12021
G1 X134.130 Y109.220 E5.15972
G1 X133.200 Y110.540 E5.24933
G1 X132.870 Y110.910 E5.27685
G1 X131.730 Y112.040 E5.36593
G1 X131.350 Y112.340 E5.39280
G1 X130.490 Y112.940 E5.45100
G1 X129.510 Y113.510 E5.51392
G1 X128.450 Y114.020 E5.57921
G1 X127.980 Y114.200 E5.60714
G1 X127.510 Y114.340 E5.63435
G1 X126.660 Y114.570 E5.68323
G1 X125.490 Y114.780 E5.74920
G1 X124.620 Y114.860 E5.79768
G1 X123.990 Y114.890 E5.83269
G1 X115.990 Y114.890 E6.27668
G1 X115.350 Y114.860 E6.31224
G1 X114.490 Y114.780 E6.36017
G1 X113.330 Y114.570 E6.42560
G1 X112.480 Y114.340 E6.47447
G1 X111.420 Y113.960 E6.53696
G1 X110.630 Y113.600 E6.58515
G1 X110.170 Y113.370 E6.61369
G1 X109.730 Y113.110 E6.64205
G1 X108.810 Y112.470 E6.70425
G1 X107.910 Y111.700 E6.76999
G1 X107.120 Y110.910 E6.83199
G1 X106.790 Y110.540 E6.85951
G1 X105.860 Y109.220 E6.94912
G1 X105.510 Y108.600 E6.98864
G1 X105.040 Y107.600 E7.04996
G1 X104.650 Y106.510 E7.11421
G1 X104.300 Y105.170 E7.19107
G1 X104.220 Y104.670 E7.21918
G1 X104.130 Y103.540 E7.28209
G1 X104.110 Y102.990 E7.31263
G1 X104.110 Y73.000 E8.97705
G1 X104.190 Y71.690 E9.04989
G1 X104.350 Y70.620 E9.10993
G1 X104.530 Y69.860 E9.15328
G1 X104.880 Y68.800 E9.21523
G1 X105.180 Y68.080 E9.25852
G1 X105.660 Y67.130 E9.31759
G1 X106.000 Y66.574 E9.35375
G1 F1800.000 E8.35375
G1 Z0.800
G92 E0
G1 X117.699 Y84.809 F9900.000
G1 Z0.500
G1 F1800.000 E1.00000
G1 X122.305 Y84.809 F1080.000 E1.25566
G1 X123.688 Y86.595 E1.38097
G1 X116.312 Y86.595 E1.79029
G1 X116.082 Y88.380 E1.89020
G1 X123.918 Y88.380 E2.32507
G1 X123.289 Y90.166 E2.43013
G1 X116.711 Y90.166 E2.79516
G1 X120.001 Y91.951 E3.00289
G1 F1800.000 E2.00289
G1 Z0.800
G92 E0
G1 X119.835 Y93.487 F9900.000
G1 X115.770 Y91.579
G1 X114.468 Y88.000
G1 X115.771 Y84.420
G1 X120.090 Y77.760
G1 X120.000 Y79.490
G1 Z0.500
G1 F1800.000 E1.00000
G1 X119.307 Y79.430 F540.000 E1.03860
G1 X118.635 Y79.250 E1.07720
G1 X118.005 Y78.956 E1.11581
G1 X117.435 Y78.557 E1.15441
G1 X116.943 Y78.065 E1.19301
G1 X116.544 Y77.495 E1.23161
G1 X116.250 Y76.865 E1.27022
G1 X116.070 Y76.193 E1.30882
G1 X116.010 Y75.500 E1.34742
G1 X116.070 Y74.807 E1.38602
G1 X116.250 Y74.135 E1.42462
G1 X116.544 Y73.505 E1.46323
G1 X116.943 Y72.935 E1.50183
G1 X117.435 Y72.443 E1.54043
G1 X118.005 Y72.044 E1.57903
G1 X118.635 Y71.750 E1.61764
G1 X119.307 Y71.570 E1.65624
G1 X120.000 Y71.510 E1.69484
G1 X120.693 Y71.570 E1.73344
G1 X121.365 Y71.750 E1.77205
G1 X121.995 Y72.044 E1.81064
G1 X122.565 Y72.443 E1.84925
G1 X123.057 Y72.935 E1.88785
G1 X123.456 Y73.505 E1.92646
G1 X123.750 Y74.135 E1.96506
G1 X123.930 Y74.807 E2.00366
G1 X123.990 Y75.500 E2.04226
G1 X123.930 Y76.193 E2.08086
G1 X123.750 Y76.865 E2.11947
G1 X123.456 Y77.495 E2.15807
G1 X123.057 Y78.065 E2.19667
G1 X122.565 Y78.557 E2.23527
G1 X121.995 Y78.956 E2.27388
G1 X121.365 Y79.250 E2.31248
G1 X120.693 Y79.430 E2.35108
G1 X120.133 Y79.479 E2.38225
G1 X120.000 Y78.594 F9900.000
G1 X119.463 Y78.547 F540.000 E2.41218
G1 X118.942 Y78.408 E2.44212
G1 X118.453 Y78.180 E2.47205
G1 X118.011 Y77.870 E2.50198
G1 X117.630 Y77.489 E2.53192
G1 X117.320 Y77.047 E2.56185
G1 X117.092 Y76.558 E2.59179
G1 X116.953 Y76.037 E2.62172
G1 X116.906 Y75.500 E2.65165
G1 X116.953 Y74.963 E2.68159
G1 X117.092 Y74.442 E2.71152
G1 X117.320 Y73.953 E2.74145
G1 X117.630 Y73.511 E2.77139
G1 X118.011 Y73.130 E2.80132
G1 X118.453 Y72.820 E2.83125
G1 X118.942 Y72.592 E2.86119
G1 X119.463 Y72.453 E2.89112
G1 X120.000 Y72.406 E2.92105
G1 X120.537 Y72.453 E2.95098
G1 X121.058 Y72.592 E2.98092
G1 X121.547 Y72.820 E3.01085
G1 X121.989 Y73.130 E3.04079
G1 X122.370 Y73.511 E3.07072
G1 X122.680 Y73.953 E3.10065
G1 X122.908 Y74.442 E3.13059
G1 X123.047 Y74.963 E3.16052
G1 X123.094 Y75.500 E3.19045
G1 X123.047 Y76.037 E3.22038
G1 X122.908 Y76.558 E3.25032
G1 X122.680 Y77.047 E3.28025
G1 X122.370 Y77.489 E3.31018
G1 X121.989 Y77.870 E3.34011
G1 X121.547 Y78.180 E3.37005
G1 X121.058 Y78.408 E3.39998
G1 X120.537 Y78.547 E3.42992
G1 X120.133 Y78.582 E3.45242
G1 X120.000 Y77.698 F9900.000
G1 X119.618 Y77.665 F540.000 E3.47368
G1 X119.248 Y77.565 E3.49495
G1 X118.901 Y77.404 E3.51621
G1 X118.587 Y77.184 E3.53748
G1 X118.316 Y76.913 E3.55874
G1 X118.096 Y76.599 E3.58001
G1 X117.935 Y76.252 E3.60127
G1 X117.835 Y75.882 E3.62253
G1 X117.802 Y75.500 E3.64380
G1 X117.835 Y75.118 E3.66506
G1 X117.935 Y74.748 E3.68633
G1 X118.096 Y74.401 E3.70759
G1 X118.316 Y74.087 E3.72886
G1 X118.587 Y73.816 E3.75012
G1 X118.901 Y73.596 E3.77138
G1 X119.248 Y73.435 E3.79265
G1 X119.618 Y73.335 E3.81391
G1 X120.000 Y73.302 E3.83518
G1 X120.382 Y73.335 E3.85644
G1 X120.752 Y73.435 E3.87771
G1 X121.099 Y73.596 E3.89897
G1 X121.413 Y73.816 E3.92023
G1 X121.684 Y74.087 E3.94150
G1 X121.904 Y74.401 E3.96276
G1 X122.065 Y74.748 E3.98403
G1 X122.165 Y75.118 E4.00529
G1 X122.198 Y75.500 E4.02655
G1 X122.165 Y75.882 E4.04782
G1 X122.065 Y76.252 E4.06908
G1 X121.904 Y76.599 E4.09035
G1 X121.684 Y76.913 E4.11161
G1 X121.413 Y77.184 E4.13287
G1 X121.099 Y77.404 E4.15414
G1 X120.752 Y77.565 E4.17540
G1 X120.382 Y77.665 E4.19667
G1 X120.133 Y77.686 E4.21050
G1 X119.799 Y78.024 F9900.000
G1 X120.000 Y81.656
G1 X121.102 Y81.752 F540.000 E4.27188
G1 X122.170 Y82.038 E4.33325
G1 X122.306 Y82.102 E4.34161
G1 X123.172 Y82.506 E4.39462
G1 X124.078 Y83.140 E4.45600
G1 X124.860 Y83.922 E4.51737
G1 X125.494 Y84.828 E4.57875
G1 X125.962 Y85.830 E4.64012
G1 X126.248 Y86.898 E4.70150
G1 X126.344 Y88.000 E4.76287
G1 X126.248 Y89.102 E4.82424
G1 X125.962 Y90.170 E4.88562
G1 X125.494 Y91.172 E4.94699
G1 X124.860 Y92.078 E5.00837
G1 X124.078 Y92.860 E5.06974
G1 X123.172 Y93.494 E5.13112
G1 X122.170 Y93.962 E5.19249
G1 X121.102 Y94.248 E5.25386
G1 X120.000 Y94.344 E5.31524
G1 X118.898 Y94.248 E5.37661
G1 X117.830 Y93.962 E5.43799
G1 X116.828 Y93.494 E5.49936
G1 X115.922 Y92.860 E5.56073
G1 X115.140 Y92.078 E5.62211
G1 X114.506 Y91.172 E5.68348
G1 X114.038 Y90.170 E5.74486
G1 X113.999 Y90.024 E5.75322
G1 X113.752 Y89.102 E5.80623
G1 X113.656 Y88.000 E5.86760
G1 X113.752 Y86.898 E5.92898
G1 X114.038 Y85.830 E5.99035
G1 X114.506 Y84.828 E6.05173
G1 X115.140 Y83.922 E6.11310
G1 X115.922 Y83.140 E6.17448
G1 X116.828 Y82.506 E6.23585
G1 X117.830 Y82.038 E6.29722
G1 X118.898 Y81.752 E6.35860
G1 X119.867 Y81.668 E6.41254
G1 X120.000 Y82.552 F9900.000
G1 X120.946 Y82.635 F540.000 E6.46525
G1 X121.929 Y82.911 E6.52192
G1 X122.724 Y83.282 E6.57060
G1 X123.502 Y83.827 E6.62330
G1 X124.173 Y84.498 E6.67601
G1 X124.718 Y85.276 E6.72871
G1 X125.119 Y86.137 E6.78142
G1 X125.365 Y87.054 E6.83412
G1 X125.448 Y88.000 E6.88683
G1 X125.365 Y88.946 E6.93953
G1 X125.119 Y89.863 E6.99224
G1 X124.718 Y90.724 E7.04494
G1 X124.173 Y91.502 E7.09765
G1 X123.502 Y92.173 E7.15036
G1 X122.724 Y92.718 E7.20306
G1 X121.863 Y93.119 E7.25577
G1 X120.946 Y93.365 E7.30847
G1 X120.000 Y93.448 E7.36118
G1 X119.054 Y93.365 E7.41388
G1 X118.137 Y93.119 E7.46659
G1 X117.276 Y92.718 E7.51929
G1 X116.498 Y92.173 E7.57200
G1 X115.827 Y91.502 E7.62470
G1 X115.282 Y90.724 E7.67741
G1 X114.881 Y89.863 E7.73011
G1 X114.635 Y88.946 E7.78282
G1 X114.552 Y88.000 E7.83552
G1 X114.635 Y87.054 E7.88823
G1 X114.881 Y86.137 E7.94093
G1 X115.282 Y85.276 E7.99364
G1 X115.827 Y84.498 E8.04634
G1 X116.498 Y83.827 E8.09905
G1 X117.276 Y83.282 E8.15175
G1 X118.137 Y82.881 E8.20446
G1 X119.054 Y82.635 E8.25716
G1 X119.867 Y82.564 E8.30244
G1 X120.469 Y81.792 F9900.000
G1 X120.000 Y82.448
G1 X115.771 Y84.420
G1 X114.468 Y88.000
G1 X115.770 Y91.579
G1 X120.024 Y98.209
G1 X120.000 Y96.510
G1 X120.693 Y96.570 F540.000 E8.34104
G1 X121.365 Y96.750 E8.37964
G1 X121.995 Y97.044 E8.41823
G1 X122.565 Y97.443 E8.45684
G1 X123.057 Y97.935 E8.49545
G1 X123.456 Y98.505 E8.53405
G1 X123.750 Y99.135 E8.57266
G1 X123.930 Y99.807 E8.61126
G1 X123.990 Y100.500 E8.64986
G1 X123.930 Y101.193 E8.68845
G1 X123.750 Y101.865 E8.72707
G1 X123.456 Y102.495 E8.76567
G1 X123.057 Y103.065 E8.80426
G1 X122.565 Y103.557 E8.84287
G1 X121.995 Y103.956 E8.88147
G1 X121.365 Y104.250 E8.92007
G1 X120.693 Y104.430 E8.95867
G1 X120.000 Y104.490 E8.99728
G1 X119.307 Y104.430 E9.03588
G1 X118.635 Y104.250 E9.07448
G1 X118.439 Y104.158 E9.08652
G1 X118.005 Y103.956 E9.11308
G1 X117.435 Y103.557 E9.15169
G1 X116.943 Y103.065 E9.19029
G1 X116.544 Y102.495 E9.22889
G1 X116.250 Y101.865 E9.26749
G1 X116.070 Y101.193 E9.30610
G1 X116.010 Y100.500 E9.34470
G1 X116.070 Y99.807 E9.38330
G1 X116.250 Y99.135 E9.42190
G1 X116.544 Y98.505 E9.46051
G1 X116.943 Y97.935 E9.49911
G1 X117.435 Y97.443 E9.53771
G1 X118.005 Y97.044 E9.57631
G1 X118.635 Y96.750 E9.61492
G1 X119.307 Y96.570 E9.65352
G1 X119.867 Y96.521 E9.68469
G1 X120.000 Y97.406 F9900.000
G1 X120.537 Y97.453 F540.000 E9.71462
G1 X121.058 Y97.592 E9.74456
G1 X121.547 Y97.820 E9.77448
G1 X121.989 Y98.130 E9.80442
G1 X122.370 Y98.511 E9.83435
G1 X122.680 Y98.953 E9.86429
G1 X122.908 Y99.442 E9.89422
G1 X123.047 Y99.963 E9.92416
G1 X123.094 Y100.500 E9.95409
G1 X123.047 Y101.037 E9.98402
G1 X122.908 Y101.558 E10.01396
G1 X122.680 Y102.047 E10.04389
G1 X122.370 Y102.489 E10.07382
G1 X122.272 Y102.587 E10.08153
G1 X121.989 Y102.870 E10.10375
G1 X121.547 Y103.180 E10.13369
G1 X121.058 Y103.408 E10.16362
G1 X120.537 Y103.547 E10.19355
G1 X120.000 Y103.594 E10.22349
G1 X119.463 Y103.547 E10.25342
G1 X118.942 Y103.408 E10.28335
G1 X118.816 Y103.349 E10.29106
G1 X118.453 Y103.180 E10.31328
G1 X118.011 Y102.870 E10.34322
G1 X117.630 Y102.489 E10.37315
G1 X117.320 Y102.047 E10.40309
G1 X117.092 Y101.558 E10.43302
G1 X116.953 Y101.037 E10.46296
G1 X116.906 Y100.500 E10.49289
G1 X116.953 Y99.963 E10.52282
G1 X117.092 Y99.442 E10.55275
G1 X117.320 Y98.953 E10.58269
G1 X117.630 Y98.511 E10.61262
G1 X118.011 Y98.130 E10.64256
G1 X118.453 Y97.820 E10.67248
G1 X118.942 Y97.592 E10.70242
G1 X119.463 Y97.453 E10.73236
G1 X119.867 Y97.418 E10.75486
G1 X120.000 Y98.302 F9900.000
G1 X120.382 Y98.335 F540.000 E10.77612
G1 X120.752 Y98.435 E10.79738
G1 X121.149 Y98.631 E10.82198
G1 X121.413 Y98.816 E10.83987
G1 X121.684 Y99.087 E10.86113
G1 X121.904 Y99.401 E10.88240
G1 X122.066 Y99.748 E10.90366
G1 X122.165 Y100.118 E10.92493
G1 X122.198 Y100.500 E10.94619
G1 X122.165 Y100.882 E10.96745
G1 X122.065 Y101.252 E10.98872
G1 X121.904 Y101.599 E11.00998
G1 X121.641 Y101.956 E11.03458
G1 X121.413 Y102.184 E11.05247
G1 X121.099 Y102.404 E11.07373
G1 X120.752 Y102.565 E11.09499
G1 X120.382 Y102.665 E11.11626
G1 X120.000 Y102.698 E11.13752
G1 X119.618 Y102.665 E11.15879
G1 X119.193 Y102.540 E11.18338
G1 X118.901 Y102.404 E11.20127
G1 X118.587 Y102.184 E11.22254
G1 X118.316 Y101.913 E11.24380
G1 X118.096 Y101.599 E11.26506
G1 X117.935 Y101.252 E11.28633
G1 X117.835 Y100.882 E11.30759
G1 X117.802 Y100.500 E11.32886
G1 X117.835 Y100.118 E11.35012
G1 X117.934 Y99.748 E11.37139
G1 X118.096 Y99.401 E11.39265
G1 X118.316 Y99.087 E11.41392
G1 X118.587 Y98.816 E11.43518
G1 X118.901 Y98.596 E11.45644
G1 X119.248 Y98.435 E11.47771
G1 X119.618 Y98.335 E11.49897
G1 X119.867 Y98.314 E11.51280
G1 X120.201 Y97.976 F9900.000
G1 X120.000 Y95.240
G1 X121.257 Y95.130 F900.000 E11.58285
G1 X122.476 Y94.804 E11.65289
G1 X123.620 Y94.270 E11.72293
G1 X124.654 Y93.546 E11.79298
G1 X125.546 Y92.654 E11.86302
G1 X126.519 Y91.264 E11.95717
G1 X126.768 Y91.343 E11.97165
G1 X126.768 Y102.903 E12.61321
G1 X126.718 Y103.479 E12.64534
G1 X126.593 Y103.944 E12.67204
G1 X126.390 Y104.380 E12.69873
G1 X126.114 Y104.774 E12.72543
G1 X125.774 Y105.114 E12.75213
G1 X125.380 Y105.390 E12.77883
G1 X124.944 Y105.593 E12.80553
G1 X124.479 Y105.718 E12.83222
G1 X123.903 Y105.768 E12.86435
G1 X116.097 Y105.768 E13.29753
G1 X115.521 Y105.718 E13.32965
G1 X115.056 Y105.593 E13.35635
G1 X114.620 Y105.390 E13.38305
G1 X114.226 Y105.114 E13.40975
G1 X113.886 Y104.774 E13.43644
G1 X113.610 Y104.380 E13.46314
G1 X113.407 Y103.944 E13.48984
G1 X113.282 Y103.479 E13.51654
G1 X113.232 Y102.903 E13.54866
G1 X113.232 Y91.343 E14.19022
G1 X113.481 Y91.264 E14.20470
G1 X114.454 Y92.654 E14.29885
G1 X115.346 Y93.546 E14.36890
G1 X116.380 Y94.270 E14.43894
G1 X117.524 Y94.804 E14.50898
G1 X118.743 Y95.130 E14.57903
G1 X119.867 Y95.229 E14.64164
G1 X120.067 Y93.508 F9900.000
G1 X119.835 Y93.487
G1 X115.770 Y91.579
G1 X114.468 Y88.000
G1 X115.771 Y84.420
G1 X113.481 Y84.736
G1 X113.232 Y84.657 F900.000 E14.65612
G1 X113.232 Y73.088 E15.29822
G1 X113.273 Y72.568 E15.32715
G1 X113.374 Y72.147 E15.35120
G1 X113.540 Y71.746 E15.37525
G1 X113.766 Y71.377 E15.39929
G1 X114.047 Y71.047 E15.42334
G1 X114.377 Y70.766 E15.44739
G1 X114.746 Y70.540 E15.47144
G1 X115.147 Y70.374 E15.49549
G1 X115.568 Y70.273 E15.51953
G1 X116.088 Y70.232 E15.54846
G1 X123.903 Y70.232 E15.98218
G1 X124.479 Y70.282 E16.01431
G1 X124.944 Y70.407 E16.04101
G1 X125.380 Y70.610 E16.06770
G1 X125.774 Y70.886 E16.09440
G1 X126.114 Y71.226 E16.12110
G1 X126.390 Y71.620 E16.14780
G1 X126.593 Y72.056 E16.17449
G1 X126.718 Y72.521 E16.20119
G1 X126.768 Y73.097 E16.23332
G1 X126.768 Y84.657 E16.87488
G1 X126.519 Y84.736 E16.88936
G1 X125.546 Y83.346 E16.98351
G1 X124.654 Y82.454 E17.05355
G1 X123.620 Y81.730 E17.12360
G1 X122.476 Y81.196 E17.19364
G1 X121.257 Y80.870 E17.26368
G1 X120.000 Y80.760 E17.33373
G1 X118.743 Y80.870 E17.40377
G1 X117.745 Y81.137 E17.46112
G1 X117.524 Y81.196 E17.47381
G1 X116.380 Y81.730 E17.54386
G1 X115.346 Y82.454 E17.61390
G1 X114.454 Y83.346 E17.68394
G1 X113.557 Y84.626 E17.77066
G1 X112.339 Y73.053 F9900.000
G1 X112.388 Y72.428 F900.000 E17.80544
G1 X112.522 Y71.870 E17.83729
G1 X112.742 Y71.340 E17.86913
G1 X113.042 Y70.851 E17.90098
G1 X113.414 Y70.414 E17.93282
G1 X113.851 Y70.042 E17.96467
G1 X114.340 Y69.742 E17.99652
G1 X114.870 Y69.522 E18.02836
G1 X115.428 Y69.388 E18.06021
G1 X116.053 Y69.339 E18.09499
G1 X123.942 Y69.339 E18.53281
G1 X124.635 Y69.400 E18.57144
G1 X125.250 Y69.565 E18.60680
G1 X125.828 Y69.834 E18.64217
G1 X126.350 Y70.199 E18.67754
G1 X126.801 Y70.650 E18.71291
G1 X127.166 Y71.172 E18.74827
G1 X127.435 Y71.750 E18.78364
G1 X127.600 Y72.365 E18.81901
