; generated by Slic3r 0.9.9-dev on 2013-11-03 at 11:14:38

; layer_height = 0.3
; perimeters = 2
; top_solid_layers = 4
; bottom_solid_layers = 4
; fill_density = 0.25
; perimeter_speed = 50
; infill_speed = 50
; travel_speed = 165
; nozzle_diameter = 0.5
; filament_diameter = 3.2
; extrusion_multiplier = 1
; perimeters extrusion width = 0.70mm
; infill extrusion width = 0.70mm
; solid infill extrusion width = 0.70mm
; top infill extrusion width = 0.70mm
; first layer extrusion width = 0.80mm

G21 ; set units to millimeters
M107
M190 S60 ; wait for bed temperature to be reached
M104 S195 ; set temperature
;G28 ; home all axes
;G1 Z5 F5000 ; lift nozzle
M109 S195 ; wait for temperature to be reached
G90 ; use absolute coordinates
G92 E0
M82 ; use absolute distances for extrusion
G1 F1800.000 E-1.00000
G1 Z0.700
G92 E0
G1 X83.863 Y65.987 F9900.000
G1 Z0.400
G1 F1800.000 E1.00000
G1 X84.373 Y65.397 F900.000 E1.02853
G1 X85.073 Y64.697 E1.06475
G1 X85.663 Y64.187 E1.09328
G1 X86.543 Y63.537 E1.13331
G1 X87.213 Y63.127 E1.16205
G1 X88.173 Y62.647 E1.20132
G1 X88.903 Y62.347 E1.23020
G1 X89.833 Y62.047 E1.26595
G1 X90.593 Y61.857 E1.29461
G1 X91.703 Y61.667 E1.33581
G1 X92.483 Y61.607 E1.36443
G1 X138.993 Y60.927 E3.06626
G1 X146.993 Y60.927 E3.35896
G1 X148.653 Y61.047 E3.41985
G1 X149.153 Y61.127 E3.43837
G1 X149.643 Y61.237 E3.45675
G1 X150.483 Y61.467 E3.48861
G1 X151.493 Y61.837 E3.52797
G1 X152.503 Y62.297 E3.56857
G1 X152.933 Y62.537 E3.58659
G1 X153.133 Y62.657 E3.59512
G1 X154.263 Y63.437 E3.64536
G1 X154.833 Y63.927 E3.67286
G1 X155.623 Y64.727 E3.71399
G1 X156.333 Y65.567 E3.75423
G1 X156.833 Y66.277 E3.78601
G1 X157.093 Y66.677 E3.80346
G1 X157.323 Y67.087 E3.82066
G1 X157.793 Y68.087 E3.86109
G1 X157.973 Y68.517 E3.87814
G1 X158.133 Y68.967 E3.89561
G1 X158.423 Y70.037 E3.93617
G1 X158.583 Y70.767 E3.96352
G1 X158.613 Y71.007 E3.97237
G1 X158.733 Y72.667 E4.03326
G1 X158.733 Y102.657 E5.13049
G1 X158.613 Y104.317 E5.19139
G1 X158.583 Y104.557 E5.20024
G1 X158.483 Y105.047 E5.21853
G1 X158.053 Y106.597 E5.27738
G1 X157.783 Y107.267 E5.30381
G1 X157.413 Y108.047 E5.33540
G1 X156.853 Y108.997 E5.37574
G1 X156.353 Y109.717 E5.40782
G1 X155.623 Y110.597 E5.44965
G1 X154.653 Y111.567 E5.49984
G1 X154.263 Y111.887 E5.51829
G1 X153.133 Y112.667 E5.56853
G1 X152.503 Y113.027 E5.59508
G1 X151.493 Y113.487 E5.63568
G1 X150.483 Y113.857 E5.67504
G1 X149.183 Y114.197 E5.72420
G1 X148.483 Y114.297 E5.75007
G1 X147.613 Y114.377 E5.78203
G1 X124.323 Y115.067 E6.63451
G1 X93.003 Y115.067 E7.78041
G1 X91.343 Y114.947 E7.84130
G1 X90.603 Y114.817 E7.86879
G1 X89.513 Y114.527 E7.91006
G1 X88.433 Y114.127 E7.95219
G1 X87.433 Y113.657 E7.99262
G1 X87.023 Y113.427 E8.00982
G1 X85.913 Y112.667 E8.05904
G1 X85.073 Y111.957 E8.09928
G1 X84.103 Y110.987 E8.14947
G1 X83.783 Y110.597 E8.16792
G1 X83.143 Y109.667 E8.20923
G1 X82.573 Y108.687 E8.25071
G1 X82.103 Y107.667 E8.29180
G1 X81.853 Y106.977 E8.31865
G1 X81.563 Y105.907 E8.35921
G1 X81.373 Y104.817 E8.39969
G1 X81.293 Y103.947 E8.43165
G1 X81.263 Y103.327 E8.45436
G1 X81.263 Y73.327 E9.55196
G1 X81.283 Y72.807 E9.57100
G1 X81.343 Y72.027 E9.59963
G1 X81.533 Y70.917 E9.64083
G1 X81.723 Y70.157 E9.66949
G1 X82.023 Y69.227 E9.70524
G1 X82.323 Y68.497 E9.73412
G1 X82.803 Y67.537 E9.77339
G1 X83.213 Y66.867 E9.80212
G1 X83.798 Y66.075 E9.83811
G1 F1800.000 E8.83811
G1 Z0.700
G92 E0
G1 X94.811 Y73.996 F9900.000
G1 Z0.400
G1 F1800.000 E1.00000
G1 X95.163 Y73.644 F540.000 E1.01823
G1 X95.571 Y73.359 E1.03645
G1 X96.023 Y73.148 E1.05467
G1 X96.504 Y73.019 E1.07290
G1 X97.000 Y72.976 E1.09112
G1 X97.496 Y73.019 E1.10935
G1 X97.977 Y73.148 E1.12757
G1 X98.429 Y73.359 E1.14580
G1 X98.837 Y73.644 E1.16402
G1 X99.189 Y73.997 E1.18225
G1 X99.475 Y74.404 E1.20047
G1 X99.685 Y74.856 E1.21870
G1 X99.814 Y75.337 E1.23692
G1 X99.824 Y75.451 E1.24109
G1 X99.858 Y75.833 E1.25515
G1 X99.814 Y76.329 E1.27337
G1 X99.685 Y76.811 E1.29159
G1 X99.475 Y77.262 E1.30982
G1 X99.189 Y77.670 E1.32804
G1 X98.837 Y78.022 E1.34627
G1 X98.429 Y78.308 E1.36449
G1 X97.977 Y78.519 E1.38272
G1 X97.496 Y78.648 E1.40094
G1 X97.383 Y78.657 E1.40511
G1 X97.000 Y78.691 E1.41917
G1 X96.504 Y78.648 E1.43739
G1 X96.023 Y78.519 E1.45562
G1 X95.571 Y78.308 E1.47384
G1 X95.163 Y78.022 E1.49206
G1 X94.811 Y77.670 E1.51029
G1 X94.525 Y77.262 E1.52851
G1 X94.315 Y76.811 E1.54674
G1 X94.186 Y76.330 E1.56496
G1 X94.142 Y75.833 E1.58319
G1 X94.186 Y75.337 E1.60141
G1 X94.315 Y74.856 E1.61964
G1 X94.525 Y74.405 E1.63786
G1 X94.748 Y74.087 E1.65205
G1 X95.377 Y74.471 F9900.000
G1 X95.638 Y74.210 F540.000 E1.66556
G1 X95.940 Y73.998 E1.67908
G1 X96.275 Y73.842 E1.69259
G1 X96.632 Y73.746 E1.70611
G1 X97.000 Y73.714 E1.71962
G1 X97.368 Y73.746 E1.73314
G1 X97.725 Y73.842 E1.74665
G1 X98.060 Y73.998 E1.76017
G1 X98.362 Y74.210 E1.77368
G1 X98.623 Y74.471 E1.78720
G1 X98.835 Y74.774 E1.80072
G1 X98.991 Y75.109 E1.81423
G1 X99.091 Y75.515 E1.82954
G1 X99.119 Y75.833 E1.84124
G1 X99.087 Y76.201 E1.85475
G1 X98.991 Y76.558 E1.86827
G1 X98.835 Y76.893 E1.88178
G1 X98.623 Y77.196 E1.89530
G1 X98.362 Y77.457 E1.90881
G1 X98.060 Y77.669 E1.92233
G1 X97.725 Y77.825 E1.93584
G1 X97.319 Y77.925 E1.95115
G1 X97.000 Y77.953 E1.96285
G1 X96.632 Y77.920 E1.97636
G1 X96.275 Y77.825 E1.98988
G1 X95.940 Y77.669 E2.00340
G1 X95.638 Y77.457 E2.01691
G1 X95.377 Y77.196 E2.03043
G1 X95.165 Y76.893 E2.04394
G1 X95.009 Y76.558 E2.05746
G1 X94.913 Y76.201 E2.07097
G1 X94.881 Y75.833 E2.08449
G1 X94.913 Y75.465 E2.09800
G1 X95.009 Y75.109 E2.11152
G1 X95.165 Y74.774 E2.12503
G1 X95.313 Y74.562 E2.13451
G1 X95.260 Y74.120 F9900.000
G1 X95.510 Y74.094
G1 X94.709 Y75.810
G1 X97.001 Y82.782
G1 X95.939 Y82.318
G1 X97.000 Y82.226 F540.000 E2.17346
G1 X98.061 Y82.318 E2.21241
G1 X99.089 Y82.594 E2.25137
G1 X100.054 Y83.044 E2.29032
G1 X100.926 Y83.655 E2.32927
G1 X101.679 Y84.407 E2.36822
G1 X102.289 Y85.280 E2.40717
G1 X102.739 Y86.244 E2.44612
G1 X103.015 Y87.273 E2.48507
G1 X103.108 Y88.333 E2.52403
G1 X103.015 Y89.394 E2.56298
G1 X102.739 Y90.422 E2.60193
G1 X102.289 Y91.387 E2.64088
G1 X101.679 Y92.259 E2.67983
G1 X100.926 Y93.012 E2.71879
G1 X100.054 Y93.623 E2.75773
G1 X99.089 Y94.073 E2.79669
G1 X98.061 Y94.348 E2.83564
G1 X97.000 Y94.441 E2.87459
G1 X95.939 Y94.348 E2.91354
G1 X94.911 Y94.073 E2.95249
G1 X93.946 Y93.623 E2.99144
G1 X93.074 Y93.012 E3.03040
G1 X92.321 Y92.259 E3.06935
G1 X91.711 Y91.387 E3.10830
G1 X91.261 Y90.422 E3.14725
G1 X90.985 Y89.394 E3.18620
G1 X90.892 Y88.333 E3.22515
G1 X90.985 Y87.273 E3.26410
G1 X91.261 Y86.244 E3.30305
G1 X91.711 Y85.279 E3.34201
G1 X92.321 Y84.407 E3.38096
G1 X93.074 Y83.655 E3.41991
G1 X93.946 Y83.044 E3.45886
G1 X94.911 Y82.594 E3.49781
G1 X95.833 Y82.347 E3.53272
G1 X96.068 Y83.046 F9900.000
G1 X97.000 Y82.964 F540.000 E3.56697
G1 X97.932 Y83.046 E3.60121
G1 X98.836 Y83.288 E3.63545
G1 X99.685 Y83.683 E3.66969
G1 X100.451 Y84.220 E3.70393
G1 X101.113 Y84.882 E3.73818
G1 X101.650 Y85.649 E3.77242
G1 X102.045 Y86.497 E3.80666
G1 X102.288 Y87.401 E3.84090
G1 X102.369 Y88.333 E3.87515
G1 X102.288 Y89.266 E3.90939
G1 X102.045 Y90.170 E3.94363
G1 X101.650 Y91.018 E3.97787
G1 X101.113 Y91.785 E4.01211
G1 X100.451 Y92.446 E4.04636
G1 X99.631 Y93.008 E4.08273
G1 X98.836 Y93.379 E4.11481
G1 X97.932 Y93.621 E4.14905
G1 X97.000 Y93.703 E4.18329
G1 X96.068 Y93.621 E4.21754
G1 X95.164 Y93.379 E4.25178
G1 X94.315 Y92.983 E4.28602
G1 X93.549 Y92.446 E4.32026
G1 X92.887 Y91.785 E4.35450
G1 X92.350 Y91.018 E4.38875
G1 X91.955 Y90.170 E4.42299
G1 X91.712 Y89.266 E4.45723
G1 X91.631 Y88.333 E4.49147
G1 X91.712 Y87.401 E4.52571
G1 X91.955 Y86.497 E4.55996
G1 X92.350 Y85.649 E4.59420
G1 X92.887 Y84.882 E4.62844
G1 X93.549 Y84.220 E4.66268
G1 X94.315 Y83.683 E4.69693
G1 X95.164 Y83.288 E4.73117
G1 X95.961 Y83.074 E4.76137
G1 X96.339 Y82.362 F9900.000
G1 X97.001 Y82.782
G1 X92.791 Y84.734
G1 X91.468 Y88.332
G1 X92.771 Y91.912
G1 X97.024 Y98.543
G1 X97.000 Y97.976
G1 X97.496 Y98.019 F540.000 E4.77960
G1 X97.977 Y98.148 E4.79782
G1 X98.429 Y98.359 E4.81604
G1 X98.837 Y98.644 E4.83427
G1 X99.189 Y98.996 E4.85249
G1 X99.475 Y99.405 E4.87072
G1 X99.685 Y99.856 E4.88894
G1 X99.814 Y100.337 E4.90717
G1 X99.858 Y100.833 E4.92539
G1 X99.814 Y101.330 E4.94362
G1 X99.685 Y101.811 E4.96184
G1 X99.475 Y102.262 E4.98007
G1 X99.189 Y102.670 E4.99829
G1 X98.837 Y103.022 E5.01651
G1 X98.429 Y103.308 E5.03474
G1 X97.977 Y103.519 E5.05297
G1 X97.496 Y103.648 E5.07119
G1 X97.000 Y103.691 E5.08941
G1 X96.504 Y103.648 E5.10764
G1 X96.023 Y103.519 E5.12586
G1 X95.571 Y103.308 E5.14408
G1 X95.478 Y103.243 E5.14825
G1 X95.163 Y103.022 E5.16231
G1 X94.811 Y102.670 E5.18053
G1 X94.525 Y102.262 E5.19876
G1 X94.315 Y101.811 E5.21699
G1 X94.186 Y101.330 E5.23521
G1 X94.142 Y100.833 E5.25344
G1 X94.186 Y100.337 E5.27166
G1 X94.315 Y99.856 E5.28988
G1 X94.525 Y99.405 E5.30811
G1 X94.811 Y98.996 E5.32633
G1 X95.163 Y98.644 E5.34456
G1 X95.571 Y98.359 E5.36278
G1 X96.023 Y98.148 E5.38101
G1 X96.504 Y98.019 E5.39923
G1 X96.890 Y97.985 E5.41342
G1 X97.000 Y98.714 F9900.000
G1 X97.368 Y98.746 F540.000 E5.42694
G1 X97.725 Y98.842 E5.44045
G1 X98.060 Y98.998 E5.45396
G1 X98.362 Y99.210 E5.46748
G1 X98.623 Y99.471 E5.48100
G1 X98.835 Y99.774 E5.49451
G1 X98.991 Y100.109 E5.50803
G1 X99.087 Y100.465 E5.52154
G1 X99.119 Y100.833 E5.53506
G1 X99.087 Y101.201 E5.54857
G1 X98.991 Y101.558 E5.56209
G1 X98.835 Y101.893 E5.57560
G1 X98.623 Y102.196 E5.58912
G1 X98.322 Y102.485 E5.60442
G1 X98.060 Y102.669 E5.61612
G1 X97.725 Y102.825 E5.62964
G1 X97.368 Y102.920 E5.64315
G1 X97.000 Y102.953 E5.65667
G1 X96.632 Y102.920 E5.67019
G1 X96.275 Y102.825 E5.68370
G1 X95.900 Y102.640 E5.69901
G1 X95.638 Y102.457 E5.71071
G1 X95.377 Y102.196 E5.72422
G1 X95.165 Y101.893 E5.73774
G1 X95.009 Y101.558 E5.75125
G1 X94.913 Y101.201 E5.76477
G1 X94.881 Y100.833 E5.77828
G1 X94.913 Y100.465 E5.79180
G1 X95.009 Y100.109 E5.80531
G1 X95.165 Y99.774 E5.81883
G1 X95.377 Y99.471 E5.83234
G1 X95.638 Y99.210 E5.84586
G1 X95.940 Y98.998 E5.85937
G1 X96.275 Y98.842 E5.87289
G1 X96.632 Y98.746 E5.88641
G1 X96.890 Y98.724 E5.89588
G1 X97.194 Y98.400 F9900.000
G1 X104.897 Y103.285
G1 X104.833 Y104.009 F900.000 E5.92248
G1 X104.658 Y104.665 E5.94730
G1 X104.371 Y105.280 E5.97212
G1 X103.982 Y105.835 E5.99695
G1 X103.502 Y106.315 E6.02177
G1 X102.946 Y106.704 E6.04659
G1 X102.331 Y106.991 E6.07142
G1 X101.676 Y107.167 E6.09624
G1 X100.952 Y107.230 E6.12283
G1 X93.048 Y107.230 E6.41200
G1 X92.324 Y107.167 E6.43859
G1 X91.669 Y106.991 E6.46342
G1 X91.054 Y106.704 E6.48824
G1 X90.498 Y106.315 E6.51307
G1 X90.018 Y105.835 E6.53789
G1 X89.629 Y105.280 E6.56271
G1 X89.342 Y104.665 E6.58753
G1 X89.167 Y104.009 E6.61236
G1 X89.103 Y103.285 E6.63895
G1 X89.103 Y73.377 E7.73320
G1 X89.155 Y72.724 E7.75715
G1 X89.297 Y72.130 E7.77950
G1 X89.531 Y71.566 E7.80185
G1 X89.850 Y71.045 E7.82420
G1 X90.247 Y70.580 E7.84655
G1 X90.712 Y70.184 E7.86890
G1 X91.233 Y69.865 E7.89125
G1 X91.797 Y69.631 E7.91360
G1 X92.391 Y69.488 E7.93595
G1 X93.043 Y69.437 E7.95990
G1 X100.952 Y69.437 E8.24924
G1 X101.676 Y69.500 E8.27583
G1 X102.331 Y69.676 E8.30066
G1 X102.946 Y69.962 E8.32548
G1 X103.502 Y70.352 E8.35030
G1 X103.982 Y70.831 E8.37513
G1 X104.371 Y71.387 E8.39995
G1 X104.658 Y72.002 E8.42477
G1 X104.833 Y72.657 E8.44960
G1 X104.897 Y73.382 E8.47619
G1 X104.897 Y103.175 E9.56623
G1 X105.632 Y103.317 F9900.000
G1 X105.560 Y104.137 F630.000 E9.59635
G1 X105.352 Y104.917 E9.62589
G1 X105.010 Y105.649 E9.65542
G1 X104.547 Y106.310 E9.68495
G1 X103.977 Y106.881 E9.71448
G1 X103.315 Y107.344 E9.74402
G1 X102.584 Y107.685 E9.77355
G1 X101.804 Y107.894 E9.80308
G1 X100.984 Y107.966 E9.83320
G1 X93.016 Y107.966 E10.12472
G1 X92.196 Y107.894 E10.15484
G1 X91.416 Y107.685 E10.18438
G1 X90.701 Y107.351 E10.21327
G1 X90.023 Y106.881 E10.24343
G1 X89.453 Y106.310 E10.27297
G1 X88.990 Y105.649 E10.30250
G1 X88.648 Y104.917 E10.33203
G1 X88.440 Y104.137 E10.36156
G1 X88.368 Y103.317 E10.39169
G1 X88.368 Y73.348 E11.48817
G1 X88.426 Y72.609 E11.51529
G1 X88.596 Y71.902 E11.54188
G1 X88.874 Y71.231 E11.56847
G1 X89.253 Y70.611 E11.59505
G1 X89.725 Y70.059 E11.62164
G1 X90.278 Y69.587 E11.64823
G1 X90.898 Y69.207 E11.67482
G1 X91.569 Y68.929 E11.70140
G1 X92.276 Y68.759 E11.72799
G1 X93.014 Y68.701 E11.75511
G1 X100.984 Y68.701 E12.04669
G1 X101.804 Y68.773 E12.07681
G1 X102.584 Y68.982 E12.10634
G1 X103.315 Y69.323 E12.13587
G1 X103.977 Y69.786 E12.16541
G1 X104.547 Y70.357 E12.19494
G1 X105.010 Y71.018 E12.22447
G1 X105.352 Y71.750 E12.25400
G1 X105.560 Y72.529 E12.28354
G1 X105.632 Y73.349 E12.31366
G1 X105.632 Y103.207 E13.40605
G1 X104.975 Y103.647 F9900.000
G1 X104.363 Y102.619
G1 X96.694 Y94.949 F900.000 E13.80673
G1 X97.709 Y94.914 E13.84426
G1 X104.363 Y101.568 E14.19190
G1 X104.363 Y100.518 E14.23071
G1 X98.601 Y94.755 E14.53177
G1 X99.408 Y94.512 E14.56292
G1 X104.363 Y99.467 E14.82180
G1 X104.363 Y98.417 E14.86061
G1 X100.125 Y94.178 E15.08207
G1 X100.770 Y93.772 E15.11021
G1 X104.363 Y97.366 E15.29797
G1 X104.363 Y96.316 E15.33678
G1 X101.370 Y93.322 E15.49318
G1 X101.895 Y92.797 E15.52063
G1 X104.363 Y95.265 E15.64959
G1 X104.363 Y94.215 E15.68840
G1 X102.362 Y92.213 E15.79297
G1 X102.785 Y91.586 E15.82092
G1 X104.363 Y93.164 E15.90339
G1 X104.363 Y92.114 E15.94220
G1 X103.119 Y90.870 E16.00721
G1 X103.382 Y90.082 E16.03787
G1 X104.363 Y91.063 E16.08912
G1 X104.363 Y90.013 E16.12793
G1 X103.604 Y89.254 E16.16759
G1 X104.363 Y88.962 E16.19762
G1 X98.496 Y97.801 F9900.000
G1 X95.468 Y94.774 F900.000 E16.35580
G1 X93.775 Y94.131 E16.42270
G1 X97.092 Y97.449 E16.59602
G1 X96.154 Y97.561 E16.63093
G1 X89.637 Y91.043 E16.97144
G1 X89.637 Y92.094 E17.01025
G1 X95.395 Y97.852 E17.31111
G1 X94.773 Y98.280 E17.33902
G1 X89.637 Y93.144 E17.60736
G1 X89.637 Y94.195 E17.64617
G1 X94.275 Y98.833 E17.88849
G1 X93.892 Y99.501 E17.91693
G1 X89.637 Y95.245 E18.13926
G1 X89.637 Y96.296 E18.17807
G1 X93.653 Y100.312 E18.38789
G1 X93.653 Y101.363 E18.42673
G1 X89.637 Y97.346 E18.63659
G1 X89.637 Y98.397 E18.67540
G1 X97.937 Y106.697 E19.10905
G1 X96.886 Y106.697 E19.14785
G1 X89.637 Y99.447 E19.52662
G1 X89.637 Y100.498 E19.56543
G1 X95.836 Y106.697 E19.88931
G1 X94.785 Y106.697 E19.92812
G1 X89.637 Y101.548 E20.19712
G1 X89.637 Y102.598 E20.23593
G1 X93.735 Y106.697 E20.45004
G1 X92.647 Y106.660 E20.49024
G1 X89.674 Y103.686 E20.64560
G1 X90.428 Y105.491 E20.71786
G1 X90.843 Y105.905 E20.73952
G1 X98.987 Y106.697 F9900.000
G1 X96.470 Y104.180 F900.000 E20.87101
G1 X97.522 Y104.181 E20.90985
G1 X100.038 Y106.697 E21.04130
G1 X101.075 Y106.684 E21.07964
G1 X98.333 Y103.941 E21.22293
G1 X99.001 Y103.559 E21.25137
G1 X101.976 Y106.534 E21.40682
G1 X102.711 Y106.218 E21.43636
G1 X99.553 Y103.060 E21.60134
G1 X99.981 Y102.438 E21.62925
G1 X103.303 Y105.760 E21.80280
G1 X103.783 Y105.190 E21.83034
G1 X100.273 Y101.679 E22.01375
G1 X100.385 Y100.741 E22.04866
G1 X104.145 Y104.502 E22.24513
G1 X104.331 Y103.636 E22.27782
G1 X100.032 Y99.338 E22.50241
G1 X91.202 Y91.558 F9900.000
G1 X89.637 Y89.993 F900.000 E22.58420
G1 X90.559 Y89.865 E22.61861
G1 X89.654 Y88.960 E22.66590
G1 X89.871 Y89.006 F9900.000
G1 X90.177 Y87.701 F360.000 E22.74190
G1 X89.637 Y87.704 F9900.000
G1 X90.396 Y87.413 F900.000 E22.77193
G1 X89.637 Y86.654 E22.81158
G1 X90.618 Y86.584 E22.84792
G1 X89.637 Y85.603 E22.89917
G1 X89.637 Y84.553 E22.93798
G1 X90.881 Y85.797 E23.00299
G1 X91.215 Y85.081 E23.03219
G1 X89.637 Y83.502 E23.11466
G1 X89.637 Y82.452 E23.15346
G1 X91.638 Y84.453 E23.25804
G1 X92.105 Y83.870 E23.28565
G1 X89.637 Y81.401 E23.41461
G1 X89.637 Y80.351 E23.45342
G1 X92.630 Y83.344 E23.60982
G1 X93.230 Y82.894 E23.63754
G1 X89.637 Y79.300 E23.82530
G1 X89.637 Y78.250 E23.86411
G1 X93.875 Y82.489 E24.08557
G1 X94.592 Y82.155 E24.11477
G1 X89.637 Y77.199 E24.37366
G1 X89.637 Y76.149 E24.41247
G1 X95.399 Y81.911 E24.71353
G1 X96.291 Y81.753 E24.74699
G1 X89.637 Y75.098 E25.09463
G1 X89.637 Y74.048 E25.13344
G1 X97.306 Y81.717 E25.53413
G1 X98.532 Y81.893 E25.57988
G1 X95.504 Y78.865 E25.73805
G1 X96.908 Y79.218 E25.79151
G1 X100.225 Y82.535 E25.96482
