; generated by Slic3r 0.9.9-dev on 2013-08-11 at 18:34:49

; layer_height = 0.3
; perimeters = 2
; top_solid_layers = 4
; bottom_solid_layers = 4
; fill_density = 0.25
; perimeter_speed = 50
; infill_speed = 50
; travel_speed = 165
; nozzle_diameter = 0.5
; filament_diameter = 3.2
; extrusion_multiplier = 1
; perimeters extrusion width = 0.70mm
; infill extrusion width = 0.70mm
; solid infill extrusion width = 0.70mm
; top infill extrusion width = 0.70mm
; first layer extrusion width = 0.80mm

G21 ; set units to millimeters
M107
M190 S70 ; wait for bed temperature to be reached
M104 S185 ; set temperature
;G28 ; home all axes
;G1 Z5 F5000 ; lift nozzle
M109 S185 ; wait for temperature to be reached
G90 ; use absolute coordinates
G92 E0
M82 ; use absolute distances for extrusion
G1 F1800.000 E-1.00000
G1 Z0.700
G92 E0
G1 X88.840 Y50.790 F9900.000
G1 Z0.400
G1 F1800.000 E1.00000
G1 X89.250 Y50.190 F900.000 E1.02659
G1 X90.090 Y49.220 E1.07353
G1 X90.940 Y48.500 E1.11429
G1 X91.540 Y48.090 E1.14088
G1 X91.790 Y47.950 E1.15136
G1 X92.450 Y47.640 E1.17804
G1 X93.420 Y47.300 E1.21565
G1 X94.020 Y47.150 E1.23827
G1 X94.330 Y47.100 E1.24976
G1 X94.950 Y47.030 E1.27259
G1 X95.500 Y47.010 E1.29273
G1 X144.860 Y47.020 E3.09865
G1 X145.660 Y47.100 E3.12806
G1 X146.270 Y47.220 E3.15081
G1 X146.740 Y47.350 E3.16865
G1 X147.840 Y47.780 E3.21186
G1 X148.730 Y48.280 E3.24921
G1 X149.310 Y48.690 E3.27519
G1 X149.710 Y49.030 E3.29440
G1 X150.210 Y49.530 E3.32027
G1 X150.550 Y49.930 E3.33948
G1 X150.860 Y50.360 E3.35887
G1 X151.460 Y51.400 E3.40280
G1 X151.890 Y52.500 E3.44601
G1 X152.080 Y53.230 E3.47361
G1 X162.100 Y102.400 E5.30955
G1 X162.190 Y102.930 E5.32922
G1 X162.240 Y103.740 E5.35891
G1 X162.240 Y122.250 E6.03613
G1 X162.190 Y123.060 E6.06583
G1 X162.100 Y123.600 E6.08585
G1 X161.970 Y124.120 E6.10547
G1 X161.800 Y124.640 E6.12548
G1 X161.590 Y125.140 E6.14532
G1 X161.330 Y125.620 E6.16530
G1 X161.040 Y126.080 E6.18519
G1 X160.720 Y126.510 E6.20480
G1 X160.170 Y127.110 E6.23458
G1 X159.760 Y127.470 E6.25454
G1 X159.330 Y127.790 E6.27415
G1 X158.870 Y128.080 E6.29405
G1 X158.390 Y128.340 E6.31402
G1 X158.140 Y128.450 E6.32401
G1 X157.630 Y128.640 E6.34393
G1 X156.850 Y128.850 E6.37348
G1 X156.310 Y128.940 E6.39351
G1 X155.500 Y128.990 E6.42320
G1 X84.500 Y128.990 E9.02086
G1 X83.690 Y128.940 E9.05055
G1 X83.150 Y128.850 E9.07058
G1 X82.370 Y128.640 E9.10013
G1 X81.860 Y128.450 E9.12004
G1 X81.610 Y128.340 E9.13004
G1 X81.130 Y128.080 E9.15001
G1 X80.670 Y127.790 E9.16990
G1 X80.240 Y127.470 E9.18952
G1 X79.640 Y126.920 E9.21929
G1 X79.280 Y126.510 E9.23926
G1 X78.960 Y126.080 E9.25887
G1 X78.670 Y125.620 E9.27876
G1 X78.410 Y125.140 E9.29874
G1 X78.200 Y124.640 E9.31858
G1 X78.030 Y124.120 E9.33859
G1 X77.900 Y123.600 E9.35820
G1 X77.810 Y123.060 E9.37823
G1 X77.760 Y122.250 E9.40792
G1 X77.760 Y103.740 E10.08514
G1 X77.810 Y102.930 E10.11484
G1 X77.900 Y102.400 E10.13450
G1 X87.910 Y53.230 E11.97037
G1 X88.100 Y52.500 E11.99797
G1 X88.390 Y51.700 E12.02910
G1 X88.786 Y50.886 E12.06222
G1 F1800.000 E11.06222
G1 Z0.700
G92 E0
G1 X102.163 Y64.061 F9900.000
G1 Z0.400
G1 F1800.000 E1.00000
G1 X102.571 Y63.775 F540.000 E1.01822
G1 X103.023 Y63.565 E1.03645
G1 X103.504 Y63.436 E1.05467
G1 X104.000 Y63.392 E1.07290
G1 X104.496 Y63.436 E1.09112
G1 X104.977 Y63.565 E1.10935
G1 X105.429 Y63.775 E1.12757
G1 X105.837 Y64.061 E1.14580
G1 X106.189 Y64.413 E1.16402
G1 X106.475 Y64.821 E1.18225
G1 X106.685 Y65.273 E1.20047
G1 X106.715 Y65.383 E1.20464
G1 X106.814 Y65.754 E1.21869
G1 X106.858 Y66.250 E1.23692
G1 X106.814 Y66.746 E1.25514
G1 X106.685 Y67.227 E1.27337
G1 X106.475 Y67.679 E1.29159
G1 X106.189 Y68.087 E1.30982
G1 X105.837 Y68.439 E1.32805
G1 X105.429 Y68.725 E1.34627
G1 X104.977 Y68.935 E1.36449
G1 X104.496 Y69.064 E1.38272
G1 X104.000 Y69.108 E1.40094
G1 X103.504 Y69.064 E1.41917
G1 X103.023 Y68.935 E1.43739
G1 X102.571 Y68.725 E1.45561
G1 X102.163 Y68.439 E1.47384
G1 X101.811 Y68.087 E1.49207
G1 X101.525 Y67.679 E1.51029
G1 X101.315 Y67.227 E1.52851
G1 X101.186 Y66.746 E1.54674
G1 X101.142 Y66.250 E1.56496
G1 X101.186 Y65.754 E1.58319
G1 X101.315 Y65.273 E1.60141
G1 X101.525 Y64.821 E1.61964
G1 X101.811 Y64.413 E1.63786
G1 X102.085 Y64.139 E1.65205
G1 X102.638 Y64.627 F9900.000
G1 X102.940 Y64.415 F540.000 E1.66556
G1 X103.275 Y64.259 E1.67908
G1 X103.632 Y64.163 E1.69259
G1 X104.000 Y64.131 E1.70611
G1 X104.368 Y64.163 E1.71962
G1 X104.725 Y64.259 E1.73314
G1 X105.060 Y64.415 E1.74666
G1 X105.362 Y64.627 E1.76017
G1 X105.623 Y64.888 E1.77369
G1 X105.835 Y65.190 E1.78720
G1 X105.991 Y65.525 E1.80072
G1 X106.087 Y65.882 E1.81423
G1 X106.119 Y66.250 E1.82775
G1 X106.087 Y66.618 E1.84126
G1 X105.991 Y66.975 E1.85478
G1 X105.835 Y67.310 E1.86829
G1 X105.623 Y67.612 E1.88181
G1 X105.362 Y67.873 E1.89532
G1 X105.060 Y68.085 E1.90884
G1 X104.725 Y68.241 E1.92235
G1 X104.368 Y68.337 E1.93587
G1 X104.000 Y68.369 E1.94938
G1 X103.632 Y68.337 E1.96290
G1 X103.275 Y68.241 E1.97641
G1 X102.940 Y68.085 E1.98993
G1 X102.638 Y67.873 E2.00344
G1 X102.377 Y67.612 E2.01696
G1 X102.165 Y67.310 E2.03048
G1 X102.009 Y66.975 E2.04399
G1 X101.913 Y66.618 E2.05751
G1 X101.881 Y66.250 E2.07102
G1 X101.913 Y65.882 E2.08454
G1 X102.009 Y65.525 E2.09805
G1 X102.165 Y65.190 E2.11157
G1 X102.377 Y64.888 E2.12508
G1 X102.560 Y64.705 E2.13456
G1 X102.584 Y64.261 F9900.000
G1 X133.142 Y66.250
G1 X133.186 Y65.754 F540.000 E2.15279
G1 X133.315 Y65.273 E2.17101
G1 X133.363 Y65.169 E2.17518
G1 X133.525 Y64.821 E2.18923
G1 X133.811 Y64.413 E2.20746
G1 X134.163 Y64.061 E2.22568
G1 X134.571 Y63.775 E2.24391
G1 X135.023 Y63.565 E2.26213
G1 X135.504 Y63.436 E2.28036
G1 X136.000 Y63.392 E2.29858
G1 X136.496 Y63.436 E2.31680
G1 X136.977 Y63.565 E2.33503
G1 X137.429 Y63.775 E2.35325
G1 X137.837 Y64.061 E2.37148
G1 X138.189 Y64.413 E2.38970
G1 X138.475 Y64.821 E2.40793
G1 X138.685 Y65.273 E2.42615
G1 X138.814 Y65.754 E2.44438
G1 X138.858 Y66.250 E2.46260
G1 X138.814 Y66.746 E2.48083
G1 X138.685 Y67.227 E2.49905
G1 X138.475 Y67.679 E2.51728
G1 X138.189 Y68.087 E2.53550
G1 X137.837 Y68.439 E2.55373
G1 X137.429 Y68.725 E2.57195
G1 X136.977 Y68.935 E2.59018
G1 X136.496 Y69.064 E2.60840
G1 X136.000 Y69.108 E2.62662
G1 X135.504 Y69.064 E2.64485
G1 X135.023 Y68.935 E2.66307
G1 X134.571 Y68.725 E2.68130
G1 X134.163 Y68.439 E2.69952
G1 X133.811 Y68.087 E2.71775
G1 X133.525 Y67.679 E2.73597
G1 X133.315 Y67.227 E2.75420
G1 X133.186 Y66.746 E2.77242
G1 X133.152 Y66.360 E2.78661
G1 X133.881 Y66.250 F9900.000
G1 X133.913 Y65.882 F540.000 E2.80012
G1 X134.030 Y65.480 E2.81543
G1 X134.165 Y65.190 E2.82713
G1 X134.377 Y64.888 E2.84064
G1 X134.638 Y64.627 E2.85416
G1 X134.940 Y64.415 E2.86767
G1 X135.275 Y64.259 E2.88119
G1 X135.632 Y64.163 E2.89471
G1 X136.000 Y64.131 E2.90822
G1 X136.368 Y64.163 E2.92174
G1 X136.725 Y64.259 E2.93525
G1 X137.060 Y64.415 E2.94877
G1 X137.362 Y64.627 E2.96228
G1 X137.623 Y64.888 E2.97580
G1 X137.835 Y65.190 E2.98931
G1 X137.991 Y65.525 E3.00283
G1 X138.087 Y65.882 E3.01634
G1 X138.119 Y66.250 E3.02986
G1 X138.087 Y66.618 E3.04337
G1 X137.991 Y66.975 E3.05689
G1 X137.835 Y67.310 E3.07040
G1 X137.623 Y67.612 E3.08392
G1 X137.362 Y67.873 E3.09744
G1 X137.060 Y68.085 E3.11095
G1 X136.725 Y68.241 E3.12447
G1 X136.368 Y68.337 E3.13798
G1 X136.000 Y68.369 E3.15150
G1 X135.632 Y68.337 E3.16501
G1 X135.275 Y68.241 E3.17853
G1 X134.940 Y68.085 E3.19204
G1 X134.638 Y67.873 E3.20556
G1 X134.377 Y67.612 E3.21907
G1 X134.165 Y67.310 E3.23259
G1 X134.009 Y66.975 E3.24610
G1 X133.913 Y66.618 E3.25962
G1 X133.890 Y66.360 E3.26910
G1 X133.566 Y66.056 F9900.000
G1 X147.023 Y112.065
G1 X147.504 Y111.936 F540.000 E3.28732
G1 X148.000 Y111.892 E3.30554
G1 X148.496 Y111.936 E3.32377
G1 X148.977 Y112.065 E3.34199
G1 X149.429 Y112.275 E3.36022
G1 X149.837 Y112.561 E3.37844
G1 X150.189 Y112.913 E3.39667
G1 X150.475 Y113.321 E3.41489
G1 X150.685 Y113.773 E3.43311
G1 X150.814 Y114.254 E3.45134
G1 X150.826 Y114.385 E3.45615
G1 X150.858 Y114.750 E3.46956
G1 X150.814 Y115.246 E3.48779
G1 X150.685 Y115.727 E3.50601
G1 X150.475 Y116.179 E3.52424
G1 X150.189 Y116.587 E3.54246
G1 X149.837 Y116.939 E3.56069
G1 X149.429 Y117.225 E3.57891
G1 X148.977 Y117.435 E3.59714
G1 X148.496 Y117.564 E3.61536
G1 X148.000 Y117.608 E3.63359
G1 X147.504 Y117.564 E3.65181
G1 X147.023 Y117.435 E3.67004
G1 X146.571 Y117.225 E3.68826
G1 X146.163 Y116.939 E3.70648
G1 X145.811 Y116.587 E3.72471
G1 X145.525 Y116.179 E3.74293
G1 X145.315 Y115.727 E3.76116
G1 X145.186 Y115.246 E3.77938
G1 X145.142 Y114.750 E3.79761
G1 X145.186 Y114.254 E3.81583
G1 X145.315 Y113.773 E3.83406
G1 X145.525 Y113.321 E3.85228
G1 X145.811 Y112.913 E3.87051
G1 X146.163 Y112.561 E3.88873
G1 X146.571 Y112.275 E3.90695
G1 X146.923 Y112.111 E3.92114
G1 X147.275 Y112.759 F9900.000
G1 X147.632 Y112.663 F540.000 E3.93466
G1 X148.000 Y112.631 E3.94817
G1 X148.368 Y112.663 E3.96169
G1 X148.725 Y112.759 E3.97520
G1 X149.060 Y112.915 E3.98872
G1 X149.362 Y113.127 E4.00224
G1 X149.623 Y113.388 E4.01575
G1 X149.835 Y113.690 E4.02927
G1 X149.991 Y114.025 E4.04278
G1 X150.093 Y114.449 E4.05872
G1 X150.119 Y114.750 E4.06978
G1 X150.087 Y115.118 E4.08330
G1 X149.991 Y115.475 E4.09681
G1 X149.835 Y115.810 E4.11033
G1 X149.623 Y116.112 E4.12384
G1 X149.362 Y116.373 E4.13736
G1 X149.060 Y116.585 E4.15087
G1 X148.725 Y116.741 E4.16439
G1 X148.368 Y116.837 E4.17790
G1 X148.000 Y116.869 E4.19142
G1 X147.632 Y116.837 E4.20493
G1 X147.275 Y116.741 E4.21845
G1 X146.940 Y116.585 E4.23196
G1 X146.638 Y116.373 E4.24548
G1 X146.377 Y116.112 E4.25899
G1 X146.165 Y115.810 E4.27251
G1 X146.009 Y115.475 E4.28602
G1 X145.913 Y115.118 E4.29954
G1 X145.881 Y114.750 E4.31305
G1 X145.913 Y114.382 E4.32657
G1 X146.009 Y114.025 E4.34008
G1 X146.165 Y113.690 E4.35360
G1 X146.377 Y113.388 E4.36712
G1 X146.638 Y113.127 E4.38063
G1 X146.940 Y112.915 E4.39415
G1 X147.175 Y112.805 E4.40362
G1 X147.350 Y112.397 F9900.000
G1 X140.814 Y114.254
G1 X140.858 Y114.750 F540.000 E4.42185
G1 X140.814 Y115.246 E4.44008
G1 X140.685 Y115.727 E4.45830
G1 X140.475 Y116.179 E4.47652
G1 X140.189 Y116.587 E4.49475
G1 X139.837 Y116.939 E4.51297
G1 X139.429 Y117.225 E4.53120
G1 X139.231 Y117.317 E4.53920
G1 X138.977 Y117.435 E4.54942
G1 X138.496 Y117.564 E4.56765
G1 X138.000 Y117.608 E4.58587
G1 X137.504 Y117.564 E4.60410
G1 X137.023 Y117.435 E4.62232
G1 X136.571 Y117.225 E4.64055
G1 X136.163 Y116.939 E4.65877
G1 X135.811 Y116.587 E4.67699
G1 X135.525 Y116.179 E4.69522
G1 X135.315 Y115.727 E4.71344
G1 X135.186 Y115.246 E4.73167
G1 X135.142 Y114.750 E4.74989
G1 X135.186 Y114.254 E4.76812
G1 X135.315 Y113.773 E4.78634
G1 X135.525 Y113.321 E4.80457
G1 X135.811 Y112.913 E4.82279
G1 X136.163 Y112.561 E4.84101
G1 X136.571 Y112.275 E4.85924
G1 X137.023 Y112.065 E4.87747
G1 X137.504 Y111.936 E4.89569
G1 X138.000 Y111.892 E4.91391
G1 X138.496 Y111.936 E4.93214
G1 X138.977 Y112.065 E4.95036
G1 X139.429 Y112.275 E4.96859
G1 X139.837 Y112.561 E4.98681
G1 X140.189 Y112.913 E5.00504
G1 X140.475 Y113.321 E5.02326
G1 X140.685 Y113.773 E5.04148
G1 X140.786 Y114.147 E5.05567
G1 X140.087 Y114.382 F9900.000
G1 X140.119 Y114.750 F540.000 E5.06919
G1 X140.087 Y115.118 E5.08270
G1 X139.991 Y115.475 E5.09622
G1 X139.835 Y115.810 E5.10973
G1 X139.623 Y116.112 E5.12325
G1 X139.362 Y116.373 E5.13676
G1 X139.060 Y116.585 E5.15028
G1 X138.920 Y116.651 E5.15593
G1 X138.725 Y116.741 E5.16380
G1 X138.368 Y116.837 E5.17731
G1 X138.000 Y116.869 E5.19083
G1 X137.632 Y116.837 E5.20434
G1 X137.275 Y116.741 E5.21786
G1 X136.940 Y116.585 E5.23137
G1 X136.638 Y116.373 E5.24489
G1 X136.377 Y116.112 E5.25840
G1 X136.165 Y115.810 E5.27192
G1 X136.009 Y115.475 E5.28543
G1 X135.913 Y115.118 E5.29895
G1 X135.881 Y114.750 E5.31246
G1 X135.913 Y114.382 E5.32598
G1 X136.009 Y114.025 E5.33949
G1 X136.165 Y113.690 E5.35301
G1 X136.377 Y113.388 E5.36652
G1 X136.638 Y113.127 E5.38004
G1 X136.940 Y112.915 E5.39355
G1 X137.275 Y112.759 E5.40707
G1 X137.632 Y112.663 E5.42058
G1 X138.000 Y112.631 E5.43410
G1 X138.368 Y112.663 E5.44762
G1 X138.725 Y112.759 E5.46113
G1 X139.060 Y112.915 E5.47465
G1 X139.362 Y113.127 E5.48816
G1 X139.623 Y113.388 E5.50168
G1 X139.835 Y113.690 E5.51519
G1 X139.991 Y114.025 E5.52871
G1 X140.058 Y114.275 E5.53818
G1 X140.430 Y114.518 F9900.000
G1 X136.867 Y100.965
G1 X136.496 Y101.064 F540.000 E5.55224
G1 X136.000 Y101.108 E5.57046
G1 X135.504 Y101.064 E5.58868
G1 X135.023 Y100.935 E5.60691
G1 X134.571 Y100.725 E5.62513
G1 X134.163 Y100.439 E5.64336
G1 X133.811 Y100.087 E5.66158
G1 X133.525 Y99.679 E5.67981
G1 X133.315 Y99.227 E5.69803
G1 X133.186 Y98.746 E5.71626
G1 X133.142 Y98.250 E5.73448
G1 X133.186 Y97.754 E5.75271
G1 X133.315 Y97.273 E5.77093
G1 X133.363 Y97.169 E5.77510
G1 X133.525 Y96.821 E5.78915
G1 X133.811 Y96.413 E5.80738
G1 X134.163 Y96.061 E5.82560
G1 X134.571 Y95.775 E5.84383
G1 X135.023 Y95.565 E5.86205
G1 X135.504 Y95.436 E5.88028
G1 X136.000 Y95.392 E5.89850
G1 X136.496 Y95.436 E5.91673
G1 X136.977 Y95.565 E5.93496
G1 X137.429 Y95.775 E5.95317
G1 X137.837 Y96.061 E5.97140
G1 X138.189 Y96.413 E5.98962
G1 X138.475 Y96.821 E6.00785
G1 X138.685 Y97.273 E6.02607
G1 X138.814 Y97.754 E6.04430
G1 X138.858 Y98.250 E6.06252
G1 X138.814 Y98.746 E6.08075
G1 X138.685 Y99.227 E6.09897
G1 X138.475 Y99.679 E6.11720
G1 X138.189 Y100.087 E6.13542
G1 X137.837 Y100.439 E6.15365
G1 X137.429 Y100.725 E6.17187
G1 X136.974 Y100.936 E6.19023
G1 X136.725 Y100.241 F9900.000
G1 X136.368 Y100.337 F540.000 E6.20374
G1 X136.000 Y100.369 E6.21726
G1 X135.632 Y100.337 E6.23077
G1 X135.275 Y100.241 E6.24429
G1 X134.940 Y100.085 E6.25780
G1 X134.603 Y99.838 E6.27311
G1 X134.377 Y99.612 E6.28481
G1 X134.165 Y99.310 E6.29833
G1 X134.009 Y98.975 E6.31184
G1 X133.913 Y98.618 E6.32536
G1 X133.881 Y98.250 E6.33887
G1 X133.913 Y97.882 E6.35239
G1 X134.030 Y97.480 E6.36769
G1 X134.165 Y97.190 E6.37939
G1 X134.377 Y96.888 E6.39291
G1 X134.638 Y96.627 E6.40642
G1 X134.940 Y96.415 E6.41994
G1 X135.275 Y96.259 E6.43346
G1 X135.632 Y96.163 E6.44697
G1 X136.000 Y96.131 E6.46049
G1 X136.368 Y96.163 E6.47400
G1 X136.725 Y96.259 E6.48752
G1 X137.060 Y96.415 E6.50103
G1 X137.362 Y96.627 E6.51455
G1 X137.623 Y96.888 E6.52806
G1 X137.835 Y97.190 E6.54158
G1 X137.991 Y97.525 E6.55509
G1 X138.087 Y97.882 E6.56861
G1 X138.119 Y98.250 E6.58212
G1 X138.087 Y98.618 E6.59564
G1 X137.991 Y98.975 E6.60915
G1 X137.835 Y99.310 E6.62267
G1 X137.623 Y99.612 E6.63618
G1 X137.362 Y99.873 E6.64970
G1 X137.060 Y100.085 E6.66321
G1 X136.825 Y100.195 E6.67269
G1 X136.650 Y100.603 F9900.000
G1 X136.089 Y100.510
G1 X145.016 Y103.158
G1 X137.491 Y96.510
G1 X131.114 Y91.575
G1 X129.711 Y93.823
G1 X127.554 Y95.334 F900.000 E6.76904
G1 X125.167 Y96.447 E6.86539
G1 X122.623 Y97.128 E6.96174
G1 X120.000 Y97.358 E7.05809
G1 X117.377 Y97.128 E7.15444
G1 X114.833 Y96.447 E7.25079
G1 X112.446 Y95.334 E7.34714
G1 X110.289 Y93.823 E7.44348
G1 X108.427 Y91.961 E7.53983
G1 X106.916 Y89.804 E7.63618
G1 X105.803 Y87.417 E7.73253
G1 X105.122 Y84.873 E7.82888
G1 X104.892 Y82.250 E7.92523
G1 X104.913 Y82.015 E7.93386
G1 X105.122 Y79.627 E8.02158
G1 X105.803 Y77.083 E8.11793
G1 X106.916 Y74.696 E8.21427
G1 X108.427 Y72.539 E8.31062
G1 X110.289 Y70.677 E8.40697
G1 X112.446 Y69.166 E8.50332
G1 X114.833 Y68.053 E8.59967
G1 X117.377 Y67.372 E8.69602
G1 X120.000 Y67.142 E8.79237
G1 X122.623 Y67.372 E8.88872
G1 X125.167 Y68.053 E8.98506
G1 X127.554 Y69.166 E9.08141
G1 X127.747 Y69.302 E9.09005
G1 X129.711 Y70.677 E9.17776
G1 X131.573 Y72.539 E9.27411
G1 X133.084 Y74.696 E9.37046
G1 X134.197 Y77.083 E9.46681
G1 X134.878 Y79.627 E9.56316
G1 X135.108 Y82.250 E9.65950
G1 X134.878 Y84.873 E9.75585
G1 X134.197 Y87.417 E9.85220
G1 X133.084 Y89.804 E9.94855
G1 X131.573 Y91.961 E10.04490
G1 X129.789 Y93.745 E10.13721
G1 X129.236 Y93.257 F9900.000
G1 X127.185 Y94.694 F630.000 E10.22885
G1 X124.915 Y95.753 E10.32049
G1 X122.495 Y96.401 E10.41213
G1 X120.000 Y96.619 E10.50377
G1 X117.505 Y96.401 E10.59541
G1 X115.085 Y95.753 E10.68705
G1 X112.815 Y94.694 E10.77869
G1 X110.764 Y93.257 E10.87033
G1 X108.993 Y91.486 E10.96197
G1 X107.556 Y89.435 E11.05361
G1 X106.497 Y87.165 E11.14525
