; generated by Slic3r 0.9.9-dev on 2013-08-12 at 17:52:21

; layer_height = 0.3
; perimeters = 2
; top_solid_layers = 4
; bottom_solid_layers = 4
; fill_density = 0.25
; perimeter_speed = 50
; infill_speed = 50
; travel_speed = 165
; nozzle_diameter = 0.5
; filament_diameter = 3.2
; extrusion_multiplier = 1
; perimeters extrusion width = 0.70mm
; infill extrusion width = 0.70mm
; solid infill extrusion width = 0.70mm
; top infill extrusion width = 0.70mm
; first layer extrusion width = 0.80mm

G21 ; set units to millimeters
M107
M190 S70 ; wait for bed temperature to be reached
M104 S185 ; set temperature
;G28 ; home all axes
;G1 Z5 F5000 ; lift nozzle
M109 S185 ; wait for temperature to be reached
G90 ; use absolute coordinates
G92 E0
M82 ; use absolute distances for extrusion
G1 F1800.000 E-1.00000
G1 Z0.700
G92 E0
G1 X78.810 Y50.150 F9900.000
G1 Z0.400
G1 F1800.000 E1.00000
G1 X79.280 Y49.490 F900.000 E1.02964
G1 X79.830 Y48.890 E1.05942
G1 X80.450 Y48.370 E1.08903
G1 X81.130 Y47.920 E1.11886
G1 X81.610 Y47.660 E1.13884
G1 X81.860 Y47.550 E1.14883
G1 X82.630 Y47.280 E1.17868
G1 X83.150 Y47.150 E1.19829
G1 X83.690 Y47.060 E1.21832
G1 X84.500 Y47.010 E1.24801
G1 X155.500 Y47.010 E3.84567
G1 X156.310 Y47.060 E3.87536
G1 X156.850 Y47.150 E3.89539
G1 X157.630 Y47.360 E3.92494
G1 X158.140 Y47.550 E3.94486
G1 X158.390 Y47.660 E3.95485
G1 X158.870 Y47.920 E3.97482
G1 X159.330 Y48.210 E3.99472
G1 X159.760 Y48.530 E4.01433
G1 X160.360 Y49.080 E4.04411
G1 X160.720 Y49.490 E4.06407
G1 X161.040 Y49.920 E4.08368
G1 X161.330 Y50.380 E4.10358
G1 X161.590 Y50.860 E4.12355
G1 X161.800 Y51.360 E4.14339
G1 X161.970 Y51.880 E4.16341
G1 X162.100 Y52.400 E4.18302
G1 X162.190 Y52.940 E4.20305
G1 X162.240 Y53.750 E4.23274
G1 X162.240 Y72.250 E4.90959
G1 X162.190 Y73.060 E4.93928
G1 X162.100 Y73.590 E4.95895
G1 X152.080 Y122.760 E6.79489
G1 X151.890 Y123.490 E6.82249
G1 X151.600 Y124.290 E6.85362
G1 X151.290 Y124.950 E6.88030
G1 X151.150 Y125.200 E6.89079
G1 X150.740 Y125.800 E6.91737
G1 X150.020 Y126.650 E6.95813
G1 X149.710 Y126.960 E6.97417
G1 X149.310 Y127.300 E6.99338
G1 X148.730 Y127.710 E7.01936
G1 X147.690 Y128.280 E7.06275
G1 X146.740 Y128.640 E7.09992
G1 X146.110 Y128.810 E7.12380
G1 X145.880 Y128.860 E7.13241
G1 X145.410 Y128.920 E7.14974
G1 X144.490 Y128.990 E7.18350
G1 X95.490 Y128.990 E8.97625
G1 X94.530 Y128.920 E9.01147
G1 X93.420 Y128.690 E9.05294
G1 X92.290 Y128.280 E9.09692
G1 X91.540 Y127.900 E9.12768
G1 X90.940 Y127.490 E9.15427
G1 X90.090 Y126.770 E9.19502
G1 X89.780 Y126.460 E9.21106
G1 X89.440 Y126.060 E9.23027
G1 X89.130 Y125.630 E9.24967
G1 X88.530 Y124.590 E9.29359
G1 X88.100 Y123.490 E9.33681
G1 X87.910 Y122.760 E9.36440
G1 X77.900 Y73.590 E11.20027
G1 X77.810 Y73.060 E11.21994
G1 X77.760 Y72.250 E11.24963
G1 X77.770 Y53.480 E11.93637
G1 X77.810 Y52.940 E11.95618
G1 X77.850 Y52.670 E11.96616
G1 X78.030 Y51.880 E11.99581
G1 X78.200 Y51.360 E12.01582
G1 X78.410 Y50.860 E12.03566
G1 X78.753 Y50.244 E12.06145
G1 F1800.000 E11.06145
G1 Z0.700
G92 E0
G1 X102.163 Y75.561 F9900.000
G1 Z0.400
G1 F1800.000 E1.00000
G1 X102.571 Y75.275 F540.000 E1.01822
G1 X103.023 Y75.065 E1.03645
G1 X103.504 Y74.936 E1.05468
G1 X104.000 Y74.892 E1.07290
G1 X104.496 Y74.936 E1.09112
G1 X104.977 Y75.065 E1.10935
G1 X105.429 Y75.275 E1.12757
G1 X105.837 Y75.561 E1.14580
G1 X106.189 Y75.913 E1.16402
G1 X106.475 Y76.321 E1.18225
G1 X106.685 Y76.773 E1.20047
G1 X106.814 Y77.254 E1.21870
G1 X106.858 Y77.750 E1.23692
G1 X106.848 Y77.863 E1.24109
G1 X106.814 Y78.246 E1.25515
G1 X106.685 Y78.727 E1.27337
G1 X106.475 Y79.179 E1.29159
G1 X106.189 Y79.587 E1.30982
G1 X105.837 Y79.939 E1.32804
G1 X105.429 Y80.225 E1.34627
G1 X104.977 Y80.435 E1.36449
G1 X104.496 Y80.564 E1.38272
G1 X104.000 Y80.608 E1.40094
G1 X103.504 Y80.564 E1.41917
G1 X103.023 Y80.435 E1.43739
G1 X102.919 Y80.387 E1.44156
G1 X102.571 Y80.225 E1.45562
G1 X102.163 Y79.939 E1.47384
G1 X101.811 Y79.587 E1.49206
G1 X101.525 Y79.179 E1.51029
G1 X101.315 Y78.727 E1.52851
G1 X101.186 Y78.246 E1.54674
G1 X101.142 Y77.750 E1.56496
G1 X101.186 Y77.254 E1.58319
G1 X101.315 Y76.773 E1.60141
G1 X101.525 Y76.321 E1.61964
G1 X101.811 Y75.913 E1.63786
G1 X102.085 Y75.639 E1.65205
G1 X102.638 Y76.127 F9900.000
G1 X102.940 Y75.915 F540.000 E1.66556
G1 X103.275 Y75.759 E1.67908
G1 X103.632 Y75.663 E1.69259
G1 X104.000 Y75.631 E1.70611
G1 X104.368 Y75.663 E1.71962
G1 X104.725 Y75.759 E1.73314
G1 X104.897 Y75.839 E1.74008
G1 X105.060 Y75.915 E1.74665
G1 X105.362 Y76.127 E1.76017
G1 X105.623 Y76.388 E1.77369
G1 X105.835 Y76.690 E1.78720
G1 X105.991 Y77.025 E1.80072
G1 X106.087 Y77.382 E1.81423
G1 X106.119 Y77.750 E1.82775
G1 X106.087 Y78.118 E1.84126
G1 X105.991 Y78.475 E1.85478
G1 X105.835 Y78.810 E1.86829
G1 X105.623 Y79.112 E1.88181
G1 X105.362 Y79.373 E1.89532
G1 X105.060 Y79.585 E1.90884
G1 X104.725 Y79.741 E1.92235
G1 X104.368 Y79.837 E1.93587
G1 X104.000 Y79.869 E1.94938
G1 X103.632 Y79.837 E1.96290
G1 X103.230 Y79.720 E1.97820
G1 X102.940 Y79.585 E1.98991
G1 X102.638 Y79.373 E2.00342
G1 X102.377 Y79.112 E2.01693
G1 X102.165 Y78.810 E2.03045
G1 X102.009 Y78.475 E2.04397
G1 X101.913 Y78.118 E2.05748
G1 X101.881 Y77.750 E2.07100
G1 X101.913 Y77.382 E2.08451
G1 X102.009 Y77.025 E2.09803
G1 X102.165 Y76.690 E2.11154
G1 X102.377 Y76.388 E2.12506
G1 X102.560 Y76.205 E2.13454
G1 X102.584 Y75.761 F9900.000
G1 X93.837 Y63.439
G1 X93.429 Y63.725 F540.000 E2.15276
G1 X92.977 Y63.935 E2.17098
G1 X92.496 Y64.064 E2.18921
G1 X92.000 Y64.108 E2.20743
G1 X91.504 Y64.064 E2.22566
G1 X91.023 Y63.935 E2.24388
G1 X90.571 Y63.725 E2.26211
G1 X90.163 Y63.439 E2.28033
G1 X89.811 Y63.087 E2.29856
G1 X89.525 Y62.679 E2.31678
G1 X89.315 Y62.227 E2.33501
G1 X89.186 Y61.746 E2.35323
G1 X89.142 Y61.250 E2.37146
G1 X89.186 Y60.754 E2.38968
G1 X89.315 Y60.273 E2.40790
G1 X89.525 Y59.821 E2.42613
G1 X89.811 Y59.413 E2.44435
G1 X90.163 Y59.061 E2.46258
G1 X90.571 Y58.775 E2.48080
G1 X91.023 Y58.565 E2.49903
G1 X91.504 Y58.436 E2.51725
G1 X92.000 Y58.392 E2.53548
G1 X92.496 Y58.436 E2.55370
G1 X92.977 Y58.565 E2.57193
G1 X93.429 Y58.775 E2.59015
G1 X93.837 Y59.061 E2.60837
G1 X94.189 Y59.413 E2.62660
G1 X94.475 Y59.821 E2.64482
G1 X94.685 Y60.273 E2.66305
G1 X94.814 Y60.754 E2.68127
G1 X94.858 Y61.250 E2.69950
G1 X94.814 Y61.746 E2.71772
G1 X94.685 Y62.227 E2.73595
G1 X94.475 Y62.679 E2.75417
G1 X94.189 Y63.087 E2.77240
G1 X93.915 Y63.361 E2.78658
G1 X93.362 Y62.873 F9900.000
G1 X93.060 Y63.085 F540.000 E2.80010
G1 X92.725 Y63.241 E2.81361
G1 X92.368 Y63.337 E2.82713
G1 X92.000 Y63.369 E2.84064
G1 X91.632 Y63.337 E2.85416
G1 X91.275 Y63.241 E2.86767
G1 X90.940 Y63.085 E2.88119
G1 X90.638 Y62.873 E2.89471
G1 X90.377 Y62.612 E2.90822
G1 X90.136 Y62.249 E2.92416
G1 X90.009 Y61.975 E2.93522
G1 X89.913 Y61.618 E2.94873
G1 X89.881 Y61.250 E2.96225
G1 X89.913 Y60.882 E2.97577
G1 X90.009 Y60.525 E2.98928
G1 X90.165 Y60.190 E3.00280
G1 X90.377 Y59.888 E3.01631
G1 X90.638 Y59.627 E3.02983
G1 X90.940 Y59.415 E3.04334
G1 X91.275 Y59.259 E3.05686
G1 X91.632 Y59.163 E3.07037
G1 X92.000 Y59.131 E3.08389
G1 X92.368 Y59.163 E3.09740
G1 X92.725 Y59.259 E3.11092
G1 X93.060 Y59.415 E3.12443
G1 X93.362 Y59.627 E3.13795
G1 X93.623 Y59.888 E3.15146
G1 X93.835 Y60.190 E3.16498
G1 X93.991 Y60.525 E3.17849
G1 X94.087 Y60.882 E3.19201
G1 X94.119 Y61.250 E3.20552
G1 X94.087 Y61.618 E3.21904
G1 X93.991 Y61.975 E3.23256
G1 X93.835 Y62.310 E3.24607
G1 X93.623 Y62.612 E3.25959
G1 X93.440 Y62.795 E3.26906
G1 X93.416 Y63.239 F9900.000
G1 X99.186 Y61.746
G1 X99.142 Y61.250 F540.000 E3.28729
G1 X99.186 Y60.754 E3.30551
G1 X99.220 Y60.627 E3.31032
G1 X99.315 Y60.273 E3.32374
G1 X99.525 Y59.821 E3.34196
G1 X99.811 Y59.413 E3.36019
G1 X100.163 Y59.061 E3.37841
G1 X100.571 Y58.775 E3.39664
G1 X101.023 Y58.565 E3.41486
G1 X101.504 Y58.436 E3.43308
G1 X102.000 Y58.392 E3.45131
G1 X102.496 Y58.436 E3.46953
G1 X102.977 Y58.565 E3.48776
G1 X103.429 Y58.775 E3.50598
G1 X103.837 Y59.061 E3.52421
G1 X104.189 Y59.413 E3.54243
G1 X104.475 Y59.821 E3.56066
G1 X104.685 Y60.273 E3.57888
G1 X104.814 Y60.754 E3.59711
G1 X104.858 Y61.250 E3.61533
G1 X104.814 Y61.746 E3.63356
G1 X104.685 Y62.227 E3.65178
G1 X104.475 Y62.679 E3.67000
G1 X104.189 Y63.087 E3.68823
G1 X103.837 Y63.439 E3.70645
G1 X103.429 Y63.725 E3.72468
G1 X102.977 Y63.935 E3.74290
G1 X102.496 Y64.064 E3.76113
G1 X102.000 Y64.108 E3.77935
G1 X101.504 Y64.064 E3.79758
G1 X101.023 Y63.935 E3.81580
G1 X100.571 Y63.725 E3.83403
G1 X100.163 Y63.439 E3.85225
G1 X99.811 Y63.087 E3.87048
G1 X99.525 Y62.679 E3.88870
G1 X99.315 Y62.227 E3.90692
G1 X99.214 Y61.853 E3.92111
G1 X99.913 Y61.618 F9900.000
G1 X99.881 Y61.250 F540.000 E3.93463
G1 X99.930 Y60.817 E3.95056
G1 X100.009 Y60.525 E3.96163
G1 X100.165 Y60.190 E3.97514
G1 X100.377 Y59.888 E3.98866
G1 X100.638 Y59.627 E4.00217
G1 X100.940 Y59.415 E4.01569
G1 X101.275 Y59.259 E4.02920
G1 X101.632 Y59.163 E4.04272
G1 X102.000 Y59.131 E4.05623
G1 X102.368 Y59.163 E4.06975
G1 X102.725 Y59.259 E4.08326
G1 X103.060 Y59.415 E4.09678
G1 X103.362 Y59.627 E4.11029
G1 X103.623 Y59.888 E4.12381
G1 X103.835 Y60.190 E4.13732
G1 X103.991 Y60.525 E4.15084
G1 X104.087 Y60.882 E4.16435
G1 X104.119 Y61.250 E4.17787
G1 X104.087 Y61.618 E4.19139
G1 X103.991 Y61.975 E4.20490
G1 X103.835 Y62.310 E4.21842
G1 X103.623 Y62.612 E4.23193
G1 X103.362 Y62.873 E4.24545
G1 X103.060 Y63.085 E4.25896
G1 X102.725 Y63.241 E4.27248
G1 X102.368 Y63.337 E4.28599
G1 X102.000 Y63.369 E4.29951
G1 X101.632 Y63.337 E4.31302
G1 X101.275 Y63.241 E4.32654
G1 X100.940 Y63.085 E4.34005
G1 X100.638 Y62.873 E4.35357
G1 X100.377 Y62.612 E4.36708
G1 X100.165 Y62.310 E4.38060
G1 X100.009 Y61.975 E4.39411
G1 X99.942 Y61.725 E4.40359
G1 X99.570 Y61.482 F9900.000
G1 X99.650 Y61.353
G1 X100.509 Y59.510
G1 X102.003 Y58.967
G1 X138.024 Y58.959
G1 X145.669 Y61.372
G1 X145.142 Y61.250
G1 X145.186 Y60.754 F540.000 E4.42182
G1 X145.315 Y60.273 E4.44004
G1 X145.525 Y59.821 E4.45827
G1 X145.811 Y59.413 E4.47649
G1 X146.163 Y59.061 E4.49471
G1 X146.571 Y58.775 E4.51294
G1 X147.023 Y58.565 E4.53116
G1 X147.504 Y58.436 E4.54939
G1 X148.000 Y58.392 E4.56761
G1 X148.496 Y58.436 E4.58584
G1 X148.977 Y58.565 E4.60406
G1 X149.429 Y58.775 E4.62228
G1 X149.837 Y59.061 E4.64051
G1 X150.189 Y59.413 E4.65874
G1 X150.475 Y59.821 E4.67696
G1 X150.685 Y60.273 E4.69518
G1 X150.719 Y60.400 E4.69999
G1 X150.814 Y60.754 E4.71341
G1 X150.858 Y61.250 E4.73163
G1 X150.814 Y61.746 E4.74986
G1 X150.685 Y62.227 E4.76808
G1 X150.475 Y62.679 E4.78631
G1 X150.189 Y63.087 E4.80453
G1 X149.837 Y63.439 E4.82276
G1 X149.429 Y63.725 E4.84098
G1 X148.977 Y63.935 E4.85921
G1 X148.496 Y64.064 E4.87743
G1 X148.000 Y64.108 E4.89566
G1 X147.504 Y64.064 E4.91388
G1 X147.023 Y63.935 E4.93210
G1 X146.571 Y63.725 E4.95033
G1 X146.163 Y63.439 E4.96855
G1 X145.811 Y63.087 E4.98678
G1 X145.525 Y62.679 E5.00500
G1 X145.315 Y62.227 E5.02323
G1 X145.186 Y61.746 E5.04145
G1 X145.152 Y61.360 E5.05564
G1 X145.881 Y61.250 F9900.000
G1 X145.913 Y60.882 F540.000 E5.06916
G1 X146.009 Y60.525 E5.08267
G1 X146.165 Y60.190 E5.09619
G1 X146.424 Y59.840 E5.11212
G1 X146.638 Y59.627 E5.12318
G1 X146.940 Y59.415 E5.13670
G1 X147.275 Y59.259 E5.15022
G1 X147.632 Y59.163 E5.16373
G1 X148.000 Y59.131 E5.17725
G1 X148.368 Y59.163 E5.19076
G1 X148.725 Y59.259 E5.20428
G1 X149.060 Y59.415 E5.21779
G1 X149.362 Y59.627 E5.23131
G1 X149.623 Y59.888 E5.24482
G1 X149.835 Y60.190 E5.25834
G1 X150.009 Y60.590 E5.27427
G1 X150.087 Y60.882 E5.28534
G1 X150.119 Y61.250 E5.29885
G1 X150.087 Y61.618 E5.31237
G1 X149.991 Y61.975 E5.32588
G1 X149.835 Y62.310 E5.33940
G1 X149.623 Y62.612 E5.35291
G1 X149.362 Y62.873 E5.36643
G1 X149.060 Y63.085 E5.37994
G1 X148.725 Y63.241 E5.39346
G1 X148.368 Y63.337 E5.40697
G1 X148.000 Y63.369 E5.42049
G1 X147.632 Y63.337 E5.43400
G1 X147.275 Y63.241 E5.44752
G1 X146.940 Y63.085 E5.46103
G1 X146.638 Y62.873 E5.47455
G1 X146.377 Y62.612 E5.48807
G1 X146.165 Y62.310 E5.50158
G1 X146.009 Y61.975 E5.51510
G1 X145.913 Y61.618 E5.52861
G1 X145.890 Y61.360 E5.53809
G1 X145.566 Y61.056 F9900.000
G1 X140.858 Y61.250
G1 X140.814 Y61.746 F540.000 E5.55631
G1 X140.685 Y62.227 E5.57454
G1 X140.475 Y62.679 E5.59276
G1 X140.189 Y63.087 E5.61099
G1 X140.096 Y63.180 E5.61579
G1 X139.837 Y63.439 E5.62921
G1 X139.429 Y63.725 E5.64744
G1 X138.977 Y63.935 E5.66566
G1 X138.496 Y64.064 E5.68389
G1 X138.000 Y64.108 E5.70211
G1 X137.504 Y64.064 E5.72033
G1 X137.023 Y63.935 E5.73856
G1 X136.571 Y63.725 E5.75678
G1 X136.163 Y63.439 E5.77501
G1 X136.070 Y63.346 E5.77982
G1 X135.811 Y63.087 E5.79323
G1 X135.525 Y62.679 E5.81145
G1 X135.315 Y62.227 E5.82968
G1 X135.186 Y61.746 E5.84791
G1 X135.142 Y61.250 E5.86613
G1 X135.186 Y60.754 E5.88435
G1 X135.315 Y60.273 E5.90258
G1 X135.525 Y59.821 E5.92080
G1 X135.811 Y59.413 E5.93903
G1 X136.163 Y59.061 E5.95725
G1 X136.571 Y58.775 E5.97548
G1 X137.023 Y58.565 E5.99370
G1 X137.504 Y58.436 E6.01193
G1 X138.000 Y58.392 E6.03015
G1 X138.496 Y58.436 E6.04838
G1 X138.977 Y58.565 E6.06660
G1 X139.429 Y58.775 E6.08483
G1 X139.837 Y59.061 E6.10305
G1 X140.189 Y59.413 E6.12127
G1 X140.475 Y59.821 E6.13950
G1 X140.685 Y60.273 E6.15772
G1 X140.814 Y60.754 E6.17595
G1 X140.848 Y61.140 E6.19014
G1 X140.119 Y61.250 F9900.000
G1 X140.087 Y61.618 F540.000 E6.20365
G1 X139.991 Y61.975 E6.21717
G1 X139.835 Y62.310 E6.23068
G1 X139.576 Y62.660 E6.24662
G1 X139.362 Y62.873 E6.25768
G1 X139.060 Y63.085 E6.27120
G1 X138.725 Y63.241 E6.28471
G1 X138.368 Y63.337 E6.29823
G1 X138.000 Y63.369 E6.31174
G1 X137.632 Y63.337 E6.32526
G1 X137.275 Y63.241 E6.33877
G1 X136.940 Y63.085 E6.35229
G1 X136.590 Y62.826 E6.36822
G1 X136.377 Y62.612 E6.37929
G1 X136.165 Y62.310 E6.39280
G1 X136.009 Y61.975 E6.40632
G1 X135.913 Y61.618 E6.41983
G1 X135.881 Y61.250 E6.43335
G1 X135.913 Y60.882 E6.44686
G1 X136.009 Y60.525 E6.46038
G1 X136.165 Y60.190 E6.47389
G1 X136.377 Y59.888 E6.48741
G1 X136.638 Y59.627 E6.50092
G1 X136.940 Y59.415 E6.51444
G1 X137.275 Y59.259 E6.52795
G1 X137.632 Y59.163 E6.54147
G1 X138.000 Y59.131 E6.55498
G1 X138.368 Y59.163 E6.56850
G1 X138.725 Y59.259 E6.58202
G1 X139.060 Y59.415 E6.59553
G1 X139.362 Y59.627 E6.60905
G1 X139.623 Y59.888 E6.62256
G1 X139.835 Y60.190 E6.63608
G1 X139.991 Y60.525 E6.64959
G1 X140.087 Y60.882 E6.66311
G1 X140.110 Y61.140 E6.67259
G1 X140.434 Y61.444 F9900.000
G1 X136.977 Y75.065
G1 X137.429 Y75.275 F540.000 E6.69081
G1 X137.837 Y75.561 E6.70904
G1 X138.189 Y75.913 E6.72726
G1 X138.475 Y76.321 E6.74549
G1 X138.685 Y76.773 E6.76371
G1 X138.814 Y77.254 E6.78193
G1 X138.858 Y77.750 E6.80016
G1 X138.814 Y78.246 E6.81838
G1 X138.685 Y78.727 E6.83661
G1 X138.475 Y79.179 E6.85483
G1 X138.189 Y79.587 E6.87306
G1 X137.837 Y79.939 E6.89128
G1 X137.429 Y80.225 E6.90951
G1 X137.326 Y80.273 E6.91368
G1 X136.977 Y80.435 E6.92773
G1 X136.496 Y80.564 E6.94595
G1 X136.000 Y80.608 E6.96418
G1 X135.504 Y80.564 E6.98241
G1 X135.023 Y80.435 E7.00063
G1 X134.571 Y80.225 E7.01885
G1 X134.163 Y79.939 E7.03708
G1 X133.811 Y79.587 E7.05530
G1 X133.525 Y79.179 E7.07353
G1 X133.315 Y78.727 E7.09176
G1 X133.186 Y78.246 E7.10998
G1 X133.142 Y77.750 E7.12820
G1 X133.186 Y77.254 E7.14643
G1 X133.315 Y76.773 E7.16465
G1 X133.525 Y76.321 E7.18287
G1 X133.811 Y75.913 E7.20110
G1 X134.163 Y75.561 E7.21932
G1 X134.571 Y75.275 E7.23755
G1 X135.023 Y75.065 E7.25577
G1 X135.504 Y74.936 E7.27400
G1 X136.000 Y74.892 E7.29222
G1 X136.496 Y74.936 E7.31045
G1 X136.871 Y75.036 E7.32463
G1 X136.725 Y75.759 F9900.000
G1 X137.060 Y75.915 F540.000 E7.33815
G1 X137.362 Y76.127 E7.35167
G1 X137.623 Y76.388 E7.36518
G1 X137.835 Y76.690 E7.37870
G1 X137.991 Y77.025 E7.39221
G1 X138.091 Y77.431 E7.40752
G1 X138.119 Y77.750 E7.41922
G1 X138.087 Y78.118 E7.43273
G1 X137.991 Y78.475 E7.44625
G1 X137.835 Y78.810 E7.45976
G1 X137.623 Y79.112 E7.47328
G1 X137.362 Y79.373 E7.48679
G1 X137.015 Y79.606 E7.50210
G1 X136.725 Y79.741 E7.51380
G1 X136.368 Y79.837 E7.52731
G1 X136.000 Y79.869 E7.54083
G1 X135.632 Y79.837 E7.55435
G1 X135.275 Y79.741 E7.56786
G1 X134.940 Y79.585 E7.58138
G1 X134.638 Y79.373 E7.59489
G1 X134.377 Y79.112 E7.60841
G1 X134.165 Y78.810 E7.62192
G1 X134.009 Y78.475 E7.63544
