; generated by Slic3r 0.9.9-dev on 2013-07-21 at 14:30:54

; layer_height = 0.3
; perimeters = 3
; top_solid_layers = 4
; bottom_solid_layers = 4
; fill_density = 0.25
; perimeter_speed = 50
; infill_speed = 80
; travel_speed = 165
; nozzle_diameter = 0.5
; filament_diameter = 3.2
; extrusion_multiplier = 1
; perimeters extrusion width = 0.70mm
; infill extrusion width = 0.70mm
; solid infill extrusion width = 0.70mm
; top infill extrusion width = 0.70mm
; support material extrusion width = 0.70mm
; first layer extrusion width = 1.00mm

G21 ; set units to millimeters
M107
M190 S65 ; wait for bed temperature to be reached
M104 S185 ; set temperature
;G28 ; home all axes
;G1 Z5 F5000 ; lift nozzle
M109 S185 ; wait for temperature to be reached
G90 ; use absolute coordinates
G92 E0
M82 ; use absolute distances for extrusion
G1 F1800.000 E-1.00000
G1 Z0.800
G92 E0
G1 X103.330 Y56.630 F9900.000
G1 Z0.500
G1 F1800.000 E1.00000
G1 X103.460 Y56.400 F900.000 E1.01466
G1 X103.760 Y55.950 E1.04468
G1 X104.100 Y55.520 E1.07510
G1 X104.660 Y54.940 E1.11985
G1 X105.290 Y54.420 E1.16518
G1 X105.740 Y54.120 E1.19520
G1 X105.970 Y53.990 E1.20986
G1 X106.700 Y53.630 E1.25503
G1 X107.210 Y53.440 E1.28524
G1 X107.730 Y53.300 E1.31513
G1 X108.260 Y53.190 E1.34517
G1 X109.070 Y53.110 E1.39034
G1 X130.920 Y53.110 E2.60299
G1 X131.730 Y53.190 E2.64817
G1 X132.260 Y53.300 E2.67821
G1 X132.780 Y53.440 E2.70810
G1 X133.540 Y53.740 E2.75344
G1 X134.020 Y53.990 E2.78348
G1 X134.480 Y54.270 E2.81336
G1 X134.700 Y54.420 E2.82814
G1 X135.130 Y54.760 E2.85857
G1 X135.710 Y55.320 E2.90331
G1 X135.890 Y55.520 E2.91824
G1 X136.230 Y55.950 E2.94867
G1 X136.530 Y56.400 E2.97868
G1 X136.910 Y57.110 E3.02338
G1 X137.210 Y57.870 E3.06872
G1 X137.350 Y58.390 E3.09861
G1 X137.460 Y58.920 E3.12865
G1 X137.540 Y59.730 E3.17382
G1 X137.540 Y114.990 E6.24070
G1 X137.470 Y115.960 E6.29467
G1 X137.390 Y116.490 E6.32442
G1 X137.240 Y117.110 E6.35982
G1 X137.150 Y117.410 E6.37721
G1 X136.920 Y118.000 E6.41235
G1 X136.510 Y118.810 E6.46274
G1 X135.900 Y119.700 E6.52262
G1 X135.470 Y120.190 E6.55880
G1 X135.000 Y120.650 E6.59530
G1 X134.410 Y121.120 E6.63716
G1 X134.140 Y121.300 E6.65517
G1 X133.590 Y121.630 E6.69077
G1 X133.140 Y121.850 E6.71857
G1 X132.560 Y122.090 E6.75340
G1 X131.950 Y122.280 E6.78886
G1 X131.120 Y122.450 E6.83588
G1 X130.270 Y122.540 E6.88332
G1 X110.000 Y122.540 E8.00829
G1 X108.820 Y122.440 E8.07401
G1 X108.270 Y122.340 E8.10503
G1 X107.950 Y122.260 E8.12334
G1 X107.640 Y122.170 E8.14126
G1 X107.030 Y121.940 E8.17744
G1 X106.450 Y121.650 E8.21343
G1 X105.970 Y121.380 E8.24399
G1 X105.430 Y121.010 E8.28032
G1 X104.930 Y120.600 E8.31621
G1 X104.400 Y120.070 E8.35780
G1 X104.190 Y119.830 E8.37550
G1 X103.810 Y119.330 E8.41036
G1 X103.640 Y119.070 E8.42760
G1 X103.390 Y118.640 E8.45520
G1 X103.150 Y118.170 E8.48449
G1 X102.860 Y117.440 E8.52809
G1 X102.710 Y116.980 E8.55494
G1 X102.630 Y116.660 E8.57324
G1 X102.480 Y115.680 E8.62827
G1 X102.450 Y114.990 E8.66660
G1 X102.450 Y59.730 E11.73347
G1 X102.530 Y58.920 E11.77865
G1 X102.640 Y58.390 E11.80869
G1 X102.780 Y57.870 E11.83857
G1 X102.970 Y57.360 E11.86878
G1 X103.266 Y56.748 E11.90653
G1 F1800.000 E10.90653
G1 Z0.800
G92 E0
G1 X112.054 Y97.054 F9900.000
G1 Z0.500
G1 F1800.000 E1.00000
G1 X127.946 Y97.054 F630.000 E1.88203
G1 X127.946 Y112.946 E2.76406
G1 X112.054 Y112.946 E3.64609
G1 X112.054 Y97.188 E4.52068
G1 X112.054 Y96.161 F9900.000
G1 X111.573 Y95.268
G1 X111.573 Y62.232 F900.000 E6.35418
G1 X128.427 Y62.232 E7.28957
G1 X128.424 Y95.268 E9.12306
G1 X111.707 Y95.268 E10.05085
G1 X110.681 Y96.161 F9900.000
G1 X110.680 Y61.339 F900.000 E11.98344
G1 X129.320 Y61.339 E13.01791
G1 X129.317 Y96.161 E14.95050
G1 X110.814 Y96.161 E15.97737
G1 X109.789 Y114.980 F9900.000
G1 X109.787 Y60.446 F630.000 E19.00396
G1 X130.212 Y60.446 E20.13752
G1 X130.211 Y114.983 E23.16423
G1 X130.194 Y115.194 E23.17599
G1 X129.982 Y115.211 E23.18777
G1 X110.019 Y115.211 E24.29569
G1 X109.808 Y115.192 E24.30747
G1 X109.801 Y115.114 E24.31183
G1 X110.549 Y114.512 F9900.000
G1 X112.220 Y94.621
G1 X112.220 Y93.343 F1080.000 E24.38369
G1 X113.499 Y94.621 E24.48531
G1 X114.777 Y94.621 E24.55716
G1 X112.220 Y92.064 E24.76039
G1 X112.220 Y90.786 E24.83224
G1 X116.056 Y94.621 E25.13709
G1 X117.334 Y94.621 E25.20893
G1 X112.220 Y89.507 E25.61539
G1 X112.220 Y88.229 E25.68723
G1 X118.613 Y94.621 E26.19530
G1 X119.891 Y94.621 E26.26714
G1 X112.220 Y86.950 E26.87681
G1 X112.220 Y85.672 E26.94866
G1 X121.169 Y94.621 E27.65994
G1 X122.448 Y94.621 E27.73179
G1 X112.220 Y84.393 E28.54468
G1 X112.220 Y83.115 E28.61653
G1 X123.726 Y94.621 E29.53103
G1 X125.005 Y94.621 E29.60287
G1 X112.220 Y81.837 E30.61898
G1 X112.220 Y80.558 E30.69083
G1 X126.283 Y94.621 E31.80855
G1 X127.561 Y94.621 E31.88039
G1 X112.220 Y79.280 E33.09972
G1 X112.220 Y78.001 E33.17157
G1 X127.777 Y93.559 E34.40806
G1 X127.777 Y92.280 E34.47990
G1 X112.220 Y76.723 E35.71640
G1 X112.220 Y75.444 E35.78825
G1 X127.778 Y91.002 E37.02475
G1 X127.778 Y89.724 E37.09660
G1 X112.220 Y74.166 E38.33311
G1 X112.220 Y72.888 E38.40496
G1 X127.778 Y88.445 E39.64149
G1 X127.778 Y87.167 E39.71333
G1 X112.220 Y71.609 E40.94987
G1 X112.220 Y70.331 E41.02172
G1 X127.778 Y85.889 E42.25826
G1 X127.778 Y84.610 E42.33010
G1 X112.220 Y69.052 E43.56666
G1 X112.220 Y67.774 E43.63851
G1 X127.778 Y83.332 E44.87507
G1 X127.778 Y82.054 E44.94691
G1 X112.220 Y66.495 E46.18349
G1 X112.220 Y65.217 E46.25534
G1 X127.778 Y80.775 E47.49192
G1 X127.778 Y79.497 E47.56376
G1 X112.220 Y63.938 E48.80036
G1 X112.439 Y62.879 E48.86116
G1 X127.779 Y78.219 E50.08038
G1 X127.779 Y76.941 E50.15222
G1 X113.717 Y62.879 E51.26983
G1 X114.995 Y62.879 E51.34168
G1 X127.779 Y75.662 E52.35769
G1 X127.779 Y74.384 E52.42953
G1 X116.274 Y62.879 E53.34394
G1 X117.552 Y62.879 E53.41579
G1 X127.779 Y73.106 E54.22860
G1 X127.779 Y71.827 E54.30045
G1 X118.831 Y62.879 E55.01166
G1 X120.109 Y62.879 E55.08351
G1 X127.779 Y70.549 E55.69312
G1 X127.779 Y69.271 E55.76496
G1 X121.387 Y62.879 E56.27298
G1 X122.666 Y62.879 E56.34482
G1 X127.779 Y67.992 E56.75124
G1 X127.779 Y66.714 E56.82308
G1 X123.944 Y62.879 E57.12789
G1 X125.223 Y62.879 E57.19974
G1 X127.780 Y65.436 E57.40296
G1 X127.780 Y64.157 E57.47480
G1 X126.501 Y62.879 E57.57641
G1 X127.780 Y62.879 E57.64827
G1 X130.159 Y60.500 F9900.000
G1 X112.000 Y97.000
G1 X112.000 Y113.000
G1 X111.639 Y113.893
G1 X112.010 Y114.264 F360.000 E57.67772
G1 X112.913 Y113.893 E57.73242
G1 X113.285 Y114.264 E57.76187
G1 X114.187 Y113.893 E57.81656
G1 X114.559 Y114.264 E57.84601
G1 X115.462 Y113.893 E57.90071
G1 X115.834 Y114.264 E57.93016
G1 X116.736 Y113.893 E57.98485
G1 X117.108 Y114.264 E58.01430
G1 X118.011 Y113.893 E58.06900
G1 X118.382 Y114.264 E58.09845
G1 X119.285 Y113.893 E58.15315
G1 X119.657 Y114.264 E58.18260
G1 X120.560 Y113.893 E58.23729
G1 X120.931 Y114.264 E58.26674
G1 X121.834 Y113.893 E58.32144
G1 X122.206 Y114.264 E58.35089
G1 X123.109 Y113.893 E58.40558
G1 X123.480 Y114.264 E58.43503
G1 X124.383 Y113.893 E58.48973
G1 X124.755 Y114.264 E58.51918
G1 X125.657 Y113.893 E58.57387
G1 X126.029 Y114.264 E58.60332
G1 X126.932 Y113.893 E58.65802
G1 X127.304 Y114.264 E58.68747
G1 X128.206 Y113.893 E58.74217
G1 X128.578 Y114.264 E58.77162
G1 X129.264 Y113.676 E58.82225
G1 X128.893 Y113.304 E58.85167
G1 X129.264 Y112.401 E58.90639
G1 X128.893 Y112.030 E58.93578
G1 X129.263 Y111.126 E58.99051
G1 X128.893 Y110.756 E59.01987
G1 X129.263 Y109.851 E59.07461
G1 X128.893 Y109.481 E59.10394
G1 X129.262 Y108.576 E59.15869
G1 X128.893 Y108.207 E59.18799
G1 X129.263 Y107.302 E59.24274
G1 X128.893 Y106.932 E59.27206
G1 X129.263 Y106.028 E59.32680
G1 X128.893 Y105.658 E59.35612
G1 X129.263 Y104.753 E59.41086
G1 X128.893 Y104.383 E59.44019
G1 X129.263 Y103.479 E59.49493
G1 X128.893 Y103.109 E59.52427
G1 X129.263 Y102.205 E59.57900
G1 X128.893 Y101.834 E59.60835
G1 X129.263 Y100.930 E59.66308
G1 X128.893 Y100.560 E59.69243
G1 X129.263 Y99.656 E59.74716
G1 X128.893 Y99.286 E59.77652
G1 X129.263 Y98.382 E59.83125
G1 X128.893 Y98.011 E59.86062
G1 X129.263 Y97.107 E59.91535
G1 X128.000 Y97.000 F9900.000
G1 X128.000 Y113.000
G1 X110.207 Y115.157
G1 X110.736 Y114.264
G1 X111.107 Y113.361 F360.000 E59.97005
G1 X110.736 Y112.990 E59.99951
G1 X111.107 Y112.087 E60.05420
G1 X110.735 Y111.715 E60.08368
G1 X111.107 Y110.813 E60.13836
G1 X110.735 Y110.440 E60.16784
G1 X111.107 Y109.538 E60.22253
G1 X110.735 Y109.166 E60.25202
G1 X111.107 Y108.264 E60.30670
G1 X110.735 Y107.891 E60.33620
G1 X111.107 Y106.989 E60.39087
G1 X110.735 Y106.617 E60.42038
G1 X111.107 Y105.715 E60.47505
G1 X110.735 Y105.342 E60.50457
G1 X111.107 Y104.440 E60.55924
G1 X110.735 Y104.068 E60.58876
G1 X111.107 Y103.166 E60.64343
G1 X110.735 Y102.793 E60.67296
G1 X111.107 Y101.891 E60.72763
G1 X110.735 Y101.519 E60.75717
G1 X111.107 Y100.617 E60.81183
G1 X110.734 Y100.244 E60.84138
G1 X111.107 Y99.343 E60.89604
G1 X110.734 Y98.969 E60.92560
G1 X111.107 Y98.068 E60.98025
G1 X110.734 Y97.695 E61.00982
M106 S248
M104 S180 ; set temperature
M140 S60 ; set bed temperature
G1 F1800.000 E60.00982
G1 Z1.100
G92 E0
G1 X111.518 Y96.518 F9900.000
G1 Z0.800
G1 F1800.000 E1.00000
G1 X128.482 Y96.518 F3000.000 E1.41415
G1 X128.482 Y113.482 E1.82830
G1 X111.518 Y113.482 E2.24244
G1 X111.518 Y96.616 E2.65419
G1 X112.173 Y97.173 F9900.000
G1 X127.827 Y97.173 F2100.000 E3.03638
G1 X127.827 Y112.827 E3.41857
G1 X112.173 Y112.827 E3.80076
G1 X112.173 Y97.271 E4.18056
G1 X112.173 Y96.518 F9900.000
G1 X110.701 Y95.864
G1 X110.700 Y61.636 F3000.000 E5.01619
G1 X129.300 Y61.636 E5.47028
G1 X129.299 Y95.864 E6.30591
G1 X110.800 Y95.864 E6.75755
G1 X110.048 Y114.952 F9900.000
G1 X110.046 Y60.982 F3000.000 E8.07519
G1 X129.954 Y60.982 E8.56124
G1 X129.952 Y114.952 E9.87888
G1 X110.146 Y114.952 E10.36243
G1 X110.014 Y115.607 F9900.000
G1 X109.793 Y115.569 F2100.000 E10.36792
G1 X109.697 Y115.524 E10.37050
G1 X109.547 Y115.400 E10.37526
G1 X109.431 Y115.207 E10.38076
G1 X109.393 Y114.986 E10.38624
G1 X109.391 Y60.327 E11.72067
G1 X130.609 Y60.327 E12.23868
G1 X130.607 Y114.987 E13.57315
G1 X130.576 Y115.187 E13.57809
G1 X130.490 Y115.356 E13.58272
G1 X130.356 Y115.490 E13.58734
G1 X130.187 Y115.576 E13.59197
G1 X129.987 Y115.607 E13.59691
G1 X110.112 Y115.607 E14.08213
G1 X109.925 Y115.401 F9900.000
G1 X110.207 Y115.434
G1 X128.000 Y113.000
G1 X128.000 Y97.000
G1 X128.824 Y95.389
G1 X127.898 Y95.389 F3600.000 E14.10475
G1 X128.824 Y94.463 E14.13675
G1 X128.824 Y93.537 E14.15936
G1 X126.972 Y95.389 E14.22334
G1 X126.046 Y95.389 E14.24595
G1 X128.824 Y92.611 E14.34191
G1 X128.824 Y91.685 E14.36453
G1 X125.120 Y95.389 E14.49247
G1 X124.194 Y95.389 E14.51509
G1 X128.824 Y90.759 E14.67501
G1 X128.824 Y89.833 E14.69763
G1 X123.268 Y95.389 E14.88954
G1 X122.342 Y95.389 E14.91216
G1 X128.824 Y88.907 E15.13605
G1 X128.824 Y87.981 E15.15867
G1 X121.416 Y95.389 E15.41455
G1 X120.490 Y95.389 E15.43716
G1 X128.824 Y87.055 E15.72502
G1 X128.825 Y86.129 E15.74764
G1 X119.564 Y95.389 E16.06749
G1 X118.638 Y95.389 E16.09010
G1 X128.825 Y85.203 E16.44193
G1 X128.825 Y84.277 E16.46455
G1 X117.712 Y95.389 E16.84837
G1 X116.787 Y95.389 E16.87098
G1 X128.825 Y83.351 E17.28678
G1 X128.825 Y82.425 E17.30940
G1 X115.861 Y95.389 E17.75718
G1 X114.935 Y95.389 E17.77980
G1 X128.825 Y81.499 E18.25956
G1 X128.825 Y80.573 E18.28218
G1 X114.009 Y95.389 E18.79393
G1 X113.083 Y95.389 E18.81655
G1 X128.825 Y79.647 E19.36028
G1 X128.825 Y78.721 E19.38290
G1 X112.157 Y95.389 E19.95862
G1 X111.231 Y95.389 E19.98123
G1 X128.825 Y77.795 E20.58894
G1 X128.825 Y76.869 E20.61155
G1 X111.176 Y94.518 E21.22116
G1 X111.176 Y93.592 E21.24377
G1 X128.825 Y75.943 E21.85338
G1 X128.825 Y75.017 E21.87599
G1 X111.176 Y92.667 E22.48560
G1 X111.176 Y91.741 E22.50822
G1 X128.825 Y74.091 E23.11783
G1 X128.825 Y73.165 E23.14045
G1 X111.176 Y90.815 E23.75006
G1 X111.176 Y89.889 E23.77267
G1 X128.825 Y72.239 E24.38229
G1 X128.825 Y71.313 E24.40490
G1 X111.176 Y88.963 E25.01452
G1 X111.175 Y88.037 E25.03714
G1 X128.825 Y70.387 E25.64676
G1 X128.825 Y69.461 E25.66937
G1 X111.175 Y87.111 E26.27899
G1 X111.175 Y86.185 E26.30161
G1 X128.825 Y68.535 E26.91123
G1 X128.825 Y67.609 E26.93385
G1 X111.175 Y85.259 E27.54347
G1 X111.175 Y84.333 E27.56609
G1 X128.825 Y66.683 E28.17572
G1 X128.825 Y65.757 E28.19833
G1 X111.175 Y83.407 E28.80796
G1 X111.175 Y82.481 E28.83058
G1 X128.825 Y64.831 E29.44021
G1 X128.825 Y63.905 E29.46282
G1 X111.175 Y81.555 E30.07246
G1 X111.175 Y80.629 E30.09507
G1 X128.825 Y62.979 E30.70471
G1 X128.768 Y62.111 E30.72597
G1 X111.175 Y79.704 E31.33364
G1 X111.175 Y78.778 E31.35625
G1 X127.842 Y62.111 E31.93193
G1 X126.916 Y62.111 E31.95455
G1 X111.175 Y77.852 E32.49825
G1 X111.175 Y76.926 E32.52086
G1 X125.990 Y62.111 E33.03258
G1 X125.064 Y62.111 E33.05519
G1 X111.175 Y76.000 E33.53493
G1 X111.175 Y75.074 E33.55754
G1 X124.138 Y62.111 E34.00530
G1 X123.212 Y62.111 E34.02791
G1 X111.175 Y74.148 E34.44368
G1 X111.175 Y73.222 E34.46630
G1 X122.286 Y62.111 E34.85009
G1 X121.360 Y62.111 E34.87270
G1 X111.175 Y72.296 E35.22451
G1 X111.175 Y71.370 E35.24712
G1 X120.434 Y62.111 E35.56695
G1 X119.508 Y62.111 E35.58956
G1 X111.175 Y70.444 E35.87741
G1 X111.175 Y69.518 E35.90002
G1 X118.582 Y62.111 E36.15588
G1 X117.656 Y62.111 E36.17850
G1 X111.175 Y68.592 E36.40238
G1 X111.175 Y67.666 E36.42499
G1 X116.730 Y62.111 E36.61689
G1 X115.805 Y62.111 E36.63951
G1 X111.175 Y66.740 E36.79942
G1 X111.175 Y65.815 E36.82204
G1 X114.879 Y62.111 E36.94997
G1 X113.953 Y62.111 E36.97259
G1 X111.175 Y64.889 E37.06854
G1 X111.175 Y63.963 E37.09115
G1 X113.027 Y62.111 E37.15512
G1 X112.101 Y62.111 E37.17774
G1 X111.175 Y63.037 E37.20972
G1 X111.175 Y62.111 E37.23234
G1 X129.157 Y96.716 F9900.000
G1 X129.278 Y96.595 F1200.000 E37.23652
G1 X129.278 Y97.526 E37.25936
G1 X129.157 Y97.646 E37.26354
G1 X129.278 Y98.457 E37.28364
G1 X129.157 Y98.577 E37.28782
G1 X129.277 Y99.387 E37.30793
G1 X129.157 Y99.507 E37.31210
G1 X129.277 Y100.318 E37.33221
G1 X129.157 Y100.438 E37.33638
G1 X129.277 Y101.248 E37.35649
G1 X129.157 Y101.368 E37.36066
G1 X129.277 Y102.179 E37.38077
G1 X129.157 Y102.299 E37.38494
G1 X129.277 Y103.109 E37.40505
G1 X129.157 Y103.230 E37.40921
G1 X129.277 Y104.040 E37.42933
G1 X129.157 Y104.160 E37.43349
G1 X129.277 Y104.971 E37.45360
G1 X129.157 Y105.091 E37.45777
G1 X129.277 Y105.901 E37.47788
G1 X129.157 Y106.021 E37.48205
G1 X129.277 Y106.832 E37.50216
G1 X129.157 Y106.952 E37.50632
G1 X129.277 Y107.762 E37.52644
G1 X129.157 Y107.882 E37.53060
G1 X129.277 Y108.693 E37.55071
G1 X129.157 Y108.813 E37.55487
G1 X129.277 Y109.624 E37.57499
G1 X129.157 Y109.743 E37.57915
G1 X129.277 Y110.554 E37.59926
G1 X129.157 Y110.674 E37.60342
G1 X129.277 Y111.485 E37.62354
G1 X129.157 Y111.605 E37.62769
G1 X129.277 Y112.415 E37.64781
G1 X129.157 Y112.535 E37.65197
G1 X129.277 Y113.346 E37.67208
G1 X129.157 Y113.466 E37.67624
G1 X129.277 Y114.277 F9900.000
G1 X128.466 Y114.157 F1200.000 E37.69636
G1 X128.346 Y114.277 E37.70051
G1 X127.535 Y114.157 E37.72063
G1 X127.416 Y114.277 E37.72478
G1 X126.605 Y114.157 E37.74490
G1 X126.485 Y114.277 E37.74906
G1 X125.674 Y114.157 E37.76918
G1 X125.554 Y114.277 E37.77333
G1 X124.743 Y114.157 E37.79345
G1 X124.624 Y114.277 E37.79760
G1 X123.813 Y114.157 E37.81772
G1 X123.693 Y114.277 E37.82187
G1 X122.882 Y114.157 E37.84199
G1 X122.763 Y114.277 E37.84614
G1 X121.952 Y114.157 E37.86626
G1 X121.832 Y114.277 E37.87041
G1 X121.021 Y114.157 E37.89053
G1 X120.902 Y114.277 E37.89468
G1 X120.091 Y114.157 E37.91480
G1 X119.971 Y114.277 E37.91895
G1 X119.160 Y114.157 E37.93907
G1 X119.041 Y114.277 E37.94322
G1 X118.230 Y114.157 E37.96334
G1 X118.110 Y114.277 E37.96750
G1 X117.299 Y114.157 E37.98762
G1 X117.179 Y114.277 E37.99177
G1 X116.368 Y114.157 E38.01189
G1 X116.249 Y114.277 E38.01604
G1 X115.438 Y114.157 E38.03616
G1 X115.318 Y114.277 E38.04031
G1 X114.507 Y114.157 E38.06043
G1 X114.388 Y114.277 E38.06458
G1 X113.577 Y114.157 E38.08470
G1 X113.457 Y114.277 E38.08885
G1 X112.646 Y114.157 E38.10897
G1 X112.527 Y114.277 E38.11312
G1 X111.716 Y114.157 E38.13324
G1 X111.596 Y114.277 E38.13739
