G21 (This is GCode, generated with Skeinforge version 35 from ReplicatorG)
G21 (Ultimaker profile - Quality print from alterations/start.gcode)
G21 (Metric: The unit is a millimeter)
M18 (Disable motors for now, to allow manual moving of the head)
G90 (Absolute positioning)
G92 X0 Y0 Z0 E0 (set origin to current position)
G91 (Relative positioning)
G1 Z35.0 F400 (lower platform for cleaning nozzle)
G92 E0 (zero the extruded length)
G1 E260 F1000 (extrude some to get the flow going)
G1 E-20 F3000 (reverse a little)
G92 E0 (zero the extruded length)
M1 (Clean the nozzle and press YES to continue...)
G1 Z-1.0 F100 (rise platform again)
G1 Z-34.0 F400 (rise platform again)
G90 (Absolute positioning)
G1 Z0.4 (Tool slightly above the platform)
G92 Z0.4 E0 (zero the extruded length)
G21 (end of start.txt)
G90
G21
;M103
M105
M106
M140 S60.0
M141 S30.0
M142 S0.0
M113 S1.0
;M108 S210.0
M104 S200.0
G1 X-5.76 Y31.61 Z0.72 F60.0
;M101
G1 X-5.76 Y59.11 Z0.72 F240.0
G1 X-2.88 Y59.11 Z0.72 F240.0
G1 X-2.88 Y31.61 Z0.72 F240.0
G1 X0.0 Y31.61 Z0.72 F240.0
G1 X0.0 Y59.11 Z0.72 F240.0
G1 X2.88 Y59.11 Z0.72 F240.0
G1 X2.88 Y31.61 Z0.72 F240.0
G1 X5.76 Y31.61 Z0.72 F240.0
G1 X5.76 Y59.11 Z0.72 F240.0
G1 X8.64 Y59.11 Z0.72 F240.0
G1 X8.64 Y31.61 Z0.72 F240.0
G1 X11.52 Y31.61 Z0.72 F240.0
G1 X11.52 Y59.11 Z0.72 F240.0
G1 X14.4 Y59.11 Z0.72 F240.0
G1 X14.4 Y31.61 Z0.72 F240.0
G1 X17.28 Y31.61 Z0.72 F240.0
G1 X17.28 Y59.11 Z0.72 F240.0
G1 X20.16 Y59.11 Z0.72 F240.0
G1 X20.16 Y30.17 Z0.72 F240.0
G1 X23.04 Y28.73 Z0.72 F240.0
G1 X23.04 Y59.11 Z0.72 F240.0
G1 X25.92 Y59.11 Z0.72 F240.0
G1 X25.92 Y-2.95 Z0.72 F240.0
G1 X28.8 Y-2.95 Z0.72 F240.0
G1 X28.8 Y59.11 Z0.72 F240.0
G1 X31.68 Y59.11 Z0.72 F240.0
G1 X31.68 Y-2.95 Z0.72 F240.0
G1 X34.56 Y-2.95 Z0.72 F240.0
G1 X34.56 Y59.11 Z0.72 F240.0
G1 X37.44 Y59.11 Z0.72 F240.0
G1 X37.44 Y-2.95 Z0.72 F240.0
G1 X40.32 Y-2.95 Z0.72 F240.0
G1 X40.32 Y59.11 Z0.72 F240.0
G1 X43.2 Y59.11 Z0.72 F240.0
G1 X43.2 Y-2.95 Z0.72 F240.0
G1 X46.08 Y-2.95 Z0.72 F240.0
G1 X46.08 Y59.11 Z0.72 F240.0
G1 X48.96 Y59.11 Z0.72 F240.0
G1 X48.96 Y-2.95 Z0.72 F240.0
G1 X51.84 Y-2.95 Z0.72 F240.0
G1 X51.84 Y59.11 Z0.72 F240.0
G1 X54.72 Y59.11 Z0.72 F240.0
G1 X54.72 Y-2.95 Z0.72 F240.0
G1 X57.6 Y-2.95 Z0.72 F240.0
G1 X57.6 Y59.11 Z0.72 F240.0
;M103
G1 X25.88 Y0.0 Z1.18 F960.0
;M101
G1 X57.64 Y0.0 Z1.18 F960.0
G1 X57.64 Y-1.44 Z1.18 F960.0
G1 X25.88 Y-1.44 Z1.18 F960.0
G1 X25.88 Y-2.88 Z1.18 F960.0
G1 X57.64 Y-2.88 Z1.18 F960.0
;M103
G1 X57.64 Y1.44 Z1.18 F960.0
;M101
G1 X25.88 Y1.44 Z1.18 F960.0
G1 X25.88 Y2.88 Z1.18 F960.0
G1 X57.64 Y2.88 Z1.18 F960.0
G1 X57.64 Y4.32 Z1.18 F960.0
G1 X25.88 Y4.32 Z1.18 F960.0
G1 X25.88 Y5.76 Z1.18 F960.0
G1 X57.64 Y5.76 Z1.18 F960.0
G1 X57.64 Y7.2 Z1.18 F960.0
G1 X25.88 Y7.2 Z1.18 F960.0
G1 X25.88 Y8.64 Z1.18 F960.0
G1 X57.64 Y8.64 Z1.18 F960.0
G1 X57.64 Y10.08 Z1.18 F960.0
G1 X25.88 Y10.08 Z1.18 F960.0
G1 X25.88 Y11.52 Z1.18 F960.0
G1 X57.64 Y11.52 Z1.18 F960.0
G1 X57.64 Y12.96 Z1.18 F960.0
G1 X25.88 Y12.96 Z1.18 F960.0
G1 X25.88 Y14.4 Z1.18 F960.0
G1 X57.64 Y14.4 Z1.18 F960.0
G1 X57.64 Y15.84 Z1.18 F960.0
G1 X25.88 Y15.84 Z1.18 F960.0
G1 X25.88 Y17.28 Z1.18 F960.0
G1 X57.64 Y17.28 Z1.18 F960.0
G1 X57.64 Y18.72 Z1.18 F960.0
G1 X25.88 Y18.72 Z1.18 F960.0
G1 X25.88 Y20.16 Z1.18 F960.0
G1 X57.64 Y20.16 Z1.18 F960.0
G1 X57.64 Y21.6 Z1.18 F960.0
G1 X25.88 Y21.6 Z1.18 F960.0
G1 X25.88 Y23.04 Z1.18 F960.0
G1 X57.64 Y23.04 Z1.18 F960.0
G1 X57.64 Y24.48 Z1.18 F960.0
G1 X25.88 Y24.48 Z1.18 F960.0
G1 X25.88 Y25.92 Z1.18 F960.0
G1 X57.64 Y25.92 Z1.18 F960.0
G1 X57.64 Y27.36 Z1.18 F960.0
G1 X25.88 Y27.36 Z1.18 F960.0
G1 X23.0 Y28.8 Z1.18 F960.0
G1 X57.64 Y28.8 Z1.18 F960.0
G1 X57.64 Y30.24 Z1.18 F960.0
G1 X20.12 Y30.24 Z1.18 F960.0
;M103
G1 X-5.8 Y31.68 Z1.18 F960.0
;M101
G1 X57.64 Y31.68 Z1.18 F960.0
G1 X57.64 Y33.12 Z1.18 F960.0
G1 X-5.8 Y33.12 Z1.18 F960.0
G1 X-5.8 Y34.56 Z1.18 F960.0
G1 X57.64 Y34.56 Z1.18 F960.0
G1 X57.64 Y36.0 Z1.18 F960.0
G1 X-5.8 Y36.0 Z1.18 F960.0
G1 X-5.8 Y37.44 Z1.18 F960.0
G1 X57.64 Y37.44 Z1.18 F960.0
G1 X57.64 Y38.88 Z1.18 F960.0
G1 X-5.8 Y38.88 Z1.18 F960.0
G1 X-5.8 Y40.32 Z1.18 F960.0
G1 X57.64 Y40.32 Z1.18 F960.0
G1 X57.64 Y41.76 Z1.18 F960.0
G1 X-5.8 Y41.76 Z1.18 F960.0
G1 X-5.8 Y43.2 Z1.18 F960.0
G1 X57.64 Y43.2 Z1.18 F960.0
G1 X57.64 Y44.64 Z1.18 F960.0
G1 X-5.8 Y44.64 Z1.18 F960.0
G1 X-5.8 Y46.08 Z1.18 F960.0
G1 X57.64 Y46.08 Z1.18 F960.0
G1 X57.64 Y47.52 Z1.18 F960.0
G1 X-5.8 Y47.52 Z1.18 F960.0
G1 X-5.8 Y48.96 Z1.18 F960.0
G1 X57.64 Y48.96 Z1.18 F960.0
G1 X57.64 Y50.4 Z1.18 F960.0
G1 X-5.8 Y50.4 Z1.18 F960.0
G1 X-5.8 Y51.84 Z1.18 F960.0
G1 X57.64 Y51.84 Z1.18 F960.0
G1 X57.64 Y53.28 Z1.18 F960.0
G1 X-5.8 Y53.28 Z1.18 F960.0
G1 X-5.8 Y54.72 Z1.18 F960.0
G1 X57.64 Y54.72 Z1.18 F960.0
G1 X57.64 Y56.16 Z1.18 F960.0
G1 X-5.8 Y56.16 Z1.18 F960.0
G1 X-5.8 Y57.6 Z1.18 F960.0
G1 X57.64 Y57.6 Z1.18 F960.0
G1 X57.64 Y59.04 Z1.18 F960.0
G1 X-5.8 Y59.04 Z1.18 F960.0
;M103
G1 X25.88 Y0.0 Z1.58 F960.0
;M101
G1 X57.64 Y0.0 Z1.58 F960.0
G1 X57.64 Y-1.44 Z1.58 F960.0
G1 X25.88 Y-1.44 Z1.58 F960.0
G1 X25.88 Y-2.88 Z1.58 F960.0
G1 X57.64 Y-2.88 Z1.58 F960.0
;M103
G1 X57.64 Y1.44 Z1.58 F960.0
;M101
G1 X25.88 Y1.44 Z1.58 F960.0
G1 X25.88 Y2.88 Z1.58 F960.0
G1 X57.64 Y2.88 Z1.58 F960.0
G1 X57.64 Y4.32 Z1.58 F960.0
G1 X25.88 Y4.32 Z1.58 F960.0
G1 X25.88 Y5.76 Z1.58 F960.0
G1 X57.64 Y5.76 Z1.58 F960.0
G1 X57.64 Y7.2 Z1.58 F960.0
G1 X25.88 Y7.2 Z1.58 F960.0
G1 X25.88 Y8.64 Z1.58 F960.0
G1 X57.64 Y8.64 Z1.58 F960.0
G1 X57.64 Y10.08 Z1.58 F960.0
G1 X25.88 Y10.08 Z1.58 F960.0
G1 X25.88 Y11.52 Z1.58 F960.0
G1 X57.64 Y11.52 Z1.58 F960.0
G1 X57.64 Y12.96 Z1.58 F960.0
G1 X25.88 Y12.96 Z1.58 F960.0
G1 X25.88 Y14.4 Z1.58 F960.0
G1 X57.64 Y14.4 Z1.58 F960.0
G1 X57.64 Y15.84 Z1.58 F960.0
G1 X25.88 Y15.84 Z1.58 F960.0
G1 X25.88 Y17.28 Z1.58 F960.0
G1 X57.64 Y17.28 Z1.58 F960.0
G1 X57.64 Y18.72 Z1.58 F960.0
G1 X25.88 Y18.72 Z1.58 F960.0
G1 X25.88 Y20.16 Z1.58 F960.0
G1 X57.64 Y20.16 Z1.58 F960.0
G1 X57.64 Y21.6 Z1.58 F960.0
G1 X25.88 Y21.6 Z1.58 F960.0
G1 X25.88 Y23.04 Z1.58 F960.0
G1 X57.64 Y23.04 Z1.58 F960.0
G1 X57.64 Y24.48 Z1.58 F960.0
G1 X25.88 Y24.48 Z1.58 F960.0
G1 X25.88 Y25.92 Z1.58 F960.0
G1 X57.64 Y25.92 Z1.58 F960.0
G1 X57.64 Y27.36 Z1.58 F960.0
G1 X25.88 Y27.36 Z1.58 F960.0
G1 X23.0 Y28.8 Z1.58 F960.0
G1 X57.64 Y28.8 Z1.58 F960.0
G1 X57.64 Y30.24 Z1.58 F960.0
G1 X20.12 Y30.24 Z1.58 F960.0
;M103
G1 X-5.8 Y31.68 Z1.58 F960.0
;M101
G1 X57.64 Y31.68 Z1.58 F960.0
G1 X57.64 Y33.12 Z1.58 F960.0
G1 X-5.8 Y33.12 Z1.58 F960.0
G1 X-5.8 Y34.56 Z1.58 F960.0
G1 X57.64 Y34.56 Z1.58 F960.0
G1 X57.64 Y36.0 Z1.58 F960.0
G1 X-5.8 Y36.0 Z1.58 F960.0
G1 X-5.8 Y37.44 Z1.58 F960.0
G1 X57.64 Y37.44 Z1.58 F960.0
G1 X57.64 Y38.88 Z1.58 F960.0
G1 X-5.8 Y38.88 Z1.58 F960.0
G1 X-5.8 Y40.32 Z1.58 F960.0
G1 X57.64 Y40.32 Z1.58 F960.0
G1 X57.64 Y41.76 Z1.58 F960.0
G1 X-5.8 Y41.76 Z1.58 F960.0
G1 X-5.8 Y43.2 Z1.58 F960.0
G1 X57.64 Y43.2 Z1.58 F960.0
G1 X57.64 Y44.64 Z1.58 F960.0
G1 X-5.8 Y44.64 Z1.58 F960.0
G1 X-5.8 Y46.08 Z1.58 F960.0
G1 X57.64 Y46.08 Z1.58 F960.0
G1 X57.64 Y47.52 Z1.58 F960.0
G1 X-5.8 Y47.52 Z1.58 F960.0
G1 X-5.8 Y48.96 Z1.58 F960.0
G1 X57.64 Y48.96 Z1.58 F960.0
G1 X57.64 Y50.4 Z1.58 F960.0
G1 X-5.8 Y50.4 Z1.58 F960.0
G1 X-5.8 Y51.84 Z1.58 F960.0
G1 X57.64 Y51.84 Z1.58 F960.0
G1 X57.64 Y53.28 Z1.58 F960.0
G1 X-5.8 Y53.28 Z1.58 F960.0
G1 X-5.8 Y54.72 Z1.58 F960.0
G1 X57.64 Y54.72 Z1.58 F960.0
G1 X57.64 Y56.16 Z1.58 F960.0
G1 X-5.8 Y56.16 Z1.58 F960.0
G1 X-5.8 Y57.6 Z1.58 F960.0
G1 X57.64 Y57.6 Z1.58 F960.0
G1 X57.64 Y59.04 Z1.58 F960.0
G1 X-5.8 Y59.04 Z1.58 F960.0
;M103
M104 S220.0
G1 X60.62 Y63.12 Z2.0 F480.0
G1 X-7.12 Y63.12 Z2.0 F480.0
G1 X-7.12 Y26.9 Z2.0 F480.0
G1 X21.15 Y26.74 Z2.0 F480.0
G1 X22.38 Y26.28 Z2.0 F480.0
G1 X23.39 Y25.42 Z2.0 F480.0
G1 X24.15 Y24.14 Z2.0 F480.0
G1 X24.4 Y-7.12 Z2.0 F480.0
G1 X60.62 Y-7.12 Z2.0 F480.0
M104 S195.0
G1 X40.04 Y27.53 Z2.0 F960.0
;M101
G1 X40.33 Y27.93 Z2.0 F960.0
G1 X40.26 Y28.1 Z2.0 F960.0
G1 X39.96 Y28.37 Z2.0 F960.0
G1 X39.62 Y28.47 Z2.0 F960.0
G1 X39.33 Y28.43 Z2.0 F960.0
G1 X39.13 Y28.34 Z2.0 F960.0
G1 X38.96 Y28.18 Z2.0 F960.0
G1 X38.9 Y28.07 Z2.0 F960.0
G1 X38.88 Y27.93 Z2.0 F960.0
G1 X38.93 Y27.68 Z2.0 F960.0
G1 X39.11 Y27.49 Z2.0 F960.0
G1 X39.46 Y27.39 Z2.0 F960.0
G1 X41.06 Y26.01 Z2.0 F960.0
G1 X43.64 Y26.01 Z2.0 F960.0
G1 X44.11 Y25.5 Z2.0 F960.0
G1 X44.22 Y23.86 Z2.0 F960.0
G1 X46.13 Y24.03 Z2.0 F960.0
G1 X47.46 Y24.61 Z2.0 F960.0
G1 X48.32 Y25.33 Z2.0 F960.0
G1 X49.0 Y26.37 Z2.0 F960.0
G1 X49.21 Y26.96 Z2.0 F960.0
G1 X49.32 Y27.58 Z2.0 F960.0
G1 X49.28 Y28.63 Z2.0 F960.0
G1 X48.91 Y29.72 Z2.0 F960.0
G1 X48.53 Y30.31 Z2.0 F960.0
G1 X47.74 Y31.07 Z2.0 F960.0
G1 X47.09 Y31.47 Z2.0 F960.0
G1 X46.49 Y31.7 Z2.0 F960.0
G1 X45.86 Y31.85 Z2.0 F960.0
G1 X45.16 Y31.9 Z2.0 F960.0
G1 X44.48 Y31.85 Z2.0 F960.0
G1 X43.9 Y31.71 Z2.0 F960.0
G1 X43.03 Y31.28 Z2.0 F960.0
G1 X42.43 Y31.42 Z2.0 F960.0
G1 X41.5 Y31.98 Z2.0 F960.0
G1 X40.87 Y32.2 Z2.0 F960.0
G1 X40.11 Y32.34 Z2.0 F960.0
G1 X38.73 Y32.3 Z2.0 F960.0
G1 X37.92 Y32.12 Z2.0 F960.0
G1 X37.13 Y31.79 Z2.0 F960.0
G1 X36.49 Y31.39 Z2.0 F960.0
G1 X35.49 Y30.4 Z2.0 F960.0
G1 X35.11 Y29.78 Z2.0 F960.0
G1 X34.73 Y28.55 Z2.0 F960.0
G1 X34.67 Y27.8 Z2.0 F960.0
G1 X34.73 Y27.06 Z2.0 F960.0
G1 X34.88 Y26.44 Z2.0 F960.0
G1 X35.11 Y25.88 Z2.0 F960.0
G1 X35.66 Y25.11 Z2.0 F960.0
G1 X35.52 Y24.39 Z2.0 F960.0
G1 X35.24 Y24.13 Z2.0 F960.0
G1 X34.93 Y23.59 Z2.0 F960.0
G1 X34.81 Y22.91 Z2.0 F960.0
G1 X34.98 Y21.65 Z2.0 F960.0
G1 X34.98 Y18.88 Z2.0 F960.0
G1 X36.4 Y18.25 Z2.0 F960.0
G1 X36.49 Y17.9 Z2.0 F960.0
G1 X34.98 Y17.96 Z2.0 F960.0
G1 X34.98 Y11.6 Z2.0 F960.0
G1 X37.44 Y11.24 Z2.0 F960.0
G1 X37.44 Y10.8 Z2.0 F960.0
G1 X34.98 Y10.15 Z2.0 F960.0
G1 X34.98 Y6.7 Z2.0 F960.0
G1 X37.44 Y6.06 Z2.0 F960.0
G1 X37.44 Y5.63 Z2.0 F960.0
G1 X34.95 Y5.26 Z2.0 F960.0
G1 X35.19 Y1.54 Z2.0 F960.0
G1 X49.02 Y3.41 Z2.0 F960.0
G1 X49.02 Y7.03 Z2.0 F960.0
G1 X44.76 Y8.15 Z2.0 F960.0
G1 X44.76 Y8.72 Z2.0 F960.0
G1 X49.02 Y9.83 Z2.0 F960.0
G1 X49.02 Y13.45 Z2.0 F960.0
G1 X47.52 Y13.67 Z2.0 F960.0
G1 X47.51 Y14.09 Z2.0 F960.0
G1 X49.02 Y14.1 Z2.0 F960.0
G1 X48.92 Y18.79 Z2.0 F960.0
G1 X48.73 Y19.59 Z2.0 F960.0
G1 X48.25 Y20.5 Z2.0 F960.0
G1 X47.42 Y21.29 Z2.0 F960.0
G1 X46.27 Y21.87 Z2.0 F960.0
G1 X45.57 Y22.04 Z2.0 F960.0
G1 X44.6 Y22.11 Z2.0 F960.0
G1 X43.83 Y22.07 Z2.0 F960.0
G1 X43.1 Y21.92 Z2.0 F960.0
G1 X42.49 Y21.69 Z2.0 F960.0
G1 X41.92 Y21.36 Z2.0 F960.0
G1 X41.3 Y20.8 Z2.0 F960.0
G1 X40.08 Y20.93 Z2.0 F960.0
G1 X39.01 Y21.4 Z2.0 F960.0
G1 X39.15 Y21.82 Z2.0 F960.0
G1 X39.38 Y22.24 Z2.0 F960.0
G1 X39.45 Y22.61 Z2.0 F960.0
G1 X40.65 Y23.74 Z2.0 F960.0
G1 X40.69 Y25.65 Z2.0 F960.0
;M103
G1 X27.71 Y42.71 Z2.0 F960.0
;M101
G1 X27.18 Y42.44 Z2.0 F960.0
G1 X26.72 Y42.32 Z2.0 F960.0
G1 X26.25 Y42.28 Z2.0 F960.0
G1 X25.78 Y42.32 Z2.0 F960.0
G1 X25.32 Y42.44 Z2.0 F960.0
G1 X24.89 Y42.64 Z2.0 F960.0
G1 X24.5 Y42.91 Z2.0 F960.0
G1 X24.16 Y43.25 Z2.0 F960.0
G1 X23.89 Y43.64 Z2.0 F960.0
G1 X23.69 Y44.07 Z2.0 F960.0
G1 X23.57 Y44.53 Z2.0 F960.0
G1 X23.53 Y45.0 Z2.0 F960.0
G1 X23.57 Y45.47 Z2.0 F960.0
G1 X23.69 Y45.93 Z2.0 F960.0
G1 X23.89 Y46.36 Z2.0 F960.0
G1 X24.16 Y46.75 Z2.0 F960.0
G1 X24.5 Y47.09 Z2.0 F960.0
G1 X24.89 Y47.36 Z2.0 F960.0
G1 X25.32 Y47.56 Z2.0 F960.0
G1 X25.78 Y47.68 Z2.0 F960.0
G1 X26.25 Y47.72 Z2.0 F960.0
G1 X26.72 Y47.68 Z2.0 F960.0
G1 X27.18 Y47.56 Z2.0 F960.0
G1 X27.61 Y47.36 Z2.0 F960.0
G1 X28.0 Y47.09 Z2.0 F960.0
G1 X28.34 Y46.75 Z2.0 F960.0
G1 X28.61 Y46.36 Z2.0 F960.0
G1 X28.81 Y45.93 Z2.0 F960.0
G1 X28.93 Y45.47 Z2.0 F960.0
G1 X28.97 Y45.0 Z2.0 F960.0
G1 X28.93 Y44.53 Z2.0 F960.0
G1 X28.81 Y44.07 Z2.0 F960.0
G1 X28.61 Y43.64 Z2.0 F960.0
G1 X28.26 Y43.17 Z2.0 F960.0
;M103
G1 X39.79 Y44.89 Z2.0 F960.0
;M101
G1 X39.82 Y45.47 Z2.0 F960.0
G1 X39.94 Y45.93 Z2.0 F960.0
G1 X40.14 Y46.36 Z2.0 F960.0
G1 X40.41 Y46.75 Z2.0 F960.0
G1 X40.75 Y47.09 Z2.0 F960.0
G1 X41.14 Y47.36 Z2.0 F960.0
G1 X41.57 Y47.56 Z2.0 F960.0
G1 X42.03 Y47.68 Z2.0 F960.0
G1 X42.5 Y47.72 Z2.0 F960.0
G1 X42.97 Y47.68 Z2.0 F960.0
G1 X43.43 Y47.56 Z2.0 F960.0
G1 X43.86 Y47.36 Z2.0 F960.0
G1 X44.25 Y47.09 Z2.0 F960.0
G1 X44.59 Y46.75 Z2.0 F960.0
G1 X44.86 Y46.36 Z2.0 F960.0
G1 X45.06 Y45.93 Z2.0 F960.0
G1 X45.18 Y45.47 Z2.0 F960.0
G1 X45.22 Y45.0 Z2.0 F960.0
G1 X45.18 Y44.53 Z2.0 F960.0
G1 X45.06 Y44.07 Z2.0 F960.0
G1 X44.86 Y43.64 Z2.0 F960.0
G1 X44.59 Y43.25 Z2.0 F960.0
G1 X44.25 Y42.91 Z2.0 F960.0
G1 X43.86 Y42.64 Z2.0 F960.0
G1 X43.43 Y42.44 Z2.0 F960.0
G1 X42.97 Y42.32 Z2.0 F960.0
G1 X42.5 Y42.28 Z2.0 F960.0
G1 X42.03 Y42.32 Z2.0 F960.0
G1 X41.57 Y42.44 Z2.0 F960.0
G1 X41.14 Y42.64 Z2.0 F960.0
G1 X40.75 Y42.91 Z2.0 F960.0
G1 X40.41 Y43.25 Z2.0 F960.0
G1 X40.14 Y43.64 Z2.0 F960.0
G1 X39.91 Y44.18 Z2.0 F960.0
;M103
G1 X12.69 Y44.64 Z2.0 F960.0
;M101
G1 X12.56 Y44.07 Z2.0 F960.0
G1 X12.36 Y43.64 Z2.0 F960.0
G1 X12.09 Y43.25 Z2.0 F960.0
G1 X11.75 Y42.91 Z2.0 F960.0
G1 X11.36 Y42.64 Z2.0 F960.0
G1 X10.93 Y42.44 Z2.0 F960.0
G1 X10.47 Y42.32 Z2.0 F960.0
G1 X10.0 Y42.28 Z2.0 F960.0
G1 X9.53 Y42.32 Z2.0 F960.0
G1 X9.07 Y42.44 Z2.0 F960.0
G1 X8.64 Y42.64 Z2.0 F960.0
G1 X8.25 Y42.91 Z2.0 F960.0
G1 X7.91 Y43.25 Z2.0 F960.0
G1 X7.64 Y43.64 Z2.0 F960.0
G1 X7.44 Y44.07 Z2.0 F960.0
G1 X7.32 Y44.53 Z2.0 F960.0
G1 X7.28 Y45.0 Z2.0 F960.0
G1 X7.32 Y45.47 Z2.0 F960.0
G1 X7.44 Y45.93 Z2.0 F960.0
G1 X7.64 Y46.36 Z2.0 F960.0
G1 X7.91 Y46.75 Z2.0 F960.0
G1 X8.25 Y47.09 Z2.0 F960.0
G1 X8.64 Y47.36 Z2.0 F960.0
G1 X9.07 Y47.56 Z2.0 F960.0
G1 X9.53 Y47.68 Z2.0 F960.0
G1 X10.0 Y47.72 Z2.0 F960.0
G1 X10.47 Y47.68 Z2.0 F960.0
G1 X10.93 Y47.56 Z2.0 F960.0
G1 X11.36 Y47.36 Z2.0 F960.0
G1 X11.75 Y47.09 Z2.0 F960.0
G1 X12.09 Y46.75 Z2.0 F960.0
G1 X12.36 Y46.36 Z2.0 F960.0
G1 X12.56 Y45.93 Z2.0 F960.0
G1 X12.69 Y45.36 Z2.0 F960.0
;M103
G1 X12.36 Y54.98 Z2.0 F960.0
;M101
G1 X1.02 Y54.98 Z2.0 F960.0
G1 X1.02 Y35.02 Z2.0 F960.0
G1 X20.64 Y35.02 Z2.0 F960.0
G1 X22.66 Y34.81 Z2.0 F960.0
G1 X24.65 Y34.26 Z2.0 F960.0
G1 X26.52 Y33.37 Z2.0 F960.0
G1 X28.21 Y32.17 Z2.0 F960.0
G1 X29.67 Y30.71 Z2.0 F960.0
G1 X30.87 Y29.02 Z2.0 F960.0
G1 X31.76 Y27.15 Z2.0 F960.0
G1 X32.31 Y25.16 Z2.0 F960.0
G1 X32.52 Y23.14 Z2.0 F960.0
G1 X32.52 Y1.02 Z2.0 F960.0
G1 X52.48 Y1.02 Z2.0 F960.0
G1 X52.48 Y54.98 Z2.0 F960.0
G1 X13.08 Y54.98 Z2.0 F960.0
M104 S220.0
G1 X12.36 Y55.64 Z2.0 F960.0
G1 X0.36 Y55.64 Z2.0 F960.0
G1 X0.36 Y34.36 Z2.0 F960.0
G1 X20.6 Y34.36 Z2.0 F960.0
G1 X22.54 Y34.16 Z2.0 F960.0
G1 X24.42 Y33.63 Z2.0 F960.0
G1 X26.19 Y32.8 Z2.0 F960.0
G1 X27.78 Y31.67 Z2.0 F960.0
G1 X29.17 Y30.28 Z2.0 F960.0
G1 X30.3 Y28.69 Z2.0 F960.0
G1 X31.13 Y26.92 Z2.0 F960.0
G1 X31.66 Y25.04 Z2.0 F960.0
G1 X31.86 Y23.1 Z2.0 F960.0
G1 X31.86 Y0.36 Z2.0 F960.0
G1 X53.14 Y0.36 Z2.0 F960.0
G1 X53.14 Y55.64 Z2.0 F960.0
G1 X13.08 Y55.64 Z2.0 F960.0
;M103
G1 X10.71 Y46.94 Z2.0 F960.0
;M101
G1 X11.33 Y46.58 Z2.0 F960.0
G1 X11.79 Y46.03 Z2.0 F960.0
G1 X12.03 Y45.36 Z2.0 F960.0
G1 X12.03 Y44.64 Z2.0 F960.0
G1 X11.79 Y43.97 Z2.0 F960.0
G1 X11.33 Y43.42 Z2.0 F960.0
G1 X10.71 Y43.06 Z2.0 F960.0
G1 X10.0 Y42.94 Z2.0 F960.0
G1 X9.3 Y43.06 Z2.0 F960.0
G1 X8.68 Y43.42 Z2.0 F960.0
G1 X8.22 Y43.97 Z2.0 F960.0
G1 X7.97 Y44.64 Z2.0 F960.0
G1 X7.97 Y45.36 Z2.0 F960.0
G1 X8.22 Y46.03 Z2.0 F960.0
G1 X8.68 Y46.58 Z2.0 F960.0
G1 X9.3 Y46.94 Z2.0 F960.0
G1 X10.0 Y47.06 Z2.0 F960.0
;M103
G1 X24.31 Y45.71 Z2.0 F960.0
;M101
G1 X24.67 Y46.33 Z2.0 F960.0
G1 X25.22 Y46.79 Z2.0 F960.0
G1 X25.89 Y47.03 Z2.0 F960.0
G1 X26.61 Y47.03 Z2.0 F960.0
G1 X27.28 Y46.79 Z2.0 F960.0
G1 X27.83 Y46.33 Z2.0 F960.0
G1 X28.19 Y45.71 Z2.0 F960.0
G1 X28.31 Y45.0 Z2.0 F960.0
G1 X28.19 Y44.3 Z2.0 F960.0
G1 X27.83 Y43.68 Z2.0 F960.0
G1 X27.28 Y43.22 Z2.0 F960.0
G1 X26.61 Y42.97 Z2.0 F960.0
G1 X25.89 Y42.97 Z2.0 F960.0
G1 X25.22 Y43.22 Z2.0 F960.0
G1 X24.67 Y43.68 Z2.0 F960.0
G1 X24.31 Y44.3 Z2.0 F960.0
G1 X24.19 Y45.0 Z2.0 F960.0
;M103
G1 X40.47 Y45.36 Z2.0 F960.0
;M101
G1 X40.72 Y46.03 Z2.0 F960.0
G1 X41.18 Y46.58 Z2.0 F960.0
G1 X41.8 Y46.94 Z2.0 F960.0
G1 X42.5 Y47.06 Z2.0 F960.0
G1 X43.21 Y46.94 Z2.0 F960.0
G1 X43.83 Y46.58 Z2.0 F960.0
G1 X44.29 Y46.03 Z2.0 F960.0
G1 X44.53 Y45.36 Z2.0 F960.0
G1 X44.53 Y44.64 Z2.0 F960.0
G1 X44.29 Y43.97 Z2.0 F960.0
G1 X43.83 Y43.42 Z2.0 F960.0
G1 X43.21 Y43.06 Z2.0 F960.0
G1 X42.5 Y42.94 Z2.0 F960.0
G1 X41.8 Y43.06 Z2.0 F960.0
G1 X41.18 Y43.42 Z2.0 F960.0
G1 X40.72 Y43.97 Z2.0 F960.0
G1 X40.47 Y44.64 Z2.0 F960.0
;M103
G1 X40.41 Y31.62 Z2.0 F960.0
;M101
G1 X41.24 Y31.38 Z2.0 F960.0
G1 X42.14 Y30.82 Z2.0 F960.0
G1 X42.61 Y30.27 Z2.0 F960.0
G1 X42.87 Y30.31 Z2.0 F960.0
G1 X43.18 Y30.59 Z2.0 F960.0
G1 X43.63 Y30.88 Z2.0 F960.0
G1 X44.59 Y31.19 Z2.0 F960.0
G1 X45.76 Y31.19 Z2.0 F960.0
G1 X46.79 Y30.87 Z2.0 F960.0
G1 X47.33 Y30.54 Z2.0 F960.0
G1 X48.02 Y29.88 Z2.0 F960.0
G1 X48.5 Y29.01 Z2.0 F960.0
G1 X48.62 Y28.53 Z2.0 F960.0
G1 X48.65 Y27.63 Z2.0 F960.0
G1 X48.4 Y26.64 Z2.0 F960.0
G1 X47.84 Y25.79 Z2.0 F960.0
G1 X47.09 Y25.16 Z2.0 F960.0
G1 X45.97 Y24.68 Z2.0 F960.0
G1 X44.78 Y24.52 Z2.0 F960.0
G1 X44.72 Y26.97 Z2.0 F960.0
G1 X45.22 Y27.16 Z2.0 F960.0
G1 X45.5 Y27.36 Z2.0 F960.0
G1 X45.7 Y27.61 Z2.0 F960.0
G1 X45.78 Y27.82 Z2.0 F960.0
G1 X45.76 Y28.18 Z2.0 F960.0
G1 X45.67 Y28.37 Z2.0 F960.0
G1 X45.52 Y28.52 Z2.0 F960.0
G1 X45.32 Y28.62 Z2.0 F960.0
G1 X45.02 Y28.67 Z2.0 F960.0
G1 X44.81 Y28.64 Z2.0 F960.0
G1 X44.54 Y28.52 Z2.0 F960.0
G1 X44.29 Y28.32 Z2.0 F960.0
G1 X44.09 Y27.99 Z2.0 F960.0
G1 X43.85 Y26.67 Z2.0 F960.0
G1 X41.22 Y26.67 Z2.0 F960.0
G1 X41.07 Y27.87 Z2.0 F960.0
G1 X40.83 Y28.44 Z2.0 F960.0
G1 X40.29 Y28.96 Z2.0 F960.0
G1 X39.86 Y29.11 Z2.0 F960.0
G1 X39.15 Y29.07 Z2.0 F960.0
G1 X38.76 Y28.89 Z2.0 F960.0
G1 X38.43 Y28.59 Z2.0 F960.0
G1 X38.27 Y28.28 Z2.0 F960.0
G1 X38.21 Y27.92 Z2.0 F960.0
G1 X38.31 Y27.41 Z2.0 F960.0
G1 X38.5 Y27.13 Z2.0 F960.0
G1 X38.78 Y26.91 Z2.0 F960.0
G1 X39.36 Y26.69 Z2.0 F960.0
G1 X40.05 Y26.56 Z2.0 F960.0
G1 X40.01 Y24.06 Z2.0 F960.0
G1 X38.79 Y24.15 Z2.0 F960.0
G1 X37.39 Y24.59 Z2.0 F960.0
G1 X36.83 Y24.92 Z2.0 F960.0
G1 X36.34 Y25.32 Z2.0 F960.0
G1 X35.7 Y26.19 Z2.0 F960.0
G1 X35.38 Y27.17 Z2.0 F960.0
G1 X35.33 Y27.8 Z2.0 F960.0
G1 X35.38 Y28.45 Z2.0 F960.0
G1 X35.7 Y29.48 Z2.0 F960.0
G1 X36.02 Y30.01 Z2.0 F960.0
G1 X36.89 Y30.86 Z2.0 F960.0
G1 X37.44 Y31.2 Z2.0 F960.0
G1 X38.12 Y31.49 Z2.0 F960.0
G1 X38.82 Y31.65 Z2.0 F960.0
G1 X39.7 Y31.67 Z2.0 F960.0
;M103
M104 S195.0
G1 X38.46 Y23.79 Z2.0 F960.0
;M101
G1 X38.56 Y23.7 Z2.0 F960.0
G1 X38.75 Y23.35 Z2.0 F960.0
G1 X38.83 Y22.91 Z2.0 F960.0
G1 X38.75 Y22.47 Z2.0 F960.0
G1 X38.54 Y22.1 Z2.0 F960.0
G1 X38.21 Y21.78 Z2.0 F960.0
G1 X37.73 Y21.55 Z2.0 F960.0
G1 X37.45 Y21.51 Z2.0 F960.0
G1 X37.41 Y21.4 Z2.0 F960.0
G1 X41.32 Y19.65 Z2.0 F960.0
G1 X41.59 Y20.13 Z2.0 F960.0
G1 X41.93 Y20.51 Z2.0 F960.0
G1 X42.3 Y20.82 Z2.0 F960.0
G1 X42.78 Y21.09 Z2.0 F960.0
G1 X43.29 Y21.28 Z2.0 F960.0
G1 X43.92 Y21.41 Z2.0 F960.0
G1 X44.59 Y21.45 Z2.0 F960.0
G1 X45.47 Y21.38 Z2.0 F960.0
G1 X46.06 Y21.24 Z2.0 F960.0
G1 X46.6 Y21.01 Z2.0 F960.0
G1 X47.04 Y20.75 Z2.0 F960.0
G1 X47.41 Y20.45 Z2.0 F960.0
G1 X47.72 Y20.1 Z2.0 F960.0
G1 X47.94 Y19.75 Z2.0 F960.0
G1 X48.1 Y19.38 Z2.0 F960.0
G1 X48.26 Y18.7 Z2.0 F960.0
G1 X48.36 Y14.74 Z2.0 F960.0
G1 X35.64 Y14.73 Z2.0 F960.0
G1 X35.64 Y17.3 Z2.0 F960.0
G1 X39.91 Y17.3 Z2.0 F960.0
G1 X39.93 Y17.4 Z2.0 F960.0
G1 X35.64 Y19.31 Z2.0 F960.0
G1 X35.64 Y21.67 Z2.0 F960.0
G1 X35.75 Y22.13 Z2.0 F960.0
G1 X35.56 Y22.47 Z2.0 F960.0
G1 X35.48 Y22.91 Z2.0 F960.0
G1 X35.56 Y23.36 Z2.0 F960.0
G1 X35.76 Y23.71 Z2.0 F960.0
G1 X36.11 Y24.03 Z2.0 F960.0
G1 X36.59 Y24.27 Z2.0 F960.0
G1 X36.99 Y24.32 Z2.0 F960.0
;M103
M104 S220.0
G1 X43.83 Y18.35 Z2.0 F960.0
;M101
G1 X43.75 Y17.29 Z2.0 F960.0
G1 X45.49 Y17.3 Z2.0 F960.0
G1 X45.39 Y18.42 Z2.0 F960.0
G1 X45.3 Y18.59 Z2.0 F960.0
G1 X45.15 Y18.74 Z2.0 F960.0
G1 X44.93 Y18.84 Z2.0 F960.0
G1 X44.62 Y18.88 Z2.0 F960.0
G1 X44.29 Y18.84 Z2.0 F960.0
;M103
M104 S195.0
G1 X38.49 Y14.31 Z2.0 F960.0
;M101
G1 X48.36 Y12.88 Z2.0 F960.0
G1 X48.36 Y10.34 Z2.0 F960.0
G1 X41.24 Y8.48 Z2.0 F960.0
G1 X41.24 Y8.38 Z2.0 F960.0
G1 X48.36 Y6.52 Z2.0 F960.0
G1 X48.36 Y3.98 Z2.0 F960.0
G1 X35.69 Y2.15 Z2.0 F960.0
G1 X35.64 Y4.69 Z2.0 F960.0
G1 X41.59 Y5.58 Z2.0 F960.0
G1 X41.6 Y5.65 Z2.0 F960.0
G1 X35.64 Y7.21 Z2.0 F960.0
G1 X35.64 Y9.65 Z2.0 F960.0
G1 X41.6 Y11.21 Z2.0 F960.0
G1 X41.59 Y11.29 Z2.0 F960.0
G1 X35.64 Y12.17 Z2.0 F960.0
G1 X35.68 Y14.3 Z2.0 F960.0
;M103
G1 X34.37 Y23.34 Z2.0 F960.0
;M101
G1 X33.03 Y22.0 Z2.0 F960.0
G1 X33.03 Y21.15 Z2.0 F960.0
G1 X34.35 Y22.48 Z2.0 F960.0
G1 X34.46 Y21.73 Z2.0 F960.0
G1 X33.03 Y20.3 Z2.0 F960.0
G1 X33.03 Y19.45 Z2.0 F960.0
G1 X34.47 Y20.89 Z2.0 F960.0
G1 X34.47 Y20.05 Z2.0 F960.0
G1 X33.03 Y18.61 Z2.0 F960.0
G1 X33.03 Y17.76 Z2.0 F960.0
G1 X34.47 Y19.2 Z2.0 F960.0
G1 X34.47 Y18.35 Z2.0 F960.0
G1 X33.03 Y16.91 Z2.0 F960.0
G1 X33.03 Y16.06 Z2.0 F960.0
G1 X34.47 Y17.5 Z2.0 F960.0
G1 X34.47 Y16.65 Z2.0 F960.0
G1 X33.03 Y15.21 Z2.0 F960.0
G1 X33.03 Y14.36 Z2.0 F960.0
G1 X34.47 Y15.8 Z2.0 F960.0
G1 X34.47 Y14.95 Z2.0 F960.0
G1 X33.03 Y13.51 Z2.0 F960.0
G1 X33.03 Y12.67 Z2.0 F960.0
G1 X34.47 Y14.11 Z2.0 F960.0
G1 X34.47 Y13.26 Z2.0 F960.0
G1 X33.03 Y11.82 Z2.0 F960.0
G1 X33.03 Y10.97 Z2.0 F960.0
G1 X34.47 Y12.41 Z2.0 F960.0
G1 X34.47 Y11.56 Z2.0 F960.0
G1 X33.03 Y10.12 Z2.0 F960.0
G1 X33.03 Y9.27 Z2.0 F960.0
G1 X34.86 Y11.1 Z2.0 F960.0
G1 X35.4 Y10.79 Z2.0 F960.0
G1 X35.6 Y10.99 Z2.0 F960.0
;M103
G1 X34.47 Y9.86 Z2.0 F960.0
;M101
G1 X33.03 Y8.42 Z2.0 F960.0
G1 X33.03 Y7.57 Z2.0 F960.0
G1 X34.47 Y9.01 Z2.0 F960.0
G1 X34.47 Y8.17 Z2.0 F960.0
G1 X33.03 Y6.73 Z2.0 F960.0
G1 X33.03 Y5.88 Z2.0 F960.0
G1 X34.47 Y7.32 Z2.0 F960.0
G1 X34.47 Y6.47 Z2.0 F960.0
G1 X33.03 Y5.03 Z2.0 F960.0
G1 X33.03 Y4.18 Z2.0 F960.0
G1 X35.01 Y6.16 Z2.0 F960.0
G1 X35.56 Y5.86 Z2.0 F960.0
G1 X35.69 Y5.99 Z2.0 F960.0
;M103
G1 X34.48 Y4.78 Z2.0 F960.0
;M101
G1 X33.03 Y3.33 Z2.0 F960.0
G1 X33.03 Y2.48 Z2.0 F960.0
G1 X34.54 Y3.99 Z2.0 F960.0
G1 X34.59 Y3.2 Z2.0 F960.0
G1 X33.03 Y1.63 Z2.0 F960.0
G1 X33.77 Y1.53 Z2.0 F960.0
G1 X34.65 Y2.4 Z2.0 F960.0
G1 X34.7 Y1.61 Z2.0 F960.0
G1 X34.62 Y1.53 Z2.0 F960.0
;M103
G1 X38.87 Y1.53 Z2.0 F960.0
;M101
G1 X38.89 Y1.55 Z2.0 F960.0
G1 X39.71 Y1.53 Z2.0 F960.0
G1 X39.87 Y1.68 Z2.0 F960.0
G1 X40.56 Y1.53 Z2.0 F960.0
G1 X40.85 Y1.81 Z2.0 F960.0
G1 X41.41 Y1.53 Z2.0 F960.0
G1 X41.82 Y1.94 Z2.0 F960.0
G1 X42.26 Y1.53 Z2.0 F960.0
G1 X42.8 Y2.07 Z2.0 F960.0
G1 X43.11 Y1.53 Z2.0 F960.0
G1 X43.78 Y2.2 Z2.0 F960.0
G1 X43.96 Y1.53 Z2.0 F960.0
G1 X44.76 Y2.33 Z2.0 F960.0
G1 X44.81 Y1.53 Z2.0 F960.0
G1 X45.74 Y2.46 Z2.0 F960.0
G1 X45.65 Y1.53 Z2.0 F960.0
G1 X46.71 Y2.59 Z2.0 F960.0
G1 X47.69 Y2.72 Z2.0 F960.0
G1 X46.5 Y1.53 Z2.0 F960.0
G1 X47.35 Y1.53 Z2.0 F960.0
G1 X48.67 Y2.85 Z2.0 F960.0
;M103
G1 X51.59 Y1.53 Z2.0 F960.0
;M101
G1 X51.97 Y1.91 Z2.0 F960.0
G1 X51.97 Y2.76 Z2.0 F960.0
G1 X50.75 Y1.53 Z2.0 F960.0
G1 X49.9 Y1.53 Z2.0 F960.0
G1 X51.97 Y3.6 Z2.0 F960.0
G1 X51.97 Y4.45 Z2.0 F960.0
G1 X49.05 Y1.53 Z2.0 F960.0
G1 X48.2 Y1.53 Z2.0 F960.0
G1 X51.97 Y5.3 Z2.0 F960.0
G1 X51.97 Y6.15 Z2.0 F960.0
G1 X49.53 Y3.71 Z2.0 F960.0
G1 X49.53 Y4.56 Z2.0 F960.0
G1 X51.97 Y7.0 Z2.0 F960.0
G1 X51.97 Y7.85 Z2.0 F960.0
G1 X49.53 Y5.41 Z2.0 F960.0
G1 X49.53 Y6.26 Z2.0 F960.0
G1 X51.97 Y8.7 Z2.0 F960.0
G1 X51.97 Y9.54 Z2.0 F960.0
G1 X49.53 Y7.1 Z2.0 F960.0
G1 X49.11 Y7.54 Z2.0 F960.0
G1 X51.97 Y10.39 Z2.0 F960.0
G1 X51.97 Y11.24 Z2.0 F960.0
G1 X48.44 Y7.71 Z2.0 F960.0
G1 X47.77 Y7.89 Z2.0 F960.0
G1 X51.97 Y12.09 Z2.0 F960.0
G1 X51.97 Y12.94 Z2.0 F960.0
G1 X49.52 Y10.49 Z2.0 F960.0
G1 X49.51 Y11.33 Z2.0 F960.0
G1 X51.97 Y13.79 Z2.0 F960.0
G1 X51.97 Y14.64 Z2.0 F960.0
G1 X49.5 Y12.17 Z2.0 F960.0
G1 X49.49 Y13.0 Z2.0 F960.0
G1 X51.97 Y15.48 Z2.0 F960.0
G1 X51.97 Y16.33 Z2.0 F960.0
G1 X49.48 Y13.84 Z2.0 F960.0
G1 X49.47 Y14.68 Z2.0 F960.0
G1 X51.97 Y17.18 Z2.0 F960.0
G1 X51.97 Y18.03 Z2.0 F960.0
G1 X49.46 Y15.52 Z2.0 F960.0
G1 X49.45 Y16.36 Z2.0 F960.0
G1 X51.97 Y18.88 Z2.0 F960.0
G1 X51.97 Y19.73 Z2.0 F960.0
G1 X49.44 Y17.2 Z2.0 F960.0
G1 X49.44 Y18.04 Z2.0 F960.0
G1 X51.97 Y20.57 Z2.0 F960.0
G1 X51.97 Y21.42 Z2.0 F960.0
G1 X49.42 Y18.87 Z2.0 F960.0
G1 X49.26 Y19.56 Z2.0 F960.0
G1 X51.97 Y22.27 Z2.0 F960.0
G1 X51.97 Y23.12 Z2.0 F960.0
G1 X49.03 Y20.18 Z2.0 F960.0
G1 X48.72 Y20.71 Z2.0 F960.0
G1 X51.97 Y23.97 Z2.0 F960.0
G1 X51.97 Y24.82 Z2.0 F960.0
G1 X48.33 Y21.18 Z2.0 F960.0
G1 X47.88 Y21.58 Z2.0 F960.0
G1 X51.97 Y25.67 Z2.0 F960.0
G1 X51.97 Y26.51 Z2.0 F960.0
G1 X47.37 Y21.92 Z2.0 F960.0
G1 X46.8 Y22.2 Z2.0 F960.0
G1 X51.97 Y27.36 Z2.0 F960.0
G1 X51.97 Y28.21 Z2.0 F960.0
G1 X46.17 Y22.41 Z2.0 F960.0
G1 X45.47 Y22.56 Z2.0 F960.0
G1 X46.55 Y23.64 Z2.0 F960.0
G1 X45.53 Y23.47 Z2.0 F960.0
G1 X44.68 Y22.62 Z2.0 F960.0
G1 X44.6 Y23.39 Z2.0 F960.0
G1 X43.79 Y22.58 Z2.0 F960.0
G1 X43.75 Y23.39 Z2.0 F960.0
G1 X42.66 Y22.3 Z2.0 F960.0
G1 X40.87 Y21.36 Z2.0 F960.0
;M103
G1 X42.3 Y22.79 Z2.0 F960.0
;M101
G1 X43.69 Y24.18 Z2.0 F960.0
G1 X43.64 Y24.97 Z2.0 F960.0
G1 X40.13 Y21.46 Z2.0 F960.0
G1 X39.85 Y22.03 Z2.0 F960.0
G1 X43.32 Y25.5 Z2.0 F960.0
G1 X42.47 Y25.5 Z2.0 F960.0
G1 X41.17 Y24.2 Z2.0 F960.0
G1 X41.19 Y25.07 Z2.0 F960.0
G1 X41.62 Y25.5 Z2.0 F960.0
;M103
G1 X42.87 Y31.84 Z2.0 F960.0
;M101
G1 X51.97 Y40.94 Z2.0 F960.0
G1 X51.97 Y40.09 Z2.0 F960.0
G1 X44.18 Y32.3 Z2.0 F960.0
G1 X45.14 Y32.41 Z2.0 F960.0
G1 X51.97 Y39.24 Z2.0 F960.0
G1 X51.97 Y38.39 Z2.0 F960.0
G1 X45.93 Y32.35 Z2.0 F960.0
G1 X46.62 Y32.2 Z2.0 F960.0
G1 X51.97 Y37.55 Z2.0 F960.0
G1 X51.97 Y36.7 Z2.0 F960.0
G1 X47.23 Y31.96 Z2.0 F960.0
G1 X47.77 Y31.65 Z2.0 F960.0
G1 X51.97 Y35.85 Z2.0 F960.0
G1 X51.97 Y35.0 Z2.0 F960.0
G1 X48.25 Y31.28 Z2.0 F960.0
G1 X48.69 Y30.87 Z2.0 F960.0
G1 X51.97 Y34.15 Z2.0 F960.0
G1 X51.97 Y33.3 Z2.0 F960.0
G1 X49.08 Y30.41 Z2.0 F960.0
G1 X49.4 Y29.88 Z2.0 F960.0
G1 X51.97 Y32.45 Z2.0 F960.0
G1 X51.97 Y31.61 Z2.0 F960.0
G1 X49.61 Y29.25 Z2.0 F960.0
G1 X49.79 Y28.58 Z2.0 F960.0
G1 X51.97 Y30.76 Z2.0 F960.0
G1 X51.97 Y29.91 Z2.0 F960.0
G1 X49.82 Y27.76 Z2.0 F960.0
G1 X49.68 Y26.77 Z2.0 F960.0
G1 X51.97 Y29.06 Z2.0 F960.0
;M103
G1 X42.29 Y32.1 Z2.0 F960.0
;M101
G1 X51.97 Y41.79 Z2.0 F960.0
G1 X51.97 Y42.64 Z2.0 F960.0
G1 X41.76 Y32.42 Z2.0 F960.0
G1 X41.14 Y32.65 Z2.0 F960.0
G1 X51.97 Y43.49 Z2.0 F960.0
G1 X51.97 Y44.33 Z2.0 F960.0
G1 X40.44 Y32.8 Z2.0 F960.0
G1 X39.63 Y32.84 Z2.0 F960.0
G1 X51.97 Y45.18 Z2.0 F960.0
G1 X51.97 Y46.03 Z2.0 F960.0
G1 X38.75 Y32.82 Z2.0 F960.0
G1 X37.65 Y32.56 Z2.0 F960.0
G1 X51.97 Y46.88 Z2.0 F960.0
G1 X51.97 Y47.73 Z2.0 F960.0
G1 X32.02 Y27.78 Z2.0 F960.0
G1 X31.75 Y28.35 Z2.0 F960.0
G1 X51.97 Y48.58 Z2.0 F960.0
G1 X51.97 Y49.42 Z2.0 F960.0
G1 X31.48 Y28.93 Z2.0 F960.0
G1 X31.17 Y29.47 Z2.0 F960.0
G1 X43.7 Y42.0 Z2.0 F960.0
G1 X42.62 Y41.78 Z2.0 F960.0
G1 X30.82 Y29.97 Z2.0 F960.0
G1 X30.47 Y30.47 Z2.0 F960.0
G1 X41.84 Y41.84 Z2.0 F960.0
G1 X41.2 Y42.05 Z2.0 F960.0
G1 X30.12 Y30.97 Z2.0 F960.0
G1 X29.7 Y31.4 Z2.0 F960.0
G1 X40.66 Y42.36 Z2.0 F960.0
G1 X40.2 Y42.74 Z2.0 F960.0
G1 X29.28 Y31.83 Z2.0 F960.0
G1 X28.86 Y32.25 Z2.0 F960.0
G1 X39.82 Y43.21 Z2.0 F960.0
G1 X39.52 Y43.76 Z2.0 F960.0
G1 X28.41 Y32.66 Z2.0 F960.0
G1 X27.92 Y33.01 Z2.0 F960.0
G1 X39.32 Y44.41 Z2.0 F960.0
G1 X39.28 Y45.22 Z2.0 F960.0
G1 X27.42 Y33.36 Z2.0 F960.0
G1 X26.92 Y33.71 Z2.0 F960.0
G1 X39.58 Y46.37 Z2.0 F960.0
;M103
G1 X41.13 Y47.92 Z2.0 F960.0
;M101
G1 X47.68 Y54.47 Z2.0 F960.0
G1 X48.53 Y54.47 Z2.0 F960.0
G1 X42.28 Y48.22 Z2.0 F960.0
G1 X43.09 Y48.18 Z2.0 F960.0
G1 X49.38 Y54.47 Z2.0 F960.0
G1 X50.23 Y54.47 Z2.0 F960.0
G1 X43.74 Y47.98 Z2.0 F960.0
G1 X44.29 Y47.68 Z2.0 F960.0
G1 X51.08 Y54.47 Z2.0 F960.0
G1 X51.92 Y54.47 Z2.0 F960.0
G1 X44.76 Y47.3 Z2.0 F960.0
G1 X45.15 Y46.84 Z2.0 F960.0
G1 X51.97 Y53.67 Z2.0 F960.0
G1 X51.97 Y52.82 Z2.0 F960.0
G1 X45.45 Y46.3 Z2.0 F960.0
G1 X45.66 Y45.66 Z2.0 F960.0
G1 X51.97 Y51.97 Z2.0 F960.0
G1 X51.97 Y51.12 Z2.0 F960.0
G1 X45.73 Y44.88 Z2.0 F960.0
G1 X45.5 Y43.8 Z2.0 F960.0
G1 X51.97 Y50.27 Z2.0 F960.0
;M103
G1 X46.83 Y54.47 Z2.0 F960.0
;M101
G1 X26.37 Y34.0 Z2.0 F960.0
G1 X25.79 Y34.28 Z2.0 F960.0
G1 X45.99 Y54.47 Z2.0 F960.0
G1 X45.14 Y54.47 Z2.0 F960.0
G1 X25.22 Y34.55 Z2.0 F960.0
G1 X24.61 Y34.8 Z2.0 F960.0
G1 X44.29 Y54.47 Z2.0 F960.0
G1 X43.44 Y54.47 Z2.0 F960.0
G1 X23.95 Y34.98 Z2.0 F960.0
G1 X23.29 Y35.17 Z2.0 F960.0
G1 X42.59 Y54.47 Z2.0 F960.0
G1 X41.74 Y54.47 Z2.0 F960.0
G1 X22.6 Y35.33 Z2.0 F960.0
G1 X21.83 Y35.41 Z2.0 F960.0
G1 X40.89 Y54.47 Z2.0 F960.0
G1 X40.05 Y54.47 Z2.0 F960.0
G1 X29.14 Y43.56 Z2.0 F960.0
G1 X29.46 Y44.74 Z2.0 F960.0
G1 X39.2 Y54.47 Z2.0 F960.0
G1 X38.35 Y54.47 Z2.0 F960.0
G1 X29.44 Y45.56 Z2.0 F960.0
G1 X29.24 Y46.21 Z2.0 F960.0
G1 X37.5 Y54.47 Z2.0 F960.0
G1 X36.65 Y54.47 Z2.0 F960.0
G1 X28.95 Y46.77 Z2.0 F960.0
G1 X28.57 Y47.24 Z2.0 F960.0
G1 X35.8 Y54.47 Z2.0 F960.0
G1 X34.95 Y54.47 Z2.0 F960.0
G1 X28.11 Y47.63 Z2.0 F960.0
G1 X27.57 Y47.94 Z2.0 F960.0
G1 X34.1 Y54.47 Z2.0 F960.0
G1 X33.26 Y54.47 Z2.0 F960.0
G1 X26.94 Y48.15 Z2.0 F960.0
G1 X26.17 Y48.23 Z2.0 F960.0
G1 X32.41 Y54.47 Z2.0 F960.0
G1 X31.56 Y54.47 Z2.0 F960.0
G1 X25.12 Y48.03 Z2.0 F960.0
;M103
G1 X23.22 Y46.13 Z2.0 F960.0
;M101
G1 X12.62 Y35.53 Z2.0 F960.0
G1 X11.77 Y35.53 Z2.0 F960.0
G1 X30.71 Y54.47 Z2.0 F960.0
G1 X29.86 Y54.47 Z2.0 F960.0
G1 X10.92 Y35.53 Z2.0 F960.0
G1 X10.07 Y35.53 Z2.0 F960.0
G1 X29.01 Y54.47 Z2.0 F960.0
G1 X28.17 Y54.47 Z2.0 F960.0
G1 X9.23 Y35.53 Z2.0 F960.0
G1 X8.38 Y35.53 Z2.0 F960.0
G1 X27.32 Y54.47 Z2.0 F960.0
G1 X26.47 Y54.47 Z2.0 F960.0
G1 X7.53 Y35.53 Z2.0 F960.0
G1 X6.68 Y35.53 Z2.0 F960.0
G1 X25.62 Y54.47 Z2.0 F960.0
G1 X24.77 Y54.47 Z2.0 F960.0
G1 X5.83 Y35.53 Z2.0 F960.0
G1 X4.98 Y35.53 Z2.0 F960.0
G1 X11.73 Y42.28 Z2.0 F960.0
;M103
G1 X10.4 Y41.8 Z2.0 F960.0
;M101
G1 X4.13 Y35.53 Z2.0 F960.0
G1 X3.29 Y35.53 Z2.0 F960.0
G1 X9.56 Y41.8 Z2.0 F960.0
G1 X8.88 Y41.97 Z2.0 F960.0
G1 X2.44 Y35.53 Z2.0 F960.0
G1 X1.59 Y35.53 Z2.0 F960.0
G1 X8.31 Y42.25 Z2.0 F960.0
G1 X7.83 Y42.62 Z2.0 F960.0
G1 X1.53 Y36.32 Z2.0 F960.0
G1 X1.53 Y37.17 Z2.0 F960.0
G1 X7.42 Y43.06 Z2.0 F960.0
G1 X7.1 Y43.59 Z2.0 F960.0
G1 X1.53 Y38.02 Z2.0 F960.0
G1 X1.53 Y38.87 Z2.0 F960.0
G1 X6.88 Y44.21 Z2.0 F960.0
G1 X6.77 Y44.95 Z2.0 F960.0
G1 X1.53 Y39.71 Z2.0 F960.0
G1 X1.53 Y40.56 Z2.0 F960.0
G1 X6.92 Y45.95 Z2.0 F960.0
;M103
G1 X1.86 Y54.47 Z2.0 F960.0
;M101
G1 X1.53 Y54.14 Z2.0 F960.0
G1 X1.53 Y53.29 Z2.0 F960.0
G1 X2.71 Y54.47 Z2.0 F960.0
G1 X3.56 Y54.47 Z2.0 F960.0
G1 X1.53 Y52.44 Z2.0 F960.0
G1 X1.53 Y51.59 Z2.0 F960.0
G1 X4.41 Y54.47 Z2.0 F960.0
G1 X5.26 Y54.47 Z2.0 F960.0
G1 X1.53 Y50.75 Z2.0 F960.0
G1 X1.53 Y49.9 Z2.0 F960.0
G1 X6.1 Y54.47 Z2.0 F960.0
G1 X6.95 Y54.47 Z2.0 F960.0
G1 X1.53 Y49.05 Z2.0 F960.0
G1 X1.53 Y48.2 Z2.0 F960.0
G1 X7.8 Y54.47 Z2.0 F960.0
G1 X8.65 Y54.47 Z2.0 F960.0
G1 X1.53 Y47.35 Z2.0 F960.0
G1 X1.53 Y46.5 Z2.0 F960.0
G1 X9.5 Y54.47 Z2.0 F960.0
G1 X10.35 Y54.47 Z2.0 F960.0
G1 X1.53 Y45.65 Z2.0 F960.0
G1 X1.53 Y44.81 Z2.0 F960.0
G1 X11.2 Y54.47 Z2.0 F960.0
G1 X12.04 Y54.47 Z2.0 F960.0
G1 X1.53 Y43.96 Z2.0 F960.0
G1 X1.53 Y43.11 Z2.0 F960.0
G1 X12.89 Y54.47 Z2.0 F960.0
G1 X13.74 Y54.47 Z2.0 F960.0
G1 X1.53 Y42.26 Z2.0 F960.0
G1 X1.53 Y41.41 Z2.0 F960.0
G1 X14.59 Y54.47 Z2.0 F960.0
G1 X15.44 Y54.47 Z2.0 F960.0
G1 X9.05 Y48.08 Z2.0 F960.0
G1 X10.05 Y48.23 Z2.0 F960.0
G1 X16.29 Y54.47 Z2.0 F960.0
G1 X17.14 Y54.47 Z2.0 F960.0
G1 X10.79 Y48.13 Z2.0 F960.0
G1 X11.41 Y47.9 Z2.0 F960.0
G1 X17.98 Y54.47 Z2.0 F960.0
G1 X18.83 Y54.47 Z2.0 F960.0
G1 X11.94 Y47.58 Z2.0 F960.0
G1 X12.39 Y47.17 Z2.0 F960.0
G1 X19.68 Y54.47 Z2.0 F960.0
G1 X20.53 Y54.47 Z2.0 F960.0
G1 X12.75 Y46.69 Z2.0 F960.0
G1 X13.03 Y46.12 Z2.0 F960.0
G1 X21.38 Y54.47 Z2.0 F960.0
G1 X22.23 Y54.47 Z2.0 F960.0
G1 X13.2 Y45.44 Z2.0 F960.0
G1 X13.2 Y44.6 Z2.0 F960.0
G1 X23.07 Y54.47 Z2.0 F960.0
G1 X23.92 Y54.47 Z2.0 F960.0
G1 X12.73 Y43.27 Z2.0 F960.0
;M103
G1 X13.47 Y35.53 Z2.0 F960.0
;M101
G1 X23.02 Y45.08 Z2.0 F960.0
G1 X23.1 Y44.31 Z2.0 F960.0
G1 X14.32 Y35.53 Z2.0 F960.0
G1 X15.17 Y35.53 Z2.0 F960.0
G1 X23.31 Y43.68 Z2.0 F960.0
G1 X23.62 Y43.14 Z2.0 F960.0
G1 X16.01 Y35.53 Z2.0 F960.0
G1 X16.86 Y35.53 Z2.0 F960.0
G1 X24.01 Y42.68 Z2.0 F960.0
G1 X24.48 Y42.3 Z2.0 F960.0
G1 X17.71 Y35.53 Z2.0 F960.0
G1 X18.56 Y35.53 Z2.0 F960.0
G1 X25.04 Y42.01 Z2.0 F960.0
G1 X25.69 Y41.81 Z2.0 F960.0
G1 X19.41 Y35.53 Z2.0 F960.0
G1 X20.26 Y35.53 Z2.0 F960.0
G1 X26.51 Y41.79 Z2.0 F960.0
G1 X27.69 Y42.12 Z2.0 F960.0
G1 X21.06 Y35.49 Z2.0 F960.0
;M103
G1 X32.28 Y27.18 Z2.0 F960.0
;M101
G1 X34.37 Y29.28 Z2.0 F960.0
G1 X34.19 Y28.25 Z2.0 F960.0
G1 X32.46 Y26.52 Z2.0 F960.0
G1 X32.65 Y25.86 Z2.0 F960.0
G1 X34.19 Y27.4 Z2.0 F960.0
G1 X34.3 Y26.66 Z2.0 F960.0
G1 X32.82 Y25.19 Z2.0 F960.0
G1 X32.9 Y24.42 Z2.0 F960.0
G1 X34.5 Y26.02 Z2.0 F960.0
G1 X34.79 Y25.46 Z2.0 F960.0
G1 X32.98 Y23.65 Z2.0 F960.0
G1 X33.03 Y22.85 Z2.0 F960.0
G1 X35.1 Y24.92 Z2.0 F960.0
;M103
G1 X47.1 Y8.06 Z2.0 F960.0
;M101
G1 X48.1 Y9.06 Z2.0 F960.0
G1 X46.95 Y8.76 Z2.0 F960.0
G1 X46.42 Y8.24 Z2.0 F960.0
G1 X45.8 Y8.46 Z2.0 F960.0
G1 X45.75 Y8.41 Z2.0 F960.0
;M103
M104 S230.0
G1 X52.78 Y8.41 Z2.4 F480.0
G1 X52.78 Y55.28 Z2.4 F480.0
G1 X0.72 Y55.28 Z2.4 F480.0
G1 X0.72 Y34.72 Z2.4 F480.0
G1 X20.62 Y34.72 Z2.4 F480.0
G1 X22.6 Y34.52 Z2.4 F480.0
G1 X24.55 Y33.97 Z2.4 F480.0
G1 X26.37 Y33.11 Z2.4 F480.0
G1 X28.02 Y31.94 Z2.4 F480.0
G1 X29.44 Y30.52 Z2.4 F480.0
G1 X30.61 Y28.87 Z2.4 F480.0
G1 X31.47 Y27.05 Z2.4 F480.0
G1 X32.02 Y25.1 Z2.4 F480.0
G1 X32.22 Y23.12 Z2.4 F480.0
G1 X32.22 Y0.72 Z2.4 F480.0
G1 X52.78 Y0.72 Z2.4 F480.0
G1 X39.63 Y27.34 Z2.4 F960.0
;M101
G1 X39.85 Y27.27 Z2.4 F960.0
G1 X40.33 Y27.93 Z2.4 F960.0
G1 X40.26 Y28.1 Z2.4 F960.0
G1 X39.96 Y28.37 Z2.4 F960.0
G1 X39.62 Y28.47 Z2.4 F960.0
G1 X39.33 Y28.43 Z2.4 F960.0
G1 X39.13 Y28.34 Z2.4 F960.0
G1 X38.96 Y28.18 Z2.4 F960.0
G1 X38.9 Y28.07 Z2.4 F960.0
G1 X38.88 Y27.93 Z2.4 F960.0
G1 X38.93 Y27.68 Z2.4 F960.0
G1 X38.98 Y27.62 Z2.4 F960.0
;M103
G1 X40.69 Y25.65 Z2.4 F960.0
;M101
G1 X40.65 Y23.74 Z2.4 F960.0
G1 X39.45 Y22.61 Z2.4 F960.0
G1 X39.38 Y22.24 Z2.4 F960.0
G1 X39.07 Y21.69 Z2.4 F960.0
G1 X38.85 Y21.48 Z2.4 F960.0
G1 X40.08 Y20.93 Z2.4 F960.0
G1 X41.3 Y20.8 Z2.4 F960.0
G1 X41.92 Y21.36 Z2.4 F960.0
G1 X42.49 Y21.69 Z2.4 F960.0
G1 X43.1 Y21.92 Z2.4 F960.0
G1 X43.83 Y22.07 Z2.4 F960.0
G1 X44.6 Y22.11 Z2.4 F960.0
G1 X45.57 Y22.04 Z2.4 F960.0
G1 X46.27 Y21.87 Z2.4 F960.0
G1 X47.42 Y21.29 Z2.4 F960.0
G1 X48.25 Y20.5 Z2.4 F960.0
G1 X48.73 Y19.59 Z2.4 F960.0
G1 X48.92 Y18.79 Z2.4 F960.0
G1 X49.02 Y14.1 Z2.4 F960.0
G1 X47.51 Y14.09 Z2.4 F960.0
G1 X47.52 Y13.67 Z2.4 F960.0
G1 X49.02 Y13.45 Z2.4 F960.0
G1 X49.02 Y9.83 Z2.4 F960.0
G1 X44.83 Y8.74 Z2.4 F960.0
G1 X44.83 Y8.13 Z2.4 F960.0
G1 X49.02 Y7.03 Z2.4 F960.0
G1 X49.02 Y3.41 Z2.4 F960.0
G1 X35.19 Y1.54 Z2.4 F960.0
G1 X34.95 Y5.26 Z2.4 F960.0
G1 X37.43 Y5.62 Z2.4 F960.0
G1 X37.44 Y6.06 Z2.4 F960.0
G1 X34.98 Y6.7 Z2.4 F960.0
G1 X34.98 Y10.15 Z2.4 F960.0
G1 X37.44 Y10.8 Z2.4 F960.0
G1 X37.43 Y11.24 Z2.4 F960.0
G1 X34.98 Y11.6 Z2.4 F960.0
G1 X34.98 Y17.96 Z2.4 F960.0
G1 X36.49 Y17.9 Z2.4 F960.0
G1 X36.4 Y18.25 Z2.4 F960.0
G1 X34.99 Y18.88 Z2.4 F960.0
G1 X34.94 Y22.28 Z2.4 F960.0
G1 X34.82 Y22.91 Z2.4 F960.0
G1 X34.87 Y23.37 Z2.4 F960.0
G1 X35.07 Y23.87 Z2.4 F960.0
G1 X35.47 Y24.37 Z2.4 F960.0
G1 X35.7 Y24.53 Z2.4 F960.0
G1 X35.7 Y25.06 Z2.4 F960.0
G1 X35.11 Y25.88 Z2.4 F960.0
G1 X34.88 Y26.44 Z2.4 F960.0
G1 X34.73 Y27.06 Z2.4 F960.0
G1 X34.67 Y27.8 Z2.4 F960.0
G1 X34.73 Y28.55 Z2.4 F960.0
G1 X35.11 Y29.78 Z2.4 F960.0
G1 X35.49 Y30.4 Z2.4 F960.0
G1 X36.49 Y31.39 Z2.4 F960.0
G1 X37.13 Y31.79 Z2.4 F960.0
G1 X37.92 Y32.12 Z2.4 F960.0
G1 X38.73 Y32.3 Z2.4 F960.0
G1 X40.11 Y32.34 Z2.4 F960.0
G1 X40.87 Y32.2 Z2.4 F960.0
G1 X41.5 Y31.98 Z2.4 F960.0
G1 X42.43 Y31.42 Z2.4 F960.0
G1 X43.03 Y31.28 Z2.4 F960.0
G1 X43.9 Y31.71 Z2.4 F960.0
G1 X44.48 Y31.85 Z2.4 F960.0
G1 X45.16 Y31.9 Z2.4 F960.0
G1 X45.86 Y31.85 Z2.4 F960.0
G1 X46.49 Y31.7 Z2.4 F960.0
G1 X47.09 Y31.47 Z2.4 F960.0
G1 X47.74 Y31.07 Z2.4 F960.0
G1 X48.53 Y30.31 Z2.4 F960.0
G1 X48.91 Y29.72 Z2.4 F960.0
G1 X49.28 Y28.63 Z2.4 F960.0
G1 X49.32 Y27.58 Z2.4 F960.0
G1 X49.21 Y26.96 Z2.4 F960.0
G1 X49.0 Y26.37 Z2.4 F960.0
G1 X48.32 Y25.33 Z2.4 F960.0
G1 X47.46 Y24.61 Z2.4 F960.0
G1 X46.13 Y24.03 Z2.4 F960.0
G1 X44.22 Y23.86 Z2.4 F960.0
G1 X44.11 Y25.5 Z2.4 F960.0
G1 X43.64 Y26.01 Z2.4 F960.0
G1 X41.06 Y26.01 Z2.4 F960.0
;M103
G1 X27.71 Y42.71 Z2.4 F960.0
;M101
G1 X27.18 Y42.44 Z2.4 F960.0
G1 X26.72 Y42.32 Z2.4 F960.0
G1 X26.25 Y42.28 Z2.4 F960.0
G1 X25.78 Y42.32 Z2.4 F960.0
G1 X25.32 Y42.44 Z2.4 F960.0
G1 X24.89 Y42.64 Z2.4 F960.0
G1 X24.5 Y42.91 Z2.4 F960.0
G1 X24.16 Y43.25 Z2.4 F960.0
G1 X23.89 Y43.64 Z2.4 F960.0
G1 X23.69 Y44.07 Z2.4 F960.0
G1 X23.57 Y44.53 Z2.4 F960.0
G1 X23.53 Y45.0 Z2.4 F960.0
G1 X23.57 Y45.47 Z2.4 F960.0
G1 X23.69 Y45.93 Z2.4 F960.0
G1 X23.89 Y46.36 Z2.4 F960.0
G1 X24.16 Y46.75 Z2.4 F960.0
G1 X24.5 Y47.09 Z2.4 F960.0
G1 X24.89 Y47.36 Z2.4 F960.0
G1 X25.32 Y47.56 Z2.4 F960.0
G1 X25.78 Y47.68 Z2.4 F960.0
G1 X26.25 Y47.72 Z2.4 F960.0
G1 X26.72 Y47.68 Z2.4 F960.0
G1 X27.18 Y47.56 Z2.4 F960.0
G1 X27.61 Y47.36 Z2.4 F960.0
G1 X28.0 Y47.09 Z2.4 F960.0
G1 X28.34 Y46.75 Z2.4 F960.0
G1 X28.61 Y46.36 Z2.4 F960.0
G1 X28.81 Y45.93 Z2.4 F960.0
G1 X28.93 Y45.47 Z2.4 F960.0
G1 X28.97 Y45.0 Z2.4 F960.0
G1 X28.93 Y44.53 Z2.4 F960.0
G1 X28.81 Y44.07 Z2.4 F960.0
G1 X28.61 Y43.64 Z2.4 F960.0
G1 X28.26 Y43.17 Z2.4 F960.0
G1 X28.09 Y42.25 Z2.4 F960.0
G1 X27.39 Y41.88 Z2.4 F960.0
G1 X26.83 Y41.73 Z2.4 F960.0
G1 X26.25 Y41.67 Z2.4 F960.0
G1 X25.67 Y41.73 Z2.4 F960.0
G1 X25.11 Y41.88 Z2.4 F960.0
G1 X24.59 Y42.12 Z2.4 F960.0
G1 X24.11 Y42.45 Z2.4 F960.0
G1 X23.7 Y42.86 Z2.4 F960.0
G1 X23.37 Y43.34 Z2.4 F960.0
G1 X23.13 Y43.86 Z2.4 F960.0
G1 X22.98 Y44.42 Z2.4 F960.0
G1 X22.92 Y45.0 Z2.4 F960.0
G1 X22.98 Y45.58 Z2.4 F960.0
G1 X23.13 Y46.14 Z2.4 F960.0
G1 X23.37 Y46.66 Z2.4 F960.0
G1 X23.7 Y47.14 Z2.4 F960.0
G1 X24.11 Y47.55 Z2.4 F960.0
G1 X24.59 Y47.88 Z2.4 F960.0
G1 X25.11 Y48.13 Z2.4 F960.0
G1 X25.67 Y48.28 Z2.4 F960.0
G1 X26.25 Y48.33 Z2.4 F960.0
G1 X26.83 Y48.28 Z2.4 F960.0
G1 X27.39 Y48.13 Z2.4 F960.0
G1 X27.91 Y47.88 Z2.4 F960.0
G1 X28.39 Y47.55 Z2.4 F960.0
G1 X28.8 Y47.14 Z2.4 F960.0
G1 X29.13 Y46.66 Z2.4 F960.0
G1 X29.38 Y46.14 Z2.4 F960.0
G1 X29.53 Y45.58 Z2.4 F960.0
G1 X29.58 Y45.0 Z2.4 F960.0
G1 X29.53 Y44.42 Z2.4 F960.0
G1 X29.38 Y43.86 Z2.4 F960.0
G1 X29.13 Y43.34 Z2.4 F960.0
G1 X28.64 Y42.71 Z2.4 F960.0
;M103
G1 X39.79 Y44.89 Z2.4 F960.0
;M101
G1 X39.82 Y45.47 Z2.4 F960.0
G1 X39.94 Y45.93 Z2.4 F960.0
G1 X40.14 Y46.36 Z2.4 F960.0
G1 X40.41 Y46.75 Z2.4 F960.0
G1 X40.75 Y47.09 Z2.4 F960.0
G1 X41.14 Y47.36 Z2.4 F960.0
G1 X41.57 Y47.56 Z2.4 F960.0
G1 X42.03 Y47.68 Z2.4 F960.0
G1 X42.5 Y47.72 Z2.4 F960.0
G1 X42.97 Y47.68 Z2.4 F960.0
G1 X43.43 Y47.56 Z2.4 F960.0
G1 X43.86 Y47.36 Z2.4 F960.0
G1 X44.25 Y47.09 Z2.4 F960.0
G1 X44.59 Y46.75 Z2.4 F960.0
G1 X44.86 Y46.36 Z2.4 F960.0
G1 X45.06 Y45.93 Z2.4 F960.0
G1 X45.18 Y45.47 Z2.4 F960.0
G1 X45.22 Y45.0 Z2.4 F960.0
G1 X45.18 Y44.53 Z2.4 F960.0
G1 X45.06 Y44.07 Z2.4 F960.0
G1 X44.86 Y43.64 Z2.4 F960.0
G1 X44.59 Y43.25 Z2.4 F960.0
G1 X44.25 Y42.91 Z2.4 F960.0
G1 X43.86 Y42.64 Z2.4 F960.0
G1 X43.43 Y42.44 Z2.4 F960.0
G1 X42.97 Y42.32 Z2.4 F960.0
G1 X42.5 Y42.28 Z2.4 F960.0
G1 X42.03 Y42.32 Z2.4 F960.0
G1 X41.57 Y42.44 Z2.4 F960.0
G1 X41.14 Y42.64 Z2.4 F960.0
G1 X40.75 Y42.91 Z2.4 F960.0
G1 X40.41 Y43.25 Z2.4 F960.0
G1 X40.14 Y43.64 Z2.4 F960.0
G1 X39.91 Y44.18 Z2.4 F960.0
G1 X39.19 Y44.78 Z2.4 F960.0
G1 X39.23 Y45.58 Z2.4 F960.0
G1 X39.38 Y46.14 Z2.4 F960.0
G1 X39.62 Y46.66 Z2.4 F960.0
G1 X39.95 Y47.14 Z2.4 F960.0
G1 X40.36 Y47.55 Z2.4 F960.0
G1 X40.84 Y47.88 Z2.4 F960.0
G1 X41.36 Y48.13 Z2.4 F960.0
G1 X41.92 Y48.28 Z2.4 F960.0
G1 X42.5 Y48.33 Z2.4 F960.0
G1 X43.08 Y48.28 Z2.4 F960.0
G1 X43.64 Y48.13 Z2.4 F960.0
G1 X44.16 Y47.88 Z2.4 F960.0
G1 X44.64 Y47.55 Z2.4 F960.0
G1 X45.05 Y47.14 Z2.4 F960.0
G1 X45.38 Y46.66 Z2.4 F960.0
G1 X45.63 Y46.14 Z2.4 F960.0
G1 X45.78 Y45.58 Z2.4 F960.0
G1 X45.83 Y45.0 Z2.4 F960.0
G1 X45.78 Y44.42 Z2.4 F960.0
G1 X45.63 Y43.86 Z2.4 F960.0
G1 X45.38 Y43.34 Z2.4 F960.0
G1 X45.05 Y42.86 Z2.4 F960.0
G1 X44.64 Y42.45 Z2.4 F960.0
G1 X44.16 Y42.12 Z2.4 F960.0
G1 X43.64 Y41.88 Z2.4 F960.0
G1 X43.08 Y41.73 Z2.4 F960.0
G1 X42.5 Y41.67 Z2.4 F960.0
G1 X41.92 Y41.73 Z2.4 F960.0
G1 X41.36 Y41.88 Z2.4 F960.0
G1 X40.84 Y42.12 Z2.4 F960.0
G1 X40.36 Y42.45 Z2.4 F960.0
G1 X39.95 Y42.86 Z2.4 F960.0
G1 X39.62 Y43.34 Z2.4 F960.0
G1 X39.32 Y44.07 Z2.4 F960.0
;M103
G1 X12.69 Y44.64 Z2.4 F960.0
;M101
G1 X12.56 Y44.07 Z2.4 F960.0
G1 X12.36 Y43.64 Z2.4 F960.0
G1 X12.09 Y43.25 Z2.4 F960.0
G1 X11.75 Y42.91 Z2.4 F960.0
G1 X11.36 Y42.64 Z2.4 F960.0
G1 X10.93 Y42.44 Z2.4 F960.0
G1 X10.47 Y42.32 Z2.4 F960.0
G1 X10.0 Y42.28 Z2.4 F960.0
G1 X9.53 Y42.32 Z2.4 F960.0
G1 X9.07 Y42.44 Z2.4 F960.0
G1 X8.64 Y42.64 Z2.4 F960.0
G1 X8.25 Y42.91 Z2.4 F960.0
G1 X7.91 Y43.25 Z2.4 F960.0
G1 X7.64 Y43.64 Z2.4 F960.0
G1 X7.44 Y44.07 Z2.4 F960.0
G1 X7.32 Y44.53 Z2.4 F960.0
G1 X7.28 Y45.0 Z2.4 F960.0
G1 X7.32 Y45.47 Z2.4 F960.0
G1 X7.44 Y45.93 Z2.4 F960.0
G1 X7.64 Y46.36 Z2.4 F960.0
G1 X7.91 Y46.75 Z2.4 F960.0
G1 X8.25 Y47.09 Z2.4 F960.0
G1 X8.64 Y47.36 Z2.4 F960.0
G1 X9.07 Y47.56 Z2.4 F960.0
G1 X9.53 Y47.68 Z2.4 F960.0
G1 X10.0 Y47.72 Z2.4 F960.0
G1 X10.47 Y47.68 Z2.4 F960.0
G1 X10.93 Y47.56 Z2.4 F960.0
G1 X11.36 Y47.36 Z2.4 F960.0
G1 X11.75 Y47.09 Z2.4 F960.0
G1 X12.09 Y46.75 Z2.4 F960.0
G1 X12.36 Y46.36 Z2.4 F960.0
G1 X12.56 Y45.93 Z2.4 F960.0
G1 X12.69 Y45.36 Z2.4 F960.0
G1 X13.29 Y44.64 Z2.4 F960.0
G1 X13.13 Y43.86 Z2.4 F960.0
G1 X12.88 Y43.34 Z2.4 F960.0
G1 X12.55 Y42.86 Z2.4 F960.0
G1 X12.14 Y42.45 Z2.4 F960.0
G1 X11.66 Y42.12 Z2.4 F960.0
G1 X11.14 Y41.88 Z2.4 F960.0
G1 X10.58 Y41.73 Z2.4 F960.0
G1 X10.0 Y41.67 Z2.4 F960.0
G1 X9.42 Y41.73 Z2.4 F960.0
G1 X8.86 Y41.88 Z2.4 F960.0
G1 X8.34 Y42.12 Z2.4 F960.0
G1 X7.86 Y42.45 Z2.4 F960.0
G1 X7.45 Y42.86 Z2.4 F960.0
G1 X7.12 Y43.34 Z2.4 F960.0
G1 X6.88 Y43.86 Z2.4 F960.0
G1 X6.73 Y44.42 Z2.4 F960.0
G1 X6.67 Y45.0 Z2.4 F960.0
G1 X6.73 Y45.58 Z2.4 F960.0
G1 X6.88 Y46.14 Z2.4 F960.0
G1 X7.12 Y46.66 Z2.4 F960.0
G1 X7.45 Y47.14 Z2.4 F960.0
G1 X7.86 Y47.55 Z2.4 F960.0
G1 X8.34 Y47.88 Z2.4 F960.0
G1 X8.86 Y48.13 Z2.4 F960.0
G1 X9.42 Y48.28 Z2.4 F960.0
G1 X10.0 Y48.33 Z2.4 F960.0
G1 X10.58 Y48.28 Z2.4 F960.0
G1 X11.14 Y48.13 Z2.4 F960.0
G1 X11.66 Y47.88 Z2.4 F960.0
G1 X12.14 Y47.55 Z2.4 F960.0
G1 X12.55 Y47.14 Z2.4 F960.0
G1 X12.88 Y46.66 Z2.4 F960.0
G1 X13.13 Y46.14 Z2.4 F960.0
G1 X13.29 Y45.36 Z2.4 F960.0
;M103
G1 X13.69 Y35.62 Z2.4 F960.0
;M101
G1 X20.67 Y35.62 Z2.4 F960.0
G1 X22.77 Y35.4 Z2.4 F960.0
G1 X24.86 Y34.82 Z2.4 F960.0
G1 X26.82 Y33.89 Z2.4 F960.0
G1 X28.6 Y32.63 Z2.4 F960.0
G1 X30.13 Y31.1 Z2.4 F960.0
G1 X31.39 Y29.32 Z2.4 F960.0
G1 X32.32 Y27.36 Z2.4 F960.0
G1 X32.9 Y25.27 Z2.4 F960.0
G1 X33.12 Y23.17 Z2.4 F960.0
G1 X33.12 Y1.62 Z2.4 F960.0
G1 X33.9 Y1.62 Z2.4 F960.0
G1 X34.56 Y1.92 Z2.4 F960.0
G1 X34.34 Y22.17 Z2.4 F960.0
G1 X34.22 Y22.92 Z2.4 F960.0
G1 X34.28 Y23.51 Z2.4 F960.0
G1 X34.54 Y24.18 Z2.4 F960.0
G1 X34.94 Y24.66 Z2.4 F960.0
G1 X35.03 Y24.96 Z2.4 F960.0
G1 X34.59 Y25.59 Z2.4 F960.0
G1 X34.31 Y26.25 Z2.4 F960.0
G1 X34.13 Y26.97 Z2.4 F960.0
G1 X34.07 Y27.8 Z2.4 F960.0
G1 X34.13 Y28.64 Z2.4 F960.0
G1 X34.3 Y29.37 Z2.4 F960.0
G1 X34.57 Y30.05 Z2.4 F960.0
G1 X35.0 Y30.75 Z2.4 F960.0
G1 X35.51 Y31.34 Z2.4 F960.0
G1 X36.14 Y31.88 Z2.4 F960.0
G1 X36.86 Y32.33 Z2.4 F960.0
G1 X37.73 Y32.69 Z2.4 F960.0
G1 X38.66 Y32.9 Z2.4 F960.0
G1 X40.15 Y32.94 Z2.4 F960.0
G1 X41.02 Y32.79 Z2.4 F960.0
G1 X41.76 Y32.53 Z2.4 F960.0
G1 X42.66 Y31.98 Z2.4 F960.0
G1 X42.96 Y31.91 Z2.4 F960.0
G1 X43.7 Y32.27 Z2.4 F960.0
G1 X44.39 Y32.44 Z2.4 F960.0
G1 X45.16 Y32.5 Z2.4 F960.0
G1 X45.95 Y32.44 Z2.4 F960.0
G1 X46.67 Y32.28 Z2.4 F960.0
G1 X47.35 Y32.0 Z2.4 F960.0
G1 X48.1 Y31.55 Z2.4 F960.0
G1 X49.0 Y30.69 Z2.4 F960.0
G1 X49.46 Y29.98 Z2.4 F960.0
G1 X49.88 Y28.74 Z2.4 F960.0
G1 X49.92 Y27.54 Z2.4 F960.0
G1 X49.79 Y26.81 Z2.4 F960.0
G1 X49.55 Y26.13 Z2.4 F960.0
G1 X49.22 Y25.52 Z2.4 F960.0
G1 X48.76 Y24.91 Z2.4 F960.0
G1 X47.8 Y24.11 Z2.4 F960.0
G1 X47.11 Y23.74 Z2.4 F960.0
G1 X46.26 Y23.44 Z2.4 F960.0
G1 X43.67 Y23.22 Z2.4 F960.0
G1 X43.53 Y25.25 Z2.4 F960.0
G1 X43.37 Y25.41 Z2.4 F960.0
G1 X41.29 Y25.41 Z2.4 F960.0
G1 X41.25 Y23.47 Z2.4 F960.0
G1 X40.02 Y22.32 Z2.4 F960.0
G1 X40.46 Y21.49 Z2.4 F960.0
G1 X41.1 Y21.42 Z2.4 F960.0
G1 X41.57 Y21.85 Z2.4 F960.0
G1 X42.24 Y22.23 Z2.4 F960.0
G1 X42.94 Y22.5 Z2.4 F960.0
G1 X43.75 Y22.66 Z2.4 F960.0
G1 X44.61 Y22.72 Z2.4 F960.0
G1 X45.67 Y22.63 Z2.4 F960.0
G1 X46.46 Y22.44 Z2.4 F960.0
G1 X47.17 Y22.14 Z2.4 F960.0
G1 X47.77 Y21.79 Z2.4 F960.0
G1 X48.28 Y21.36 Z2.4 F960.0
G1 X48.73 Y20.86 Z2.4 F960.0
G1 X49.06 Y20.34 Z2.4 F960.0
G1 X49.3 Y19.77 Z2.4 F960.0
G1 X49.52 Y18.86 Z2.4 F960.0
G1 X49.62 Y9.37 Z2.4 F960.0
G1 X46.89 Y8.66 Z2.4 F960.0
G1 X46.89 Y8.21 Z2.4 F960.0
G1 X49.62 Y7.5 Z2.4 F960.0
G1 X49.62 Y2.88 Z2.4 F960.0
G1 X42.76 Y2.04 Z2.4 F960.0
G1 X42.96 Y1.62 Z2.4 F960.0
G1 X51.88 Y1.62 Z2.4 F960.0
G1 X51.88 Y54.38 Z2.4 F960.0
G1 X1.62 Y54.38 Z2.4 F960.0
G1 X1.62 Y35.62 Z2.4 F960.0
G1 X12.97 Y35.62 Z2.4 F960.0
G1 X13.69 Y35.02 Z2.4 F960.0
G1 X20.64 Y35.02 Z2.4 F960.0
G1 X22.66 Y34.81 Z2.4 F960.0
G1 X24.65 Y34.26 Z2.4 F960.0
G1 X26.52 Y33.37 Z2.4 F960.0
G1 X28.21 Y32.17 Z2.4 F960.0
G1 X29.67 Y30.71 Z2.4 F960.0
G1 X30.87 Y29.02 Z2.4 F960.0
G1 X31.76 Y27.15 Z2.4 F960.0
G1 X32.31 Y25.16 Z2.4 F960.0
G1 X32.52 Y23.14 Z2.4 F960.0
G1 X32.52 Y1.02 Z2.4 F960.0
G1 X52.48 Y1.02 Z2.4 F960.0
G1 X52.48 Y54.98 Z2.4 F960.0
G1 X1.02 Y54.98 Z2.4 F960.0
G1 X1.02 Y35.02 Z2.4 F960.0
G1 X12.97 Y35.02 Z2.4 F960.0
G1 X13.69 Y34.36 Z2.4 F960.0
G1 X20.6 Y34.36 Z2.4 F960.0
G1 X22.54 Y34.16 Z2.4 F960.0
G1 X24.42 Y33.63 Z2.4 F960.0
G1 X26.19 Y32.8 Z2.4 F960.0
G1 X27.78 Y31.67 Z2.4 F960.0
G1 X29.17 Y30.28 Z2.4 F960.0
G1 X30.3 Y28.69 Z2.4 F960.0
G1 X31.13 Y26.92 Z2.4 F960.0
G1 X31.66 Y25.04 Z2.4 F960.0
G1 X31.86 Y23.1 Z2.4 F960.0
G1 X31.86 Y0.36 Z2.4 F960.0
G1 X53.14 Y0.36 Z2.4 F960.0
G1 X53.14 Y55.64 Z2.4 F960.0
G1 X0.36 Y55.64 Z2.4 F960.0
G1 X0.36 Y34.36 Z2.4 F960.0
G1 X12.97 Y34.36 Z2.4 F960.0
;M103
G1 X10.36 Y42.97 Z2.4 F960.0
;M101
G1 X9.64 Y42.97 Z2.4 F960.0
G1 X8.97 Y43.22 Z2.4 F960.0
G1 X8.42 Y43.68 Z2.4 F960.0
G1 X8.06 Y44.3 Z2.4 F960.0
G1 X7.94 Y45.0 Z2.4 F960.0
G1 X8.06 Y45.71 Z2.4 F960.0
G1 X8.42 Y46.33 Z2.4 F960.0
G1 X8.97 Y46.79 Z2.4 F960.0
G1 X9.64 Y47.03 Z2.4 F960.0
G1 X10.36 Y47.03 Z2.4 F960.0
G1 X11.03 Y46.79 Z2.4 F960.0
G1 X11.58 Y46.33 Z2.4 F960.0
G1 X11.94 Y45.71 Z2.4 F960.0
G1 X12.06 Y45.0 Z2.4 F960.0
G1 X11.94 Y44.3 Z2.4 F960.0
G1 X11.58 Y43.68 Z2.4 F960.0
G1 X11.03 Y43.22 Z2.4 F960.0
;M103
G1 X24.19 Y45.0 Z2.4 F960.0
;M101
G1 X24.31 Y45.71 Z2.4 F960.0
G1 X24.67 Y46.33 Z2.4 F960.0
G1 X25.22 Y46.79 Z2.4 F960.0
G1 X25.89 Y47.03 Z2.4 F960.0
G1 X26.61 Y47.03 Z2.4 F960.0
G1 X27.28 Y46.79 Z2.4 F960.0
G1 X27.83 Y46.33 Z2.4 F960.0
G1 X28.19 Y45.71 Z2.4 F960.0
G1 X28.31 Y45.0 Z2.4 F960.0
G1 X28.19 Y44.3 Z2.4 F960.0
G1 X27.83 Y43.68 Z2.4 F960.0
G1 X27.28 Y43.22 Z2.4 F960.0
G1 X26.61 Y42.97 Z2.4 F960.0
G1 X25.89 Y42.97 Z2.4 F960.0
G1 X25.22 Y43.22 Z2.4 F960.0
G1 X24.67 Y43.68 Z2.4 F960.0
G1 X24.31 Y44.29 Z2.4 F960.0
;M103
G1 X40.47 Y45.36 Z2.4 F960.0
;M101
G1 X40.72 Y46.03 Z2.4 F960.0
G1 X41.18 Y46.58 Z2.4 F960.0
G1 X41.8 Y46.94 Z2.4 F960.0
G1 X42.5 Y47.06 Z2.4 F960.0
G1 X43.21 Y46.94 Z2.4 F960.0
G1 X43.83 Y46.58 Z2.4 F960.0
G1 X44.29 Y46.03 Z2.4 F960.0
G1 X44.53 Y45.36 Z2.4 F960.0
G1 X44.53 Y44.64 Z2.4 F960.0
G1 X44.29 Y43.97 Z2.4 F960.0
G1 X43.83 Y43.42 Z2.4 F960.0
G1 X43.21 Y43.06 Z2.4 F960.0
G1 X42.5 Y42.94 Z2.4 F960.0
G1 X41.8 Y43.06 Z2.4 F960.0
G1 X41.18 Y43.42 Z2.4 F960.0
G1 X40.72 Y43.97 Z2.4 F960.0
G1 X40.47 Y44.64 Z2.4 F960.0
;M103
G1 X40.41 Y31.62 Z2.4 F960.0
;M101
G1 X41.24 Y31.38 Z2.4 F960.0
G1 X42.14 Y30.82 Z2.4 F960.0
G1 X42.63 Y30.24 Z2.4 F960.0
G1 X42.82 Y30.25 Z2.4 F960.0
G1 X43.18 Y30.59 Z2.4 F960.0
G1 X43.63 Y30.88 Z2.4 F960.0
G1 X44.59 Y31.19 Z2.4 F960.0
G1 X45.76 Y31.19 Z2.4 F960.0
G1 X46.79 Y30.87 Z2.4 F960.0
G1 X47.33 Y30.54 Z2.4 F960.0
G1 X48.02 Y29.88 Z2.4 F960.0
G1 X48.5 Y29.01 Z2.4 F960.0
G1 X48.62 Y28.53 Z2.4 F960.0
G1 X48.65 Y27.63 Z2.4 F960.0
G1 X48.4 Y26.64 Z2.4 F960.0
G1 X47.84 Y25.79 Z2.4 F960.0
G1 X47.09 Y25.16 Z2.4 F960.0
G1 X45.97 Y24.68 Z2.4 F960.0
G1 X44.78 Y24.52 Z2.4 F960.0
G1 X44.72 Y26.97 Z2.4 F960.0
G1 X45.22 Y27.16 Z2.4 F960.0
G1 X45.5 Y27.36 Z2.4 F960.0
G1 X45.7 Y27.61 Z2.4 F960.0
G1 X45.78 Y27.82 Z2.4 F960.0
G1 X45.76 Y28.18 Z2.4 F960.0
G1 X45.67 Y28.37 Z2.4 F960.0
G1 X45.52 Y28.52 Z2.4 F960.0
G1 X45.32 Y28.62 Z2.4 F960.0
G1 X45.02 Y28.67 Z2.4 F960.0
G1 X44.81 Y28.64 Z2.4 F960.0
G1 X44.54 Y28.52 Z2.4 F960.0
G1 X44.29 Y28.32 Z2.4 F960.0
G1 X44.09 Y27.99 Z2.4 F960.0
G1 X43.85 Y26.67 Z2.4 F960.0
G1 X41.22 Y26.67 Z2.4 F960.0
G1 X41.07 Y27.87 Z2.4 F960.0
G1 X40.83 Y28.44 Z2.4 F960.0
G1 X40.29 Y28.96 Z2.4 F960.0
G1 X39.86 Y29.11 Z2.4 F960.0
G1 X39.15 Y29.07 Z2.4 F960.0
G1 X38.76 Y28.89 Z2.4 F960.0
G1 X38.43 Y28.59 Z2.4 F960.0
G1 X38.27 Y28.28 Z2.4 F960.0
G1 X38.21 Y27.92 Z2.4 F960.0
G1 X38.31 Y27.41 Z2.4 F960.0
G1 X38.5 Y27.13 Z2.4 F960.0
G1 X38.78 Y26.91 Z2.4 F960.0
G1 X39.36 Y26.69 Z2.4 F960.0
G1 X40.05 Y26.56 Z2.4 F960.0
G1 X40.01 Y24.06 Z2.4 F960.0
G1 X38.79 Y24.15 Z2.4 F960.0
G1 X37.39 Y24.59 Z2.4 F960.0
G1 X36.83 Y24.92 Z2.4 F960.0
G1 X36.34 Y25.32 Z2.4 F960.0
G1 X35.7 Y26.19 Z2.4 F960.0
G1 X35.38 Y27.17 Z2.4 F960.0
G1 X35.33 Y27.8 Z2.4 F960.0
G1 X35.38 Y28.45 Z2.4 F960.0
G1 X35.7 Y29.48 Z2.4 F960.0
G1 X36.02 Y30.01 Z2.4 F960.0
G1 X36.89 Y30.86 Z2.4 F960.0
G1 X37.44 Y31.2 Z2.4 F960.0
G1 X38.12 Y31.49 Z2.4 F960.0
G1 X38.82 Y31.65 Z2.4 F960.0
G1 X39.7 Y31.67 Z2.4 F960.0
;M103
G1 X38.48 Y23.78 Z2.4 F960.0
;M101
G1 X38.57 Y23.68 Z2.4 F960.0
G1 X38.75 Y23.35 Z2.4 F960.0
G1 X38.83 Y22.91 Z2.4 F960.0
G1 X38.75 Y22.47 Z2.4 F960.0
G1 X38.54 Y22.1 Z2.4 F960.0
G1 X38.21 Y21.78 Z2.4 F960.0
G1 X37.73 Y21.55 Z2.4 F960.0
G1 X37.44 Y21.51 Z2.4 F960.0
G1 X37.41 Y21.4 Z2.4 F960.0
G1 X41.32 Y19.65 Z2.4 F960.0
G1 X41.59 Y20.13 Z2.4 F960.0
G1 X41.93 Y20.51 Z2.4 F960.0
G1 X42.3 Y20.82 Z2.4 F960.0
G1 X42.78 Y21.09 Z2.4 F960.0
G1 X43.29 Y21.28 Z2.4 F960.0
G1 X43.92 Y21.41 Z2.4 F960.0
G1 X44.59 Y21.45 Z2.4 F960.0
G1 X45.47 Y21.38 Z2.4 F960.0
G1 X46.06 Y21.24 Z2.4 F960.0
G1 X46.6 Y21.01 Z2.4 F960.0
G1 X47.04 Y20.75 Z2.4 F960.0
G1 X47.41 Y20.45 Z2.4 F960.0
G1 X47.72 Y20.1 Z2.4 F960.0
G1 X47.94 Y19.75 Z2.4 F960.0
G1 X48.1 Y19.38 Z2.4 F960.0
G1 X48.26 Y18.7 Z2.4 F960.0
G1 X48.36 Y14.74 Z2.4 F960.0
G1 X35.64 Y14.73 Z2.4 F960.0
G1 X35.64 Y17.3 Z2.4 F960.0
G1 X39.84 Y17.3 Z2.4 F960.0
G1 X39.88 Y17.42 Z2.4 F960.0
G1 X35.64 Y19.31 Z2.4 F960.0
G1 X35.64 Y21.67 Z2.4 F960.0
G1 X35.75 Y22.14 Z2.4 F960.0
G1 X35.63 Y22.3 Z2.4 F960.0
G1 X35.51 Y22.64 Z2.4 F960.0
G1 X35.48 Y22.91 Z2.4 F960.0
G1 X35.52 Y23.21 Z2.4 F960.0
G1 X35.65 Y23.54 Z2.4 F960.0
G1 X35.92 Y23.88 Z2.4 F960.0
G1 X36.33 Y24.17 Z2.4 F960.0
G1 X36.85 Y24.33 Z2.4 F960.0
G1 X36.99 Y24.33 Z2.4 F960.0
;M103
G1 X44.13 Y18.79 Z2.4 F960.0
;M101
G1 X43.95 Y18.65 Z2.4 F960.0
G1 X43.85 Y18.44 Z2.4 F960.0
G1 X43.75 Y17.29 Z2.4 F960.0
G1 X45.49 Y17.3 Z2.4 F960.0
G1 X45.39 Y18.42 Z2.4 F960.0
G1 X45.3 Y18.59 Z2.4 F960.0
G1 X45.14 Y18.74 Z2.4 F960.0
G1 X44.83 Y18.86 Z2.4 F960.0
;M103
G1 X38.49 Y14.31 Z2.4 F960.0
;M101
G1 X48.36 Y12.88 Z2.4 F960.0
G1 X48.36 Y10.34 Z2.4 F960.0
G1 X41.34 Y8.51 Z2.4 F960.0
G1 X41.34 Y8.36 Z2.4 F960.0
G1 X48.36 Y6.52 Z2.4 F960.0
G1 X48.36 Y3.98 Z2.4 F960.0
G1 X35.69 Y2.15 Z2.4 F960.0
G1 X35.64 Y4.69 Z2.4 F960.0
G1 X41.57 Y5.57 Z2.4 F960.0
G1 X41.59 Y5.66 Z2.4 F960.0
G1 X35.64 Y7.21 Z2.4 F960.0
G1 X35.64 Y9.65 Z2.4 F960.0
G1 X41.59 Y11.2 Z2.4 F960.0
G1 X41.57 Y11.29 Z2.4 F960.0
G1 X35.64 Y12.17 Z2.4 F960.0
G1 X35.68 Y14.3 Z2.4 F960.0
;M103
G1 X40.74 Y22.05 Z2.4 F960.0
;M101
G1 X40.83 Y21.96 Z2.4 F960.0
G1 X41.34 Y22.31 Z2.4 F960.0
G1 X41.05 Y22.59 Z2.4 F960.0
G1 X41.49 Y23.0 Z2.4 F960.0
G1 X41.87 Y22.61 Z2.4 F960.0
G1 X42.47 Y22.87 Z2.4 F960.0
G1 X41.76 Y23.58 Z2.4 F960.0
G1 X41.78 Y24.41 Z2.4 F960.0
G1 X43.13 Y23.06 Z2.4 F960.0
G1 X43.12 Y23.92 Z2.4 F960.0
G1 X42.13 Y24.9 Z2.4 F960.0
G1 X42.98 Y24.9 Z2.4 F960.0
G1 X43.05 Y24.84 Z2.4 F960.0
;M103
G1 X23.35 Y53.87 Z2.4 F960.0
;M101
G1 X44.28 Y32.94 Z2.4 F960.0
G1 X45.06 Y33.01 Z2.4 F960.0
G1 X24.2 Y53.87 Z2.4 F960.0
G1 X25.04 Y53.87 Z2.4 F960.0
G1 X45.96 Y32.95 Z2.4 F960.0
;M103
G1 X47.11 Y32.65 Z2.4 F960.0
;M101
G1 X25.89 Y53.87 Z2.4 F960.0
G1 X26.74 Y53.87 Z2.4 F960.0
G1 X51.37 Y29.24 Z2.4 F960.0
G1 X51.37 Y28.39 Z2.4 F960.0
G1 X50.11 Y29.66 Z2.4 F960.0
G1 X50.4 Y28.52 Z2.4 F960.0
G1 X51.37 Y27.54 Z2.4 F960.0
G1 X51.37 Y26.7 Z2.4 F960.0
G1 X50.43 Y27.64 Z2.4 F960.0
G1 X50.32 Y26.9 Z2.4 F960.0
G1 X51.37 Y25.85 Z2.4 F960.0
G1 X51.37 Y25.0 Z2.4 F960.0
G1 X50.13 Y26.24 Z2.4 F960.0
G1 X49.87 Y25.65 Z2.4 F960.0
G1 X51.37 Y24.15 Z2.4 F960.0
G1 X51.37 Y23.3 Z2.4 F960.0
G1 X49.55 Y25.12 Z2.4 F960.0
G1 X49.19 Y24.64 Z2.4 F960.0
G1 X51.37 Y22.45 Z2.4 F960.0
G1 X51.37 Y21.6 Z2.4 F960.0
G1 X48.74 Y24.23 Z2.4 F960.0
G1 X48.28 Y23.84 Z2.4 F960.0
G1 X51.37 Y20.76 Z2.4 F960.0
G1 X51.37 Y19.91 Z2.4 F960.0
G1 X47.77 Y23.51 Z2.4 F960.0
G1 X47.2 Y23.23 Z2.4 F960.0
G1 X51.37 Y19.06 Z2.4 F960.0
G1 X51.37 Y18.21 Z2.4 F960.0
G1 X49.83 Y19.75 Z2.4 F960.0
G1 X50.03 Y18.7 Z2.4 F960.0
G1 X51.37 Y17.36 Z2.4 F960.0
G1 X51.37 Y16.51 Z2.4 F960.0
G1 X50.04 Y17.85 Z2.4 F960.0
G1 X50.05 Y16.99 Z2.4 F960.0
G1 X51.37 Y15.66 Z2.4 F960.0
G1 X51.37 Y14.82 Z2.4 F960.0
G1 X50.06 Y16.13 Z2.4 F960.0
G1 X50.07 Y15.27 Z2.4 F960.0
G1 X51.37 Y13.97 Z2.4 F960.0
G1 X51.37 Y13.12 Z2.4 F960.0
G1 X50.07 Y14.41 Z2.4 F960.0
G1 X50.08 Y13.56 Z2.4 F960.0
G1 X51.37 Y12.27 Z2.4 F960.0
G1 X51.37 Y11.42 Z2.4 F960.0
G1 X50.09 Y12.7 Z2.4 F960.0
G1 X50.1 Y11.84 Z2.4 F960.0
G1 X51.37 Y10.57 Z2.4 F960.0
G1 X51.37 Y9.72 Z2.4 F960.0
G1 X50.11 Y10.98 Z2.4 F960.0
G1 X50.12 Y10.12 Z2.4 F960.0
G1 X51.37 Y8.88 Z2.4 F960.0
G1 X51.37 Y8.03 Z2.4 F960.0
G1 X50.13 Y9.27 Z2.4 F960.0
G1 X49.69 Y8.86 Z2.4 F960.0
G1 X51.37 Y7.18 Z2.4 F960.0
G1 X51.37 Y6.33 Z2.4 F960.0
G1 X50.13 Y7.57 Z2.4 F960.0
G1 X50.13 Y6.72 Z2.4 F960.0
G1 X51.37 Y5.48 Z2.4 F960.0
G1 X51.37 Y4.63 Z2.4 F960.0
G1 X50.13 Y5.87 Z2.4 F960.0
G1 X50.13 Y5.02 Z2.4 F960.0
G1 X51.37 Y3.78 Z2.4 F960.0
G1 X51.37 Y2.94 Z2.4 F960.0
G1 X50.13 Y4.18 Z2.4 F960.0
G1 X50.13 Y3.33 Z2.4 F960.0
G1 X51.33 Y2.13 Z2.4 F960.0
G1 X50.48 Y2.13 Z2.4 F960.0
G1 X50.13 Y2.48 Z2.4 F960.0
G1 X49.63 Y2.13 Z2.4 F960.0
G1 X49.42 Y2.35 Z2.4 F960.0
G1 X48.78 Y2.13 Z2.4 F960.0
G1 X48.66 Y2.25 Z2.4 F960.0
G1 X47.93 Y2.13 Z2.4 F960.0
G1 X47.89 Y2.17 Z2.4 F960.0
;M103
G1 X49.7 Y8.01 Z2.4 F960.0
;M101
G1 X49.02 Y8.69 Z2.4 F960.0
G1 X48.55 Y8.31 Z2.4 F960.0
G1 X48.34 Y8.51 Z2.4 F960.0
;M103
G1 X8.07 Y53.87 Z2.4 F960.0
;M101
G1 X30.55 Y31.39 Z2.4 F960.0
G1 X32.12 Y28.98 Z2.4 F960.0
G1 X33.58 Y27.52 Z2.4 F960.0
G1 X32.84 Y27.41 Z2.4 F960.0
G1 X33.72 Y26.53 Z2.4 F960.0
G1 X33.17 Y26.23 Z2.4 F960.0
G1 X34.34 Y25.06 Z2.4 F960.0
G1 X33.43 Y25.12 Z2.4 F960.0
G1 X34.1 Y24.45 Z2.4 F960.0
G1 X33.53 Y24.17 Z2.4 F960.0
G1 X33.86 Y23.84 Z2.4 F960.0
G1 X33.63 Y23.23 Z2.4 F960.0
G1 X33.73 Y23.12 Z2.4 F960.0
G1 X33.63 Y22.37 Z2.4 F960.0
G1 X33.82 Y22.18 Z2.4 F960.0
G1 X33.63 Y21.52 Z2.4 F960.0
G1 X33.83 Y21.32 Z2.4 F960.0
G1 X33.63 Y20.68 Z2.4 F960.0
G1 X33.83 Y20.47 Z2.4 F960.0
G1 X33.63 Y19.83 Z2.4 F960.0
G1 X33.83 Y19.63 Z2.4 F960.0
G1 X33.63 Y18.98 Z2.4 F960.0
G1 X33.83 Y18.77 Z2.4 F960.0
G1 X33.63 Y18.13 Z2.4 F960.0
G1 X33.83 Y17.93 Z2.4 F960.0
G1 X33.63 Y17.28 Z2.4 F960.0
G1 X33.84 Y17.08 Z2.4 F960.0
G1 X33.63 Y16.43 Z2.4 F960.0
G1 X33.84 Y16.23 Z2.4 F960.0
G1 X33.63 Y15.59 Z2.4 F960.0
G1 X33.84 Y15.38 Z2.4 F960.0
G1 X33.63 Y14.74 Z2.4 F960.0
G1 X33.84 Y14.53 Z2.4 F960.0
G1 X33.63 Y13.89 Z2.4 F960.0
G1 X33.84 Y13.68 Z2.4 F960.0
G1 X33.63 Y13.04 Z2.4 F960.0
G1 X33.84 Y12.83 Z2.4 F960.0
G1 X33.63 Y12.19 Z2.4 F960.0
G1 X33.84 Y11.98 Z2.4 F960.0
G1 X33.63 Y11.34 Z2.4 F960.0
G1 X33.84 Y11.13 Z2.4 F960.0
G1 X33.63 Y10.49 Z2.4 F960.0
G1 X33.84 Y10.28 Z2.4 F960.0
G1 X33.63 Y9.65 Z2.4 F960.0
G1 X33.84 Y9.44 Z2.4 F960.0
G1 X33.63 Y8.8 Z2.4 F960.0
G1 X33.84 Y8.59 Z2.4 F960.0
G1 X33.63 Y7.95 Z2.4 F960.0
G1 X33.84 Y7.74 Z2.4 F960.0
G1 X33.63 Y7.1 Z2.4 F960.0
G1 X33.84 Y6.89 Z2.4 F960.0
G1 X33.63 Y6.25 Z2.4 F960.0
G1 X33.84 Y6.04 Z2.4 F960.0
G1 X33.63 Y5.4 Z2.4 F960.0
G1 X33.85 Y5.19 Z2.4 F960.0
G1 X33.63 Y4.55 Z2.4 F960.0
G1 X33.9 Y4.28 Z2.4 F960.0
G1 X33.63 Y3.71 Z2.4 F960.0
G1 X33.96 Y3.38 Z2.4 F960.0
G1 X33.63 Y2.86 Z2.4 F960.0
G1 X34.02 Y2.47 Z2.4 F960.0
;M103
G1 X32.58 Y29.36 Z2.4 F960.0
;M101
G1 X33.6 Y28.35 Z2.4 F960.0
G1 X33.71 Y29.08 Z2.4 F960.0
G1 X8.92 Y53.87 Z2.4 F960.0
G1 X9.77 Y53.87 Z2.4 F960.0
G1 X33.9 Y29.74 Z2.4 F960.0
G1 X34.15 Y30.34 Z2.4 F960.0
G1 X10.62 Y53.87 Z2.4 F960.0
G1 X11.47 Y53.87 Z2.4 F960.0
G1 X34.47 Y30.86 Z2.4 F960.0
G1 X34.84 Y31.34 Z2.4 F960.0
G1 X24.66 Y41.52 Z2.4 F960.0
G1 X25.84 Y41.2 Z2.4 F960.0
G1 X35.25 Y31.78 Z2.4 F960.0
G1 X35.71 Y32.18 Z2.4 F960.0
G1 X26.68 Y41.2 Z2.4 F960.0
G1 X27.39 Y41.35 Z2.4 F960.0
G1 X36.21 Y32.52 Z2.4 F960.0
G1 X36.75 Y32.83 Z2.4 F960.0
G1 X27.99 Y41.59 Z2.4 F960.0
G1 X28.51 Y41.92 Z2.4 F960.0
G1 X37.35 Y33.08 Z2.4 F960.0
G1 X38.0 Y33.28 Z2.4 F960.0
G1 X28.97 Y42.31 Z2.4 F960.0
G1 X29.36 Y42.77 Z2.4 F960.0
G1 X38.71 Y33.41 Z2.4 F960.0
G1 X39.54 Y33.44 Z2.4 F960.0
G1 X29.68 Y43.3 Z2.4 F960.0
G1 X29.92 Y43.91 Z2.4 F960.0
G1 X40.41 Y33.41 Z2.4 F960.0
G1 X41.52 Y33.16 Z2.4 F960.0
G1 X30.05 Y44.62 Z2.4 F960.0
G1 X30.05 Y45.47 Z2.4 F960.0
G1 X43.01 Y32.51 Z2.4 F960.0
G1 X43.59 Y32.77 Z2.4 F960.0
G1 X29.68 Y46.69 Z2.4 F960.0
;M103
G1 X27.94 Y48.43 Z2.4 F960.0
;M101
G1 X22.5 Y53.87 Z2.4 F960.0
G1 X21.65 Y53.87 Z2.4 F960.0
G1 X26.72 Y48.8 Z2.4 F960.0
G1 X25.87 Y48.8 Z2.4 F960.0
G1 X20.8 Y53.87 Z2.4 F960.0
G1 X19.95 Y53.87 Z2.4 F960.0
G1 X25.16 Y48.67 Z2.4 F960.0
G1 X24.55 Y48.43 Z2.4 F960.0
G1 X19.1 Y53.87 Z2.4 F960.0
G1 X18.26 Y53.87 Z2.4 F960.0
G1 X24.02 Y48.11 Z2.4 F960.0
G1 X23.56 Y47.72 Z2.4 F960.0
G1 X17.41 Y53.87 Z2.4 F960.0
G1 X16.56 Y53.87 Z2.4 F960.0
G1 X23.17 Y47.26 Z2.4 F960.0
G1 X22.84 Y46.74 Z2.4 F960.0
G1 X15.71 Y53.87 Z2.4 F960.0
G1 X14.86 Y53.87 Z2.4 F960.0
G1 X22.6 Y46.14 Z2.4 F960.0
G1 X22.45 Y45.43 Z2.4 F960.0
G1 X14.01 Y53.87 Z2.4 F960.0
G1 X13.16 Y53.87 Z2.4 F960.0
G1 X22.45 Y44.59 Z2.4 F960.0
G1 X22.77 Y43.41 Z2.4 F960.0
G1 X12.32 Y53.87 Z2.4 F960.0
;M103
G1 X10.61 Y48.78 Z2.4 F960.0
;M101
G1 X5.53 Y53.87 Z2.4 F960.0
G1 X4.68 Y53.87 Z2.4 F960.0
G1 X9.73 Y48.82 Z2.4 F960.0
G1 X9.01 Y48.69 Z2.4 F960.0
G1 X3.83 Y53.87 Z2.4 F960.0
G1 X2.98 Y53.87 Z2.4 F960.0
G1 X8.39 Y48.47 Z2.4 F960.0
G1 X7.85 Y48.16 Z2.4 F960.0
G1 X2.13 Y53.87 Z2.4 F960.0
G1 X2.13 Y53.02 Z2.4 F960.0
G1 X7.37 Y47.78 Z2.4 F960.0
G1 X6.97 Y47.34 Z2.4 F960.0
G1 X2.13 Y52.18 Z2.4 F960.0
G1 X2.13 Y51.33 Z2.4 F960.0
G1 X6.63 Y46.83 Z2.4 F960.0
G1 X6.37 Y46.24 Z2.4 F960.0
G1 X2.13 Y50.48 Z2.4 F960.0
G1 X2.13 Y49.63 Z2.4 F960.0
G1 X6.21 Y45.55 Z2.4 F960.0
G1 X6.19 Y44.73 Z2.4 F960.0
G1 X2.13 Y48.78 Z2.4 F960.0
G1 X2.13 Y47.93 Z2.4 F960.0
G1 X6.41 Y43.65 Z2.4 F960.0
;M103
G1 X8.65 Y41.41 Z2.4 F960.0
;M101
G1 X13.93 Y36.13 Z2.4 F960.0
G1 X14.78 Y36.13 Z2.4 F960.0
G1 X9.73 Y41.19 Z2.4 F960.0
G1 X10.55 Y41.21 Z2.4 F960.0
G1 X15.63 Y36.13 Z2.4 F960.0
G1 X16.48 Y36.13 Z2.4 F960.0
G1 X11.24 Y41.37 Z2.4 F960.0
G1 X11.83 Y41.63 Z2.4 F960.0
G1 X17.33 Y36.13 Z2.4 F960.0
G1 X18.18 Y36.13 Z2.4 F960.0
G1 X12.34 Y41.97 Z2.4 F960.0
G1 X12.78 Y42.37 Z2.4 F960.0
G1 X19.02 Y36.13 Z2.4 F960.0
G1 X19.87 Y36.13 Z2.4 F960.0
G1 X13.16 Y42.85 Z2.4 F960.0
G1 X13.47 Y43.39 Z2.4 F960.0
G1 X20.73 Y36.13 Z2.4 F960.0
G1 X21.67 Y36.03 Z2.4 F960.0
G1 X13.69 Y44.01 Z2.4 F960.0
G1 X13.82 Y44.73 Z2.4 F960.0
G1 X22.62 Y35.93 Z2.4 F960.0
G1 X23.73 Y35.67 Z2.4 F960.0
G1 X13.78 Y45.61 Z2.4 F960.0
G1 X13.32 Y46.93 Z2.4 F960.0
;M103
G1 X14.3 Y45.94 Z2.4 F960.0
;M101
G1 X24.91 Y35.34 Z2.4 F960.0
;M103
G1 X26.48 Y34.62 Z2.4 F960.0
;M101
G1 X7.22 Y53.87 Z2.4 F960.0
G1 X6.38 Y53.87 Z2.4 F960.0
G1 X11.93 Y48.32 Z2.4 F960.0
;M103
G1 X13.09 Y36.13 Z2.4 F960.0
;M101
G1 X2.13 Y47.09 Z2.4 F960.0
G1 X2.13 Y46.24 Z2.4 F960.0
G1 X12.24 Y36.13 Z2.4 F960.0
G1 X11.39 Y36.13 Z2.4 F960.0
G1 X2.13 Y45.39 Z2.4 F960.0
G1 X2.13 Y44.54 Z2.4 F960.0
G1 X10.54 Y36.13 Z2.4 F960.0
G1 X9.69 Y36.13 Z2.4 F960.0
G1 X2.13 Y43.69 Z2.4 F960.0
G1 X2.13 Y42.84 Z2.4 F960.0
G1 X8.84 Y36.13 Z2.4 F960.0
G1 X7.99 Y36.13 Z2.4 F960.0
G1 X2.13 Y41.99 Z2.4 F960.0
G1 X2.13 Y41.15 Z2.4 F960.0
G1 X7.15 Y36.13 Z2.4 F960.0
G1 X6.3 Y36.13 Z2.4 F960.0
G1 X2.13 Y40.3 Z2.4 F960.0
G1 X2.13 Y39.45 Z2.4 F960.0
G1 X5.45 Y36.13 Z2.4 F960.0
G1 X4.6 Y36.13 Z2.4 F960.0
G1 X2.13 Y38.6 Z2.4 F960.0
G1 X2.13 Y37.75 Z2.4 F960.0
G1 X3.75 Y36.13 Z2.4 F960.0
G1 X2.9 Y36.13 Z2.4 F960.0
G1 X2.13 Y36.9 Z2.4 F960.0
;M103
G1 X51.37 Y30.09 Z2.4 F960.0
;M101
G1 X27.59 Y53.87 Z2.4 F960.0
;M103
G1 X51.37 Y53.85 Z2.4 F960.0
;M101
G1 X51.35 Y53.87 Z2.4 F960.0
G1 X50.5 Y53.87 Z2.4 F960.0
G1 X51.37 Y53.0 Z2.4 F960.0
G1 X51.37 Y52.15 Z2.4 F960.0
G1 X49.65 Y53.87 Z2.4 F960.0
G1 X48.8 Y53.87 Z2.4 F960.0
G1 X51.37 Y51.3 Z2.4 F960.0
G1 X51.37 Y50.45 Z2.4 F960.0
G1 X47.95 Y53.87 Z2.4 F960.0
G1 X47.11 Y53.87 Z2.4 F960.0
G1 X51.37 Y49.61 Z2.4 F960.0
G1 X51.37 Y48.76 Z2.4 F960.0
G1 X46.26 Y53.87 Z2.4 F960.0
G1 X45.41 Y53.87 Z2.4 F960.0
G1 X51.37 Y47.91 Z2.4 F960.0
G1 X51.37 Y47.06 Z2.4 F960.0
G1 X44.56 Y53.87 Z2.4 F960.0
G1 X43.71 Y53.87 Z2.4 F960.0
G1 X51.37 Y46.21 Z2.4 F960.0
G1 X51.37 Y45.36 Z2.4 F960.0
G1 X42.86 Y53.87 Z2.4 F960.0
G1 X42.01 Y53.87 Z2.4 F960.0
G1 X51.37 Y44.51 Z2.4 F960.0
G1 X51.37 Y43.67 Z2.4 F960.0
G1 X41.17 Y53.87 Z2.4 F960.0
G1 X40.32 Y53.87 Z2.4 F960.0
G1 X51.37 Y42.82 Z2.4 F960.0
G1 X51.37 Y41.97 Z2.4 F960.0
G1 X39.47 Y53.87 Z2.4 F960.0
G1 X38.62 Y53.87 Z2.4 F960.0
G1 X43.95 Y48.54 Z2.4 F960.0
G1 X42.83 Y48.81 Z2.4 F960.0
G1 X37.77 Y53.87 Z2.4 F960.0
G1 X36.92 Y53.87 Z2.4 F960.0
G1 X42.0 Y48.79 Z2.4 F960.0
G1 X41.31 Y48.64 Z2.4 F960.0
G1 X36.07 Y53.87 Z2.4 F960.0
G1 X35.23 Y53.87 Z2.4 F960.0
G1 X40.71 Y48.38 Z2.4 F960.0
G1 X40.19 Y48.05 Z2.4 F960.0
G1 X34.38 Y53.87 Z2.4 F960.0
G1 X33.53 Y53.87 Z2.4 F960.0
G1 X39.75 Y47.65 Z2.4 F960.0
G1 X39.36 Y47.19 Z2.4 F960.0
G1 X32.68 Y53.87 Z2.4 F960.0
G1 X31.83 Y53.87 Z2.4 F960.0
G1 X39.05 Y46.65 Z2.4 F960.0
G1 X38.82 Y46.03 Z2.4 F960.0
G1 X30.98 Y53.87 Z2.4 F960.0
G1 X30.13 Y53.87 Z2.4 F960.0
G1 X38.69 Y45.32 Z2.4 F960.0
G1 X38.71 Y44.45 Z2.4 F960.0
G1 X29.29 Y53.87 Z2.4 F960.0
G1 X28.44 Y53.87 Z2.4 F960.0
G1 X51.37 Y30.94 Z2.4 F960.0
G1 X51.37 Y31.79 Z2.4 F960.0
G1 X41.95 Y41.21 Z2.4 F960.0
G1 X42.82 Y41.19 Z2.4 F960.0
G1 X51.37 Y32.63 Z2.4 F960.0
G1 X51.37 Y33.48 Z2.4 F960.0
G1 X43.53 Y41.32 Z2.4 F960.0
G1 X44.15 Y41.55 Z2.4 F960.0
G1 X51.37 Y34.33 Z2.4 F960.0
G1 X51.37 Y35.18 Z2.4 F960.0
G1 X44.69 Y41.86 Z2.4 F960.0
G1 X45.15 Y42.25 Z2.4 F960.0
G1 X51.37 Y36.03 Z2.4 F960.0
G1 X51.37 Y36.88 Z2.4 F960.0
G1 X45.55 Y42.69 Z2.4 F960.0
G1 X45.88 Y43.21 Z2.4 F960.0
G1 X51.37 Y37.73 Z2.4 F960.0
G1 X51.37 Y38.57 Z2.4 F960.0
G1 X46.14 Y43.81 Z2.4 F960.0
G1 X46.29 Y44.5 Z2.4 F960.0
G1 X51.37 Y39.42 Z2.4 F960.0
G1 X51.37 Y40.27 Z2.4 F960.0
G1 X46.31 Y45.33 Z2.4 F960.0
G1 X46.04 Y46.45 Z2.4 F960.0
G1 X51.37 Y41.12 Z2.4 F960.0
;M103
G1 X39.32 Y28.42 Z2.8 F960.0
;M101
G1 X39.13 Y28.34 Z2.8 F960.0
G1 X38.96 Y28.18 Z2.8 F960.0
G1 X38.9 Y28.07 Z2.8 F960.0
G1 X38.88 Y27.93 Z2.8 F960.0
G1 X38.93 Y27.68 Z2.8 F960.0
G1 X39.11 Y27.49 Z2.8 F960.0
G1 X39.85 Y27.27 Z2.8 F960.0
G1 X40.33 Y27.93 Z2.8 F960.0
G1 X40.26 Y28.1 Z2.8 F960.0
G1 X40.0 Y28.33 Z2.8 F960.0
;M103
G1 X40.69 Y25.65 Z2.8 F960.0
;M101
G1 X40.65 Y23.74 Z2.8 F960.0
G1 X39.46 Y22.63 Z2.8 F960.0
G1 X39.34 Y22.19 Z2.8 F960.0
G1 X39.53 Y21.2 Z2.8 F960.0
G1 X40.09 Y20.94 Z2.8 F960.0
G1 X41.3 Y20.8 Z2.8 F960.0
G1 X41.92 Y21.36 Z2.8 F960.0
G1 X42.49 Y21.69 Z2.8 F960.0
G1 X43.1 Y21.92 Z2.8 F960.0
G1 X43.83 Y22.07 Z2.8 F960.0
G1 X44.6 Y22.11 Z2.8 F960.0
G1 X45.57 Y22.04 Z2.8 F960.0
G1 X46.27 Y21.87 Z2.8 F960.0
G1 X46.9 Y21.61 Z2.8 F960.0
G1 X47.87 Y20.93 Z2.8 F960.0
G1 X48.25 Y20.5 Z2.8 F960.0
G1 X48.73 Y19.59 Z2.8 F960.0
G1 X48.92 Y18.79 Z2.8 F960.0
G1 X49.02 Y14.1 Z2.8 F960.0
G1 X47.51 Y14.09 Z2.8 F960.0
G1 X47.52 Y13.67 Z2.8 F960.0
G1 X49.02 Y13.45 Z2.8 F960.0
G1 X49.02 Y9.83 Z2.8 F960.0
G1 X44.34 Y8.61 Z2.8 F960.0
G1 X44.34 Y8.26 Z2.8 F960.0
G1 X49.02 Y7.03 Z2.8 F960.0
G1 X49.02 Y3.41 Z2.8 F960.0
G1 X35.19 Y1.54 Z2.8 F960.0
G1 X34.95 Y5.26 Z2.8 F960.0
G1 X37.41 Y5.62 Z2.8 F960.0
G1 X37.42 Y6.06 Z2.8 F960.0
G1 X34.98 Y6.7 Z2.8 F960.0
G1 X34.98 Y10.15 Z2.8 F960.0
G1 X37.42 Y10.8 Z2.8 F960.0
G1 X37.41 Y11.24 Z2.8 F960.0
G1 X34.98 Y11.6 Z2.8 F960.0
G1 X34.98 Y17.96 Z2.8 F960.0
G1 X36.49 Y17.9 Z2.8 F960.0
G1 X36.4 Y18.25 Z2.8 F960.0
G1 X34.98 Y18.88 Z2.8 F960.0
G1 X34.98 Y21.65 Z2.8 F960.0
G1 X34.81 Y22.91 Z2.8 F960.0
G1 X34.93 Y23.59 Z2.8 F960.0
G1 X35.24 Y24.13 Z2.8 F960.0
G1 X35.52 Y24.39 Z2.8 F960.0
G1 X35.66 Y25.11 Z2.8 F960.0
G1 X35.11 Y25.88 Z2.8 F960.0
G1 X34.88 Y26.44 Z2.8 F960.0
G1 X34.73 Y27.06 Z2.8 F960.0
G1 X34.67 Y27.8 Z2.8 F960.0
G1 X34.73 Y28.55 Z2.8 F960.0
G1 X35.11 Y29.78 Z2.8 F960.0
G1 X35.49 Y30.4 Z2.8 F960.0
G1 X36.49 Y31.39 Z2.8 F960.0
G1 X37.13 Y31.79 Z2.8 F960.0
G1 X37.92 Y32.12 Z2.8 F960.0
G1 X38.73 Y32.3 Z2.8 F960.0
G1 X40.11 Y32.34 Z2.8 F960.0
G1 X40.87 Y32.2 Z2.8 F960.0
G1 X41.5 Y31.98 Z2.8 F960.0
G1 X42.43 Y31.42 Z2.8 F960.0
G1 X43.03 Y31.28 Z2.8 F960.0
G1 X43.9 Y31.71 Z2.8 F960.0
G1 X44.48 Y31.85 Z2.8 F960.0
G1 X45.16 Y31.9 Z2.8 F960.0
G1 X45.86 Y31.85 Z2.8 F960.0
G1 X46.49 Y31.7 Z2.8 F960.0
G1 X47.09 Y31.47 Z2.8 F960.0
G1 X47.74 Y31.07 Z2.8 F960.0
G1 X48.53 Y30.31 Z2.8 F960.0
G1 X48.91 Y29.72 Z2.8 F960.0
G1 X49.28 Y28.63 Z2.8 F960.0
G1 X49.32 Y27.58 Z2.8 F960.0
G1 X49.21 Y26.96 Z2.8 F960.0
G1 X49.0 Y26.37 Z2.8 F960.0
G1 X48.32 Y25.33 Z2.8 F960.0
G1 X47.46 Y24.61 Z2.8 F960.0
G1 X46.13 Y24.03 Z2.8 F960.0
G1 X44.22 Y23.86 Z2.8 F960.0
G1 X44.11 Y25.5 Z2.8 F960.0
G1 X43.64 Y26.01 Z2.8 F960.0
G1 X41.06 Y26.01 Z2.8 F960.0
;M103
G1 X27.71 Y42.71 Z2.8 F960.0
;M101
G1 X27.18 Y42.44 Z2.8 F960.0
G1 X26.72 Y42.32 Z2.8 F960.0
G1 X26.25 Y42.28 Z2.8 F960.0
G1 X25.78 Y42.32 Z2.8 F960.0
G1 X25.32 Y42.44 Z2.8 F960.0
G1 X24.89 Y42.64 Z2.8 F960.0
G1 X24.5 Y42.91 Z2.8 F960.0
G1 X24.16 Y43.25 Z2.8 F960.0
G1 X23.89 Y43.64 Z2.8 F960.0
G1 X23.69 Y44.07 Z2.8 F960.0
G1 X23.57 Y44.53 Z2.8 F960.0
G1 X23.53 Y45.0 Z2.8 F960.0
G1 X23.57 Y45.47 Z2.8 F960.0
G1 X23.69 Y45.93 Z2.8 F960.0
G1 X23.89 Y46.36 Z2.8 F960.0
G1 X24.16 Y46.75 Z2.8 F960.0
G1 X24.5 Y47.09 Z2.8 F960.0
G1 X24.89 Y47.36 Z2.8 F960.0
G1 X25.32 Y47.56 Z2.8 F960.0
G1 X25.78 Y47.68 Z2.8 F960.0
G1 X26.25 Y47.72 Z2.8 F960.0
G1 X26.72 Y47.68 Z2.8 F960.0
G1 X27.18 Y47.56 Z2.8 F960.0
G1 X27.61 Y47.36 Z2.8 F960.0
G1 X28.0 Y47.09 Z2.8 F960.0
G1 X28.34 Y46.75 Z2.8 F960.0
G1 X28.61 Y46.36 Z2.8 F960.0
G1 X28.81 Y45.93 Z2.8 F960.0
G1 X28.93 Y45.47 Z2.8 F960.0
G1 X28.97 Y45.0 Z2.8 F960.0
G1 X28.93 Y44.53 Z2.8 F960.0
G1 X28.81 Y44.07 Z2.8 F960.0
G1 X28.61 Y43.64 Z2.8 F960.0
G1 X28.26 Y43.17 Z2.8 F960.0
;M103
G1 X39.79 Y44.89 Z2.8 F960.0
;M101
G1 X39.82 Y45.47 Z2.8 F960.0
G1 X39.94 Y45.93 Z2.8 F960.0
G1 X40.14 Y46.36 Z2.8 F960.0
G1 X40.41 Y46.75 Z2.8 F960.0
G1 X40.75 Y47.09 Z2.8 F960.0
G1 X41.14 Y47.36 Z2.8 F960.0
G1 X41.57 Y47.56 Z2.8 F960.0
G1 X42.03 Y47.68 Z2.8 F960.0
G1 X42.5 Y47.72 Z2.8 F960.0
G1 X42.97 Y47.68 Z2.8 F960.0
G1 X43.43 Y47.56 Z2.8 F960.0
G1 X43.86 Y47.36 Z2.8 F960.0
G1 X44.25 Y47.09 Z2.8 F960.0
G1 X44.59 Y46.75 Z2.8 F960.0
G1 X44.86 Y46.36 Z2.8 F960.0
G1 X45.06 Y45.93 Z2.8 F960.0
G1 X45.18 Y45.47 Z2.8 F960.0
G1 X45.22 Y45.0 Z2.8 F960.0
G1 X45.18 Y44.53 Z2.8 F960.0
G1 X45.06 Y44.07 Z2.8 F960.0
G1 X44.86 Y43.64 Z2.8 F960.0
G1 X44.59 Y43.25 Z2.8 F960.0
G1 X44.25 Y42.91 Z2.8 F960.0
G1 X43.86 Y42.64 Z2.8 F960.0
G1 X43.43 Y42.44 Z2.8 F960.0
G1 X42.97 Y42.32 Z2.8 F960.0
G1 X42.5 Y42.28 Z2.8 F960.0
G1 X42.03 Y42.32 Z2.8 F960.0
G1 X41.57 Y42.44 Z2.8 F960.0
G1 X41.14 Y42.64 Z2.8 F960.0
G1 X40.75 Y42.91 Z2.8 F960.0
G1 X40.41 Y43.25 Z2.8 F960.0
G1 X40.14 Y43.64 Z2.8 F960.0
G1 X39.91 Y44.18 Z2.8 F960.0
;M103
G1 X12.69 Y44.64 Z2.8 F960.0
;M101
G1 X12.56 Y44.07 Z2.8 F960.0
G1 X12.36 Y43.64 Z2.8 F960.0
G1 X12.09 Y43.25 Z2.8 F960.0
G1 X11.75 Y42.91 Z2.8 F960.0
G1 X11.36 Y42.64 Z2.8 F960.0
G1 X10.93 Y42.44 Z2.8 F960.0
G1 X10.47 Y42.32 Z2.8 F960.0
G1 X10.0 Y42.28 Z2.8 F960.0
G1 X9.53 Y42.32 Z2.8 F960.0
G1 X9.07 Y42.44 Z2.8 F960.0
G1 X8.64 Y42.64 Z2.8 F960.0
G1 X8.25 Y42.91 Z2.8 F960.0
G1 X7.91 Y43.25 Z2.8 F960.0
G1 X7.64 Y43.64 Z2.8 F960.0
G1 X7.44 Y44.07 Z2.8 F960.0
G1 X7.32 Y44.53 Z2.8 F960.0
G1 X7.28 Y45.0 Z2.8 F960.0
G1 X7.32 Y45.47 Z2.8 F960.0
G1 X7.44 Y45.93 Z2.8 F960.0
G1 X7.64 Y46.36 Z2.8 F960.0
G1 X7.91 Y46.75 Z2.8 F960.0
G1 X8.25 Y47.09 Z2.8 F960.0
G1 X8.64 Y47.36 Z2.8 F960.0
G1 X9.07 Y47.56 Z2.8 F960.0
G1 X9.53 Y47.68 Z2.8 F960.0
G1 X10.0 Y47.72 Z2.8 F960.0
G1 X10.47 Y47.68 Z2.8 F960.0
G1 X10.93 Y47.56 Z2.8 F960.0
G1 X11.36 Y47.36 Z2.8 F960.0
G1 X11.75 Y47.09 Z2.8 F960.0
G1 X12.09 Y46.75 Z2.8 F960.0
G1 X12.36 Y46.36 Z2.8 F960.0
G1 X12.56 Y45.93 Z2.8 F960.0
G1 X12.69 Y45.36 Z2.8 F960.0
;M103
G1 X12.36 Y54.98 Z2.8 F960.0
;M101
G1 X1.02 Y54.98 Z2.8 F960.0
G1 X1.02 Y35.02 Z2.8 F960.0
G1 X20.64 Y35.02 Z2.8 F960.0
G1 X22.66 Y34.81 Z2.8 F960.0
G1 X24.65 Y34.26 Z2.8 F960.0
G1 X26.52 Y33.37 Z2.8 F960.0
G1 X28.21 Y32.17 Z2.8 F960.0
G1 X29.67 Y30.71 Z2.8 F960.0
G1 X30.87 Y29.02 Z2.8 F960.0
G1 X31.76 Y27.15 Z2.8 F960.0
G1 X32.31 Y25.16 Z2.8 F960.0
G1 X32.52 Y23.14 Z2.8 F960.0
G1 X32.52 Y1.02 Z2.8 F960.0
G1 X52.48 Y1.02 Z2.8 F960.0
G1 X52.48 Y54.98 Z2.8 F960.0
G1 X13.08 Y54.98 Z2.8 F960.0
G1 X12.36 Y55.64 Z2.8 F960.0
G1 X0.36 Y55.64 Z2.8 F960.0
G1 X0.36 Y34.36 Z2.8 F960.0
G1 X20.6 Y34.36 Z2.8 F960.0
G1 X22.54 Y34.16 Z2.8 F960.0
G1 X24.42 Y33.63 Z2.8 F960.0
G1 X26.19 Y32.8 Z2.8 F960.0
G1 X27.78 Y31.67 Z2.8 F960.0
G1 X29.17 Y30.28 Z2.8 F960.0
G1 X30.3 Y28.69 Z2.8 F960.0
G1 X31.13 Y26.92 Z2.8 F960.0
G1 X31.66 Y25.04 Z2.8 F960.0
G1 X31.86 Y23.1 Z2.8 F960.0
G1 X31.86 Y0.36 Z2.8 F960.0
G1 X53.14 Y0.36 Z2.8 F960.0
G1 X53.14 Y55.64 Z2.8 F960.0
G1 X13.08 Y55.64 Z2.8 F960.0
;M103
G1 X10.71 Y46.94 Z2.8 F960.0
;M101
G1 X11.33 Y46.58 Z2.8 F960.0
G1 X11.79 Y46.03 Z2.8 F960.0
G1 X12.03 Y45.36 Z2.8 F960.0
G1 X12.03 Y44.64 Z2.8 F960.0
G1 X11.79 Y43.97 Z2.8 F960.0
G1 X11.33 Y43.42 Z2.8 F960.0
G1 X10.71 Y43.06 Z2.8 F960.0
G1 X10.0 Y42.94 Z2.8 F960.0
G1 X9.3 Y43.06 Z2.8 F960.0
G1 X8.68 Y43.42 Z2.8 F960.0
G1 X8.22 Y43.97 Z2.8 F960.0
G1 X7.97 Y44.64 Z2.8 F960.0
G1 X7.97 Y45.36 Z2.8 F960.0
G1 X8.22 Y46.03 Z2.8 F960.0
G1 X8.68 Y46.58 Z2.8 F960.0
G1 X9.3 Y46.94 Z2.8 F960.0
G1 X10.0 Y47.06 Z2.8 F960.0
;M103
G1 X24.31 Y45.71 Z2.8 F960.0
;M101
G1 X24.67 Y46.33 Z2.8 F960.0
G1 X25.22 Y46.79 Z2.8 F960.0
G1 X25.89 Y47.03 Z2.8 F960.0
G1 X26.61 Y47.03 Z2.8 F960.0
G1 X27.28 Y46.79 Z2.8 F960.0
G1 X27.83 Y46.33 Z2.8 F960.0
G1 X28.19 Y45.71 Z2.8 F960.0
G1 X28.31 Y45.0 Z2.8 F960.0
G1 X28.19 Y44.3 Z2.8 F960.0
G1 X27.83 Y43.68 Z2.8 F960.0
G1 X27.28 Y43.22 Z2.8 F960.0
G1 X26.61 Y42.97 Z2.8 F960.0
G1 X25.89 Y42.97 Z2.8 F960.0
G1 X25.22 Y43.22 Z2.8 F960.0
G1 X24.67 Y43.68 Z2.8 F960.0
G1 X24.31 Y44.3 Z2.8 F960.0
G1 X24.19 Y45.0 Z2.8 F960.0
;M103
G1 X40.47 Y45.36 Z2.8 F960.0
;M101
G1 X40.72 Y46.03 Z2.8 F960.0
G1 X41.18 Y46.58 Z2.8 F960.0
G1 X41.8 Y46.94 Z2.8 F960.0
G1 X42.5 Y47.06 Z2.8 F960.0
G1 X43.21 Y46.94 Z2.8 F960.0
G1 X43.83 Y46.58 Z2.8 F960.0
G1 X44.29 Y46.03 Z2.8 F960.0
G1 X44.53 Y45.36 Z2.8 F960.0
G1 X44.53 Y44.64 Z2.8 F960.0
G1 X44.29 Y43.97 Z2.8 F960.0
G1 X43.83 Y43.42 Z2.8 F960.0
G1 X43.21 Y43.06 Z2.8 F960.0
G1 X42.5 Y42.94 Z2.8 F960.0
G1 X41.8 Y43.06 Z2.8 F960.0
G1 X41.18 Y43.42 Z2.8 F960.0
G1 X40.72 Y43.97 Z2.8 F960.0
G1 X40.47 Y44.64 Z2.8 F960.0
;M103
G1 X40.41 Y31.62 Z2.8 F960.0
;M101
G1 X41.24 Y31.38 Z2.8 F960.0
G1 X42.14 Y30.82 Z2.8 F960.0
G1 X42.62 Y30.25 Z2.8 F960.0
G1 X42.83 Y30.26 Z2.8 F960.0
G1 X43.18 Y30.59 Z2.8 F960.0
G1 X43.63 Y30.88 Z2.8 F960.0
G1 X44.59 Y31.19 Z2.8 F960.0
G1 X45.76 Y31.19 Z2.8 F960.0
G1 X46.79 Y30.87 Z2.8 F960.0
G1 X47.33 Y30.54 Z2.8 F960.0
G1 X48.02 Y29.88 Z2.8 F960.0
G1 X48.5 Y29.01 Z2.8 F960.0
G1 X48.62 Y28.53 Z2.8 F960.0
G1 X48.65 Y27.63 Z2.8 F960.0
G1 X48.4 Y26.64 Z2.8 F960.0
G1 X47.84 Y25.79 Z2.8 F960.0
G1 X47.09 Y25.16 Z2.8 F960.0
G1 X45.97 Y24.68 Z2.8 F960.0
G1 X44.78 Y24.52 Z2.8 F960.0
G1 X44.72 Y26.97 Z2.8 F960.0
G1 X45.22 Y27.16 Z2.8 F960.0
G1 X45.5 Y27.36 Z2.8 F960.0
G1 X45.7 Y27.61 Z2.8 F960.0
G1 X45.78 Y27.82 Z2.8 F960.0
G1 X45.76 Y28.18 Z2.8 F960.0
G1 X45.67 Y28.37 Z2.8 F960.0
G1 X45.52 Y28.52 Z2.8 F960.0
G1 X45.32 Y28.62 Z2.8 F960.0
G1 X45.02 Y28.67 Z2.8 F960.0
G1 X44.81 Y28.64 Z2.8 F960.0
G1 X44.54 Y28.52 Z2.8 F960.0
G1 X44.29 Y28.32 Z2.8 F960.0
G1 X44.09 Y27.99 Z2.8 F960.0
G1 X43.85 Y26.67 Z2.8 F960.0
G1 X41.22 Y26.67 Z2.8 F960.0
G1 X41.07 Y27.87 Z2.8 F960.0
G1 X40.83 Y28.44 Z2.8 F960.0
G1 X40.29 Y28.96 Z2.8 F960.0
G1 X39.86 Y29.11 Z2.8 F960.0
G1 X39.15 Y29.07 Z2.8 F960.0
G1 X38.76 Y28.89 Z2.8 F960.0
G1 X38.43 Y28.59 Z2.8 F960.0
G1 X38.27 Y28.28 Z2.8 F960.0
G1 X38.21 Y27.92 Z2.8 F960.0
G1 X38.31 Y27.41 Z2.8 F960.0
G1 X38.5 Y27.13 Z2.8 F960.0
G1 X38.78 Y26.91 Z2.8 F960.0
G1 X39.36 Y26.69 Z2.8 F960.0
G1 X40.05 Y26.56 Z2.8 F960.0
G1 X40.01 Y24.06 Z2.8 F960.0
G1 X38.79 Y24.15 Z2.8 F960.0
G1 X37.39 Y24.59 Z2.8 F960.0
G1 X36.83 Y24.92 Z2.8 F960.0
G1 X36.34 Y25.32 Z2.8 F960.0
G1 X35.7 Y26.19 Z2.8 F960.0
G1 X35.38 Y27.17 Z2.8 F960.0
G1 X35.33 Y27.8 Z2.8 F960.0
G1 X35.38 Y28.45 Z2.8 F960.0
G1 X35.7 Y29.48 Z2.8 F960.0
G1 X36.02 Y30.01 Z2.8 F960.0
G1 X36.89 Y30.86 Z2.8 F960.0
G1 X37.44 Y31.2 Z2.8 F960.0
G1 X38.12 Y31.49 Z2.8 F960.0
G1 X38.82 Y31.65 Z2.8 F960.0
G1 X39.7 Y31.67 Z2.8 F960.0
;M103
G1 X38.46 Y23.79 Z2.8 F960.0
;M101
G1 X38.56 Y23.7 Z2.8 F960.0
G1 X38.75 Y23.35 Z2.8 F960.0
G1 X38.83 Y22.92 Z2.8 F960.0
G1 X38.79 Y22.62 Z2.8 F960.0
G1 X38.66 Y22.28 Z2.8 F960.0
G1 X38.39 Y21.93 Z2.8 F960.0
G1 X37.98 Y21.65 Z2.8 F960.0
G1 X37.62 Y21.54 Z2.8 F960.0
G1 X37.48 Y21.36 Z2.8 F960.0
G1 X41.32 Y19.65 Z2.8 F960.0
G1 X41.59 Y20.13 Z2.8 F960.0
G1 X41.93 Y20.51 Z2.8 F960.0
G1 X42.3 Y20.82 Z2.8 F960.0
G1 X42.78 Y21.09 Z2.8 F960.0
G1 X43.29 Y21.28 Z2.8 F960.0
G1 X43.92 Y21.41 Z2.8 F960.0
G1 X44.59 Y21.45 Z2.8 F960.0
G1 X45.47 Y21.38 Z2.8 F960.0
G1 X46.06 Y21.24 Z2.8 F960.0
G1 X46.6 Y21.01 Z2.8 F960.0
G1 X47.04 Y20.75 Z2.8 F960.0
G1 X47.41 Y20.45 Z2.8 F960.0
G1 X47.72 Y20.1 Z2.8 F960.0
G1 X47.94 Y19.75 Z2.8 F960.0
G1 X48.1 Y19.38 Z2.8 F960.0
G1 X48.26 Y18.7 Z2.8 F960.0
G1 X48.36 Y14.74 Z2.8 F960.0
G1 X35.64 Y14.73 Z2.8 F960.0
G1 X35.64 Y17.3 Z2.8 F960.0
G1 X40.07 Y17.3 Z2.8 F960.0
G1 X40.07 Y17.33 Z2.8 F960.0
G1 X35.64 Y19.31 Z2.8 F960.0
G1 X35.64 Y21.67 Z2.8 F960.0
G1 X35.75 Y22.13 Z2.8 F960.0
G1 X35.56 Y22.47 Z2.8 F960.0
G1 X35.48 Y22.91 Z2.8 F960.0
G1 X35.56 Y23.36 Z2.8 F960.0
G1 X35.76 Y23.71 Z2.8 F960.0
G1 X36.11 Y24.03 Z2.8 F960.0
G1 X36.59 Y24.27 Z2.8 F960.0
G1 X36.99 Y24.32 Z2.8 F960.0
;M103
G1 X43.77 Y18.02 Z2.8 F960.0
;M101
G1 X43.75 Y17.29 Z2.8 F960.0
G1 X45.49 Y17.3 Z2.8 F960.0
G1 X45.39 Y18.42 Z2.8 F960.0
G1 X45.3 Y18.59 Z2.8 F960.0
G1 X45.14 Y18.74 Z2.8 F960.0
G1 X44.78 Y18.87 Z2.8 F960.0
G1 X44.24 Y18.84 Z2.8 F960.0
G1 X43.99 Y18.69 Z2.8 F960.0
;M103
G1 X38.49 Y14.31 Z2.8 F960.0
;M101
G1 X48.36 Y12.88 Z2.8 F960.0
G1 X48.36 Y10.34 Z2.8 F960.0
G1 X41.19 Y8.47 Z2.8 F960.0
G1 X41.19 Y8.4 Z2.8 F960.0
G1 X48.36 Y6.52 Z2.8 F960.0
G1 X48.36 Y3.98 Z2.8 F960.0
G1 X35.69 Y2.15 Z2.8 F960.0
G1 X35.64 Y4.69 Z2.8 F960.0
G1 X41.54 Y5.57 Z2.8 F960.0
G1 X41.57 Y5.67 Z2.8 F960.0
G1 X35.64 Y7.21 Z2.8 F960.0
G1 X35.64 Y9.65 Z2.8 F960.0
G1 X41.57 Y11.19 Z2.8 F960.0
G1 X41.54 Y11.29 Z2.8 F960.0
G1 X35.64 Y12.17 Z2.8 F960.0
G1 X35.68 Y14.3 Z2.8 F960.0
;M103
G1 X34.37 Y23.34 Z2.8 F960.0
;M101
G1 X33.03 Y22.0 Z2.8 F960.0
G1 X33.03 Y21.15 Z2.8 F960.0
G1 X34.35 Y22.48 Z2.8 F960.0
G1 X34.46 Y21.73 Z2.8 F960.0
G1 X33.03 Y20.3 Z2.8 F960.0
G1 X33.03 Y19.45 Z2.8 F960.0
G1 X34.47 Y20.89 Z2.8 F960.0
G1 X34.47 Y20.05 Z2.8 F960.0
G1 X33.03 Y18.61 Z2.8 F960.0
G1 X33.03 Y17.76 Z2.8 F960.0
G1 X34.47 Y19.2 Z2.8 F960.0
G1 X34.47 Y18.35 Z2.8 F960.0
G1 X33.03 Y16.91 Z2.8 F960.0
G1 X33.03 Y16.06 Z2.8 F960.0
G1 X34.47 Y17.5 Z2.8 F960.0
G1 X34.47 Y16.65 Z2.8 F960.0
G1 X33.03 Y15.21 Z2.8 F960.0
G1 X33.03 Y14.36 Z2.8 F960.0
G1 X34.47 Y15.8 Z2.8 F960.0
G1 X34.47 Y14.95 Z2.8 F960.0
G1 X33.03 Y13.51 Z2.8 F960.0
G1 X33.03 Y12.67 Z2.8 F960.0
G1 X34.47 Y14.11 Z2.8 F960.0
G1 X34.47 Y13.26 Z2.8 F960.0
G1 X33.03 Y11.82 Z2.8 F960.0
G1 X33.03 Y10.97 Z2.8 F960.0
G1 X34.47 Y12.41 Z2.8 F960.0
G1 X34.47 Y11.56 Z2.8 F960.0
G1 X33.03 Y10.12 Z2.8 F960.0
G1 X33.03 Y9.27 Z2.8 F960.0
G1 X34.86 Y11.1 Z2.8 F960.0
G1 X35.4 Y10.79 Z2.8 F960.0
G1 X35.6 Y10.99 Z2.8 F960.0
;M103
G1 X34.47 Y9.86 Z2.8 F960.0
;M101
G1 X33.03 Y8.42 Z2.8 F960.0
G1 X33.03 Y7.57 Z2.8 F960.0
G1 X34.47 Y9.01 Z2.8 F960.0
G1 X34.47 Y8.17 Z2.8 F960.0
G1 X33.03 Y6.73 Z2.8 F960.0
G1 X33.03 Y5.88 Z2.8 F960.0
G1 X34.47 Y7.32 Z2.8 F960.0
G1 X34.47 Y6.47 Z2.8 F960.0
G1 X33.03 Y5.03 Z2.8 F960.0
G1 X33.03 Y4.18 Z2.8 F960.0
G1 X35.01 Y6.16 Z2.8 F960.0
G1 X35.56 Y5.86 Z2.8 F960.0
G1 X35.69 Y5.99 Z2.8 F960.0
;M103
G1 X34.48 Y4.78 Z2.8 F960.0
;M101
G1 X33.03 Y3.33 Z2.8 F960.0
G1 X33.03 Y2.48 Z2.8 F960.0
G1 X34.54 Y3.99 Z2.8 F960.0
G1 X34.59 Y3.2 Z2.8 F960.0
G1 X33.03 Y1.63 Z2.8 F960.0
G1 X33.77 Y1.53 Z2.8 F960.0
G1 X34.65 Y2.4 Z2.8 F960.0
G1 X34.7 Y1.61 Z2.8 F960.0
G1 X34.62 Y1.53 Z2.8 F960.0
;M103
G1 X38.87 Y1.53 Z2.8 F960.0
;M101
G1 X38.89 Y1.55 Z2.8 F960.0
G1 X39.71 Y1.53 Z2.8 F960.0
G1 X39.87 Y1.68 Z2.8 F960.0
G1 X40.56 Y1.53 Z2.8 F960.0
G1 X40.85 Y1.81 Z2.8 F960.0
G1 X41.41 Y1.53 Z2.8 F960.0
G1 X41.82 Y1.94 Z2.8 F960.0
G1 X42.26 Y1.53 Z2.8 F960.0
G1 X42.8 Y2.07 Z2.8 F960.0
G1 X43.11 Y1.53 Z2.8 F960.0
G1 X43.78 Y2.2 Z2.8 F960.0
G1 X43.96 Y1.53 Z2.8 F960.0
G1 X44.76 Y2.33 Z2.8 F960.0
G1 X44.81 Y1.53 Z2.8 F960.0
G1 X45.74 Y2.46 Z2.8 F960.0
G1 X45.65 Y1.53 Z2.8 F960.0
G1 X46.71 Y2.59 Z2.8 F960.0
G1 X47.69 Y2.72 Z2.8 F960.0
G1 X46.5 Y1.53 Z2.8 F960.0
G1 X47.35 Y1.53 Z2.8 F960.0
G1 X48.67 Y2.85 Z2.8 F960.0
;M103
G1 X51.59 Y1.53 Z2.8 F960.0
;M101
G1 X51.97 Y1.91 Z2.8 F960.0
G1 X51.97 Y2.76 Z2.8 F960.0
G1 X50.75 Y1.53 Z2.8 F960.0
G1 X49.9 Y1.53 Z2.8 F960.0
G1 X51.97 Y3.6 Z2.8 F960.0
G1 X51.97 Y4.45 Z2.8 F960.0
G1 X49.05 Y1.53 Z2.8 F960.0
G1 X48.2 Y1.53 Z2.8 F960.0
G1 X51.97 Y5.3 Z2.8 F960.0
G1 X51.97 Y6.15 Z2.8 F960.0
G1 X49.53 Y3.71 Z2.8 F960.0
G1 X49.53 Y4.56 Z2.8 F960.0
G1 X51.97 Y7.0 Z2.8 F960.0
G1 X51.97 Y7.85 Z2.8 F960.0
G1 X49.53 Y5.41 Z2.8 F960.0
G1 X49.53 Y6.26 Z2.8 F960.0
G1 X51.97 Y8.7 Z2.8 F960.0
G1 X51.97 Y9.54 Z2.8 F960.0
G1 X49.53 Y7.1 Z2.8 F960.0
G1 X49.11 Y7.54 Z2.8 F960.0
G1 X51.97 Y10.39 Z2.8 F960.0
G1 X51.97 Y11.24 Z2.8 F960.0
G1 X48.44 Y7.71 Z2.8 F960.0
G1 X47.77 Y7.89 Z2.8 F960.0
G1 X51.97 Y12.09 Z2.8 F960.0
G1 X51.97 Y12.94 Z2.8 F960.0
G1 X49.52 Y10.49 Z2.8 F960.0
G1 X49.51 Y11.33 Z2.8 F960.0
G1 X51.97 Y13.79 Z2.8 F960.0
G1 X51.97 Y14.64 Z2.8 F960.0
G1 X49.5 Y12.17 Z2.8 F960.0
G1 X49.49 Y13.0 Z2.8 F960.0
G1 X51.97 Y15.48 Z2.8 F960.0
G1 X51.97 Y16.33 Z2.8 F960.0
G1 X49.48 Y13.84 Z2.8 F960.0
G1 X49.47 Y14.68 Z2.8 F960.0
G1 X51.97 Y17.18 Z2.8 F960.0
G1 X51.97 Y18.03 Z2.8 F960.0
G1 X49.46 Y15.52 Z2.8 F960.0
G1 X49.45 Y16.36 Z2.8 F960.0
G1 X51.97 Y18.88 Z2.8 F960.0
G1 X51.97 Y19.73 Z2.8 F960.0
G1 X49.44 Y17.2 Z2.8 F960.0
G1 X49.44 Y18.04 Z2.8 F960.0
G1 X51.97 Y20.57 Z2.8 F960.0
G1 X51.97 Y21.42 Z2.8 F960.0
G1 X49.42 Y18.87 Z2.8 F960.0
G1 X49.26 Y19.56 Z2.8 F960.0
G1 X51.97 Y22.27 Z2.8 F960.0
G1 X51.97 Y23.12 Z2.8 F960.0
G1 X49.03 Y20.18 Z2.8 F960.0
G1 X48.72 Y20.71 Z2.8 F960.0
G1 X51.97 Y23.97 Z2.8 F960.0
G1 X51.97 Y24.82 Z2.8 F960.0
G1 X48.33 Y21.18 Z2.8 F960.0
G1 X47.88 Y21.58 Z2.8 F960.0
G1 X51.97 Y25.67 Z2.8 F960.0
G1 X51.97 Y26.51 Z2.8 F960.0
G1 X47.37 Y21.92 Z2.8 F960.0
G1 X46.8 Y22.2 Z2.8 F960.0
G1 X51.97 Y27.36 Z2.8 F960.0
G1 X51.97 Y28.21 Z2.8 F960.0
G1 X46.17 Y22.41 Z2.8 F960.0
G1 X45.47 Y22.56 Z2.8 F960.0
G1 X46.55 Y23.64 Z2.8 F960.0
G1 X45.53 Y23.47 Z2.8 F960.0
G1 X44.68 Y22.62 Z2.8 F960.0
G1 X44.6 Y23.39 Z2.8 F960.0
G1 X43.79 Y22.58 Z2.8 F960.0
G1 X43.75 Y23.39 Z2.8 F960.0
G1 X42.66 Y22.3 Z2.8 F960.0
G1 X40.88 Y21.36 Z2.8 F960.0
;M103
G1 X42.3 Y22.79 Z2.8 F960.0
;M101
G1 X43.69 Y24.18 Z2.8 F960.0
G1 X43.64 Y24.97 Z2.8 F960.0
G1 X40.14 Y21.48 Z2.8 F960.0
G1 X39.88 Y22.06 Z2.8 F960.0
G1 X43.32 Y25.5 Z2.8 F960.0
G1 X42.47 Y25.5 Z2.8 F960.0
G1 X41.17 Y24.2 Z2.8 F960.0
G1 X41.19 Y25.07 Z2.8 F960.0
G1 X41.62 Y25.5 Z2.8 F960.0
;M103
G1 X42.87 Y31.84 Z2.8 F960.0
;M101
G1 X51.97 Y40.94 Z2.8 F960.0
G1 X51.97 Y40.09 Z2.8 F960.0
G1 X44.18 Y32.3 Z2.8 F960.0
G1 X45.14 Y32.41 Z2.8 F960.0
G1 X51.97 Y39.24 Z2.8 F960.0
G1 X51.97 Y38.39 Z2.8 F960.0
G1 X45.93 Y32.35 Z2.8 F960.0
G1 X46.62 Y32.2 Z2.8 F960.0
G1 X51.97 Y37.55 Z2.8 F960.0
G1 X51.97 Y36.7 Z2.8 F960.0
G1 X47.23 Y31.96 Z2.8 F960.0
G1 X47.77 Y31.65 Z2.8 F960.0
G1 X51.97 Y35.85 Z2.8 F960.0
G1 X51.97 Y35.0 Z2.8 F960.0
G1 X48.25 Y31.28 Z2.8 F960.0
G1 X48.69 Y30.87 Z2.8 F960.0
G1 X51.97 Y34.15 Z2.8 F960.0
G1 X51.97 Y33.3 Z2.8 F960.0
G1 X49.08 Y30.41 Z2.8 F960.0
G1 X49.4 Y29.88 Z2.8 F960.0
G1 X51.97 Y32.45 Z2.8 F960.0
G1 X51.97 Y31.61 Z2.8 F960.0
G1 X49.61 Y29.25 Z2.8 F960.0
G1 X49.79 Y28.58 Z2.8 F960.0
G1 X51.97 Y30.76 Z2.8 F960.0
G1 X51.97 Y29.91 Z2.8 F960.0
G1 X49.82 Y27.76 Z2.8 F960.0
G1 X49.68 Y26.77 Z2.8 F960.0
G1 X51.97 Y29.06 Z2.8 F960.0
;M103
G1 X42.29 Y32.1 Z2.8 F960.0
;M101
G1 X51.97 Y41.79 Z2.8 F960.0
G1 X51.97 Y42.64 Z2.8 F960.0
G1 X41.76 Y32.42 Z2.8 F960.0
G1 X41.14 Y32.65 Z2.8 F960.0
G1 X51.97 Y43.49 Z2.8 F960.0
G1 X51.97 Y44.33 Z2.8 F960.0
G1 X40.44 Y32.8 Z2.8 F960.0
G1 X39.63 Y32.84 Z2.8 F960.0
G1 X51.97 Y45.18 Z2.8 F960.0
G1 X51.97 Y46.03 Z2.8 F960.0
G1 X38.75 Y32.82 Z2.8 F960.0
G1 X37.65 Y32.56 Z2.8 F960.0
G1 X51.97 Y46.88 Z2.8 F960.0
G1 X51.97 Y47.73 Z2.8 F960.0
G1 X32.02 Y27.78 Z2.8 F960.0
G1 X31.75 Y28.35 Z2.8 F960.0
G1 X51.97 Y48.58 Z2.8 F960.0
G1 X51.97 Y49.42 Z2.8 F960.0
G1 X31.48 Y28.93 Z2.8 F960.0
G1 X31.17 Y29.47 Z2.8 F960.0
G1 X43.7 Y42.0 Z2.8 F960.0
G1 X42.62 Y41.78 Z2.8 F960.0
G1 X30.82 Y29.97 Z2.8 F960.0
G1 X30.47 Y30.47 Z2.8 F960.0
G1 X41.84 Y41.84 Z2.8 F960.0
G1 X41.2 Y42.05 Z2.8 F960.0
G1 X30.12 Y30.97 Z2.8 F960.0
G1 X29.7 Y31.4 Z2.8 F960.0
G1 X40.66 Y42.36 Z2.8 F960.0
G1 X40.2 Y42.74 Z2.8 F960.0
G1 X29.28 Y31.83 Z2.8 F960.0
G1 X28.86 Y32.25 Z2.8 F960.0
G1 X39.82 Y43.21 Z2.8 F960.0
G1 X39.52 Y43.76 Z2.8 F960.0
G1 X28.41 Y32.66 Z2.8 F960.0
G1 X27.92 Y33.01 Z2.8 F960.0
G1 X39.32 Y44.41 Z2.8 F960.0
G1 X39.28 Y45.22 Z2.8 F960.0
G1 X27.42 Y33.36 Z2.8 F960.0
G1 X26.92 Y33.71 Z2.8 F960.0
G1 X39.58 Y46.37 Z2.8 F960.0
;M103
G1 X41.13 Y47.92 Z2.8 F960.0
;M101
G1 X47.68 Y54.47 Z2.8 F960.0
G1 X48.53 Y54.47 Z2.8 F960.0
G1 X42.28 Y48.22 Z2.8 F960.0
G1 X43.09 Y48.18 Z2.8 F960.0
G1 X49.38 Y54.47 Z2.8 F960.0
G1 X50.23 Y54.47 Z2.8 F960.0
G1 X43.74 Y47.98 Z2.8 F960.0
G1 X44.29 Y47.68 Z2.8 F960.0
G1 X51.08 Y54.47 Z2.8 F960.0
G1 X51.92 Y54.47 Z2.8 F960.0
G1 X44.76 Y47.3 Z2.8 F960.0
G1 X45.15 Y46.84 Z2.8 F960.0
G1 X51.97 Y53.67 Z2.8 F960.0
G1 X51.97 Y52.82 Z2.8 F960.0
G1 X45.45 Y46.3 Z2.8 F960.0
G1 X45.66 Y45.66 Z2.8 F960.0
G1 X51.97 Y51.97 Z2.8 F960.0
G1 X51.97 Y51.12 Z2.8 F960.0
G1 X45.73 Y44.88 Z2.8 F960.0
G1 X45.5 Y43.8 Z2.8 F960.0
G1 X51.97 Y50.27 Z2.8 F960.0
;M103
G1 X46.83 Y54.47 Z2.8 F960.0
;M101
G1 X26.37 Y34.0 Z2.8 F960.0
G1 X25.79 Y34.28 Z2.8 F960.0
G1 X45.99 Y54.47 Z2.8 F960.0
G1 X45.14 Y54.47 Z2.8 F960.0
G1 X25.22 Y34.55 Z2.8 F960.0
G1 X24.61 Y34.8 Z2.8 F960.0
G1 X44.29 Y54.47 Z2.8 F960.0
G1 X43.44 Y54.47 Z2.8 F960.0
G1 X23.95 Y34.98 Z2.8 F960.0
G1 X23.29 Y35.17 Z2.8 F960.0
G1 X42.59 Y54.47 Z2.8 F960.0
G1 X41.74 Y54.47 Z2.8 F960.0
G1 X22.6 Y35.33 Z2.8 F960.0
G1 X21.83 Y35.41 Z2.8 F960.0
G1 X40.89 Y54.47 Z2.8 F960.0
G1 X40.05 Y54.47 Z2.8 F960.0
G1 X29.14 Y43.56 Z2.8 F960.0
G1 X29.46 Y44.74 Z2.8 F960.0
G1 X39.2 Y54.47 Z2.8 F960.0
G1 X38.35 Y54.47 Z2.8 F960.0
G1 X29.44 Y45.56 Z2.8 F960.0
G1 X29.24 Y46.21 Z2.8 F960.0
G1 X37.5 Y54.47 Z2.8 F960.0
G1 X36.65 Y54.47 Z2.8 F960.0
G1 X28.95 Y46.77 Z2.8 F960.0
G1 X28.57 Y47.24 Z2.8 F960.0
G1 X35.8 Y54.47 Z2.8 F960.0
G1 X34.95 Y54.47 Z2.8 F960.0
G1 X28.11 Y47.63 Z2.8 F960.0
G1 X27.57 Y47.94 Z2.8 F960.0
G1 X34.1 Y54.47 Z2.8 F960.0
G1 X33.26 Y54.47 Z2.8 F960.0
G1 X26.94 Y48.15 Z2.8 F960.0
G1 X26.17 Y48.23 Z2.8 F960.0
G1 X32.41 Y54.47 Z2.8 F960.0
G1 X31.56 Y54.47 Z2.8 F960.0
G1 X25.12 Y48.03 Z2.8 F960.0
;M103
G1 X23.22 Y46.13 Z2.8 F960.0
;M101
G1 X12.62 Y35.53 Z2.8 F960.0
G1 X11.77 Y35.53 Z2.8 F960.0
G1 X30.71 Y54.47 Z2.8 F960.0
G1 X29.86 Y54.47 Z2.8 F960.0
G1 X10.92 Y35.53 Z2.8 F960.0
G1 X10.07 Y35.53 Z2.8 F960.0
G1 X29.01 Y54.47 Z2.8 F960.0
G1 X28.17 Y54.47 Z2.8 F960.0
G1 X9.23 Y35.53 Z2.8 F960.0
G1 X8.38 Y35.53 Z2.8 F960.0
G1 X27.32 Y54.47 Z2.8 F960.0
G1 X26.47 Y54.47 Z2.8 F960.0
G1 X7.53 Y35.53 Z2.8 F960.0
G1 X6.68 Y35.53 Z2.8 F960.0
G1 X25.62 Y54.47 Z2.8 F960.0
G1 X24.77 Y54.47 Z2.8 F960.0
G1 X5.83 Y35.53 Z2.8 F960.0
G1 X4.98 Y35.53 Z2.8 F960.0
G1 X11.73 Y42.28 Z2.8 F960.0
;M103
G1 X10.4 Y41.8 Z2.8 F960.0
;M101
G1 X4.13 Y35.53 Z2.8 F960.0
G1 X3.29 Y35.53 Z2.8 F960.0
G1 X9.56 Y41.8 Z2.8 F960.0
G1 X8.88 Y41.97 Z2.8 F960.0
G1 X2.44 Y35.53 Z2.8 F960.0
G1 X1.59 Y35.53 Z2.8 F960.0
G1 X8.31 Y42.25 Z2.8 F960.0
G1 X7.83 Y42.62 Z2.8 F960.0
G1 X1.53 Y36.32 Z2.8 F960.0
G1 X1.53 Y37.17 Z2.8 F960.0
G1 X7.42 Y43.06 Z2.8 F960.0
G1 X7.1 Y43.59 Z2.8 F960.0
G1 X1.53 Y38.02 Z2.8 F960.0
G1 X1.53 Y38.87 Z2.8 F960.0
G1 X6.88 Y44.21 Z2.8 F960.0
G1 X6.77 Y44.95 Z2.8 F960.0
G1 X1.53 Y39.71 Z2.8 F960.0
G1 X1.53 Y40.56 Z2.8 F960.0
G1 X6.92 Y45.95 Z2.8 F960.0
;M103
G1 X1.86 Y54.47 Z2.8 F960.0
;M101
G1 X1.53 Y54.14 Z2.8 F960.0
G1 X1.53 Y53.29 Z2.8 F960.0
G1 X2.71 Y54.47 Z2.8 F960.0
G1 X3.56 Y54.47 Z2.8 F960.0
G1 X1.53 Y52.44 Z2.8 F960.0
G1 X1.53 Y51.59 Z2.8 F960.0
G1 X4.41 Y54.47 Z2.8 F960.0
G1 X5.26 Y54.47 Z2.8 F960.0
G1 X1.53 Y50.75 Z2.8 F960.0
G1 X1.53 Y49.9 Z2.8 F960.0
G1 X6.1 Y54.47 Z2.8 F960.0
G1 X6.95 Y54.47 Z2.8 F960.0
G1 X1.53 Y49.05 Z2.8 F960.0
G1 X1.53 Y48.2 Z2.8 F960.0
G1 X7.8 Y54.47 Z2.8 F960.0
G1 X8.65 Y54.47 Z2.8 F960.0
G1 X1.53 Y47.35 Z2.8 F960.0
G1 X1.53 Y46.5 Z2.8 F960.0
G1 X9.5 Y54.47 Z2.8 F960.0
G1 X10.35 Y54.47 Z2.8 F960.0
G1 X1.53 Y45.65 Z2.8 F960.0
G1 X1.53 Y44.81 Z2.8 F960.0
G1 X11.2 Y54.47 Z2.8 F960.0
G1 X12.04 Y54.47 Z2.8 F960.0
G1 X1.53 Y43.96 Z2.8 F960.0
G1 X1.53 Y43.11 Z2.8 F960.0
G1 X12.89 Y54.47 Z2.8 F960.0
G1 X13.74 Y54.47 Z2.8 F960.0
G1 X1.53 Y42.26 Z2.8 F960.0
G1 X1.53 Y41.41 Z2.8 F960.0
G1 X14.59 Y54.47 Z2.8 F960.0
G1 X15.44 Y54.47 Z2.8 F960.0
G1 X9.05 Y48.08 Z2.8 F960.0
G1 X10.05 Y48.23 Z2.8 F960.0
G1 X16.29 Y54.47 Z2.8 F960.0
G1 X17.14 Y54.47 Z2.8 F960.0
G1 X10.79 Y48.13 Z2.8 F960.0
G1 X11.41 Y47.9 Z2.8 F960.0
G1 X17.98 Y54.47 Z2.8 F960.0
G1 X18.83 Y54.47 Z2.8 F960.0
G1 X11.94 Y47.58 Z2.8 F960.0
G1 X12.39 Y47.17 Z2.8 F960.0
G1 X19.68 Y54.47 Z2.8 F960.0
G1 X20.53 Y54.47 Z2.8 F960.0
G1 X12.75 Y46.69 Z2.8 F960.0
G1 X13.03 Y46.12 Z2.8 F960.0
G1 X21.38 Y54.47 Z2.8 F960.0
G1 X22.23 Y54.47 Z2.8 F960.0
G1 X13.2 Y45.44 Z2.8 F960.0
G1 X13.2 Y44.6 Z2.8 F960.0
G1 X23.07 Y54.47 Z2.8 F960.0
G1 X23.92 Y54.47 Z2.8 F960.0
G1 X12.73 Y43.27 Z2.8 F960.0
;M103
G1 X13.47 Y35.53 Z2.8 F960.0
;M101
G1 X23.02 Y45.08 Z2.8 F960.0
G1 X23.1 Y44.31 Z2.8 F960.0
G1 X14.32 Y35.53 Z2.8 F960.0
G1 X15.17 Y35.53 Z2.8 F960.0
G1 X23.31 Y43.68 Z2.8 F960.0
G1 X23.62 Y43.14 Z2.8 F960.0
G1 X16.01 Y35.53 Z2.8 F960.0
G1 X16.86 Y35.53 Z2.8 F960.0
G1 X24.01 Y42.68 Z2.8 F960.0
G1 X24.48 Y42.3 Z2.8 F960.0
G1 X17.71 Y35.53 Z2.8 F960.0
G1 X18.56 Y35.53 Z2.8 F960.0
G1 X25.04 Y42.01 Z2.8 F960.0
G1 X25.69 Y41.81 Z2.8 F960.0
G1 X19.41 Y35.53 Z2.8 F960.0
G1 X20.26 Y35.53 Z2.8 F960.0
G1 X26.51 Y41.79 Z2.8 F960.0
G1 X27.69 Y42.12 Z2.8 F960.0
G1 X21.06 Y35.49 Z2.8 F960.0
;M103
G1 X32.28 Y27.18 Z2.8 F960.0
;M101
G1 X34.37 Y29.28 Z2.8 F960.0
G1 X34.19 Y28.25 Z2.8 F960.0
G1 X32.46 Y26.52 Z2.8 F960.0
G1 X32.65 Y25.86 Z2.8 F960.0
G1 X34.19 Y27.4 Z2.8 F960.0
G1 X34.3 Y26.66 Z2.8 F960.0
G1 X32.82 Y25.19 Z2.8 F960.0
G1 X32.9 Y24.42 Z2.8 F960.0
G1 X34.5 Y26.02 Z2.8 F960.0
G1 X34.79 Y25.46 Z2.8 F960.0
G1 X32.98 Y23.65 Z2.8 F960.0
G1 X33.03 Y22.85 Z2.8 F960.0
G1 X35.1 Y24.92 Z2.8 F960.0
;M103
G1 X47.1 Y8.06 Z2.8 F960.0
;M101
G1 X48.1 Y9.07 Z2.8 F960.0
G1 X46.95 Y8.76 Z2.8 F960.0
G1 X46.42 Y8.24 Z2.8 F960.0
G1 X45.8 Y8.46 Z2.8 F960.0
G1 X45.75 Y8.41 Z2.8 F960.0
;M103
G1 X39.92 Y27.36 Z3.2 F960.0
;M101
G1 X40.33 Y27.93 Z3.2 F960.0
G1 X40.19 Y28.18 Z3.2 F960.0
G1 X39.96 Y28.37 Z3.2 F960.0
G1 X39.77 Y28.44 Z3.2 F960.0
G1 X39.32 Y28.42 Z3.2 F960.0
G1 X39.1 Y28.32 Z3.2 F960.0
G1 X38.92 Y28.12 Z3.2 F960.0
G1 X38.89 Y28.02 Z3.2 F960.0
G1 X38.91 Y27.73 Z3.2 F960.0
G1 X39.05 Y27.53 Z3.2 F960.0
G1 X39.27 Y27.42 Z3.2 F960.0
;M103
G1 X40.69 Y25.64 Z3.2 F960.0
;M101
G1 X40.65 Y23.74 Z3.2 F960.0
G1 X39.45 Y22.61 Z3.2 F960.0
G1 X39.38 Y22.24 Z3.2 F960.0
G1 X39.25 Y22.01 Z3.2 F960.0
G1 X39.55 Y21.19 Z3.2 F960.0
G1 X40.09 Y20.95 Z3.2 F960.0
G1 X41.3 Y20.8 Z3.2 F960.0
G1 X41.92 Y21.36 Z3.2 F960.0
G1 X42.49 Y21.69 Z3.2 F960.0
G1 X43.1 Y21.92 Z3.2 F960.0
G1 X43.83 Y22.07 Z3.2 F960.0
G1 X44.6 Y22.11 Z3.2 F960.0
G1 X45.57 Y22.04 Z3.2 F960.0
G1 X46.27 Y21.87 Z3.2 F960.0
G1 X47.42 Y21.29 Z3.2 F960.0
G1 X48.25 Y20.5 Z3.2 F960.0
G1 X48.73 Y19.59 Z3.2 F960.0
G1 X48.92 Y18.79 Z3.2 F960.0
G1 X49.02 Y14.1 Z3.2 F960.0
G1 X47.51 Y14.09 Z3.2 F960.0
G1 X47.52 Y13.67 Z3.2 F960.0
G1 X49.02 Y13.45 Z3.2 F960.0
G1 X49.02 Y9.83 Z3.2 F960.0
G1 X44.35 Y8.61 Z3.2 F960.0
G1 X44.35 Y8.25 Z3.2 F960.0
G1 X49.02 Y7.03 Z3.2 F960.0
G1 X49.02 Y3.41 Z3.2 F960.0
G1 X35.19 Y1.54 Z3.2 F960.0
G1 X34.95 Y5.26 Z3.2 F960.0
G1 X37.45 Y5.63 Z3.2 F960.0
G1 X37.45 Y6.05 Z3.2 F960.0
G1 X34.98 Y6.7 Z3.2 F960.0
G1 X34.98 Y10.15 Z3.2 F960.0
G1 X37.45 Y10.8 Z3.2 F960.0
G1 X37.45 Y11.23 Z3.2 F960.0
G1 X34.98 Y11.6 Z3.2 F960.0
G1 X34.98 Y17.96 Z3.2 F960.0
G1 X36.49 Y17.9 Z3.2 F960.0
G1 X36.4 Y18.25 Z3.2 F960.0
G1 X34.99 Y18.88 Z3.2 F960.0
G1 X34.94 Y22.28 Z3.2 F960.0
G1 X34.82 Y22.91 Z3.2 F960.0
G1 X34.87 Y23.37 Z3.2 F960.0
G1 X35.07 Y23.87 Z3.2 F960.0
G1 X35.47 Y24.37 Z3.2 F960.0
G1 X35.7 Y24.53 Z3.2 F960.0
G1 X35.7 Y25.06 Z3.2 F960.0
G1 X35.11 Y25.88 Z3.2 F960.0
G1 X34.88 Y26.44 Z3.2 F960.0
G1 X34.73 Y27.06 Z3.2 F960.0
G1 X34.67 Y27.8 Z3.2 F960.0
G1 X34.73 Y28.55 Z3.2 F960.0
G1 X35.11 Y29.78 Z3.2 F960.0
G1 X35.49 Y30.4 Z3.2 F960.0
G1 X36.49 Y31.39 Z3.2 F960.0
G1 X37.13 Y31.79 Z3.2 F960.0
G1 X37.92 Y32.12 Z3.2 F960.0
G1 X38.73 Y32.3 Z3.2 F960.0
G1 X40.11 Y32.34 Z3.2 F960.0
G1 X40.87 Y32.2 Z3.2 F960.0
G1 X41.5 Y31.98 Z3.2 F960.0
G1 X42.44 Y31.42 Z3.2 F960.0
G1 X43.03 Y31.28 Z3.2 F960.0
G1 X43.9 Y31.71 Z3.2 F960.0
G1 X44.48 Y31.85 Z3.2 F960.0
G1 X45.16 Y31.9 Z3.2 F960.0
G1 X45.86 Y31.85 Z3.2 F960.0
G1 X46.49 Y31.7 Z3.2 F960.0
G1 X47.09 Y31.47 Z3.2 F960.0
G1 X47.74 Y31.07 Z3.2 F960.0
G1 X48.53 Y30.31 Z3.2 F960.0
G1 X48.91 Y29.72 Z3.2 F960.0
G1 X49.28 Y28.63 Z3.2 F960.0
G1 X49.32 Y27.58 Z3.2 F960.0
G1 X49.21 Y26.96 Z3.2 F960.0
G1 X49.0 Y26.37 Z3.2 F960.0
G1 X48.32 Y25.33 Z3.2 F960.0
G1 X47.46 Y24.61 Z3.2 F960.0
G1 X46.13 Y24.03 Z3.2 F960.0
G1 X44.22 Y23.86 Z3.2 F960.0
G1 X44.11 Y25.5 Z3.2 F960.0
G1 X43.64 Y26.01 Z3.2 F960.0
G1 X41.06 Y26.0 Z3.2 F960.0
;M103
G1 X27.71 Y42.71 Z3.2 F960.0
;M101
G1 X27.18 Y42.44 Z3.2 F960.0
G1 X26.72 Y42.32 Z3.2 F960.0
G1 X26.25 Y42.28 Z3.2 F960.0
G1 X25.78 Y42.32 Z3.2 F960.0
G1 X25.32 Y42.44 Z3.2 F960.0
G1 X24.89 Y42.64 Z3.2 F960.0
G1 X24.5 Y42.91 Z3.2 F960.0
G1 X24.16 Y43.25 Z3.2 F960.0
G1 X23.89 Y43.64 Z3.2 F960.0
G1 X23.69 Y44.07 Z3.2 F960.0
G1 X23.57 Y44.53 Z3.2 F960.0
G1 X23.53 Y45.0 Z3.2 F960.0
G1 X23.57 Y45.47 Z3.2 F960.0
G1 X23.69 Y45.93 Z3.2 F960.0
G1 X23.89 Y46.36 Z3.2 F960.0
G1 X24.16 Y46.75 Z3.2 F960.0
G1 X24.5 Y47.09 Z3.2 F960.0
G1 X24.89 Y47.36 Z3.2 F960.0
G1 X25.32 Y47.56 Z3.2 F960.0
G1 X25.78 Y47.68 Z3.2 F960.0
G1 X26.25 Y47.72 Z3.2 F960.0
G1 X26.72 Y47.68 Z3.2 F960.0
G1 X27.18 Y47.56 Z3.2 F960.0
G1 X27.61 Y47.36 Z3.2 F960.0
G1 X28.0 Y47.09 Z3.2 F960.0
G1 X28.34 Y46.75 Z3.2 F960.0
G1 X28.61 Y46.36 Z3.2 F960.0
G1 X28.81 Y45.93 Z3.2 F960.0
G1 X28.93 Y45.47 Z3.2 F960.0
G1 X28.97 Y45.0 Z3.2 F960.0
G1 X28.93 Y44.53 Z3.2 F960.0
G1 X28.81 Y44.07 Z3.2 F960.0
G1 X28.61 Y43.64 Z3.2 F960.0
G1 X28.26 Y43.17 Z3.2 F960.0
;M103
G1 X39.79 Y44.89 Z3.2 F960.0
;M101
G1 X39.82 Y45.47 Z3.2 F960.0
G1 X39.94 Y45.93 Z3.2 F960.0
G1 X40.14 Y46.36 Z3.2 F960.0
G1 X40.41 Y46.75 Z3.2 F960.0
G1 X40.75 Y47.09 Z3.2 F960.0
G1 X41.14 Y47.36 Z3.2 F960.0
G1 X41.57 Y47.56 Z3.2 F960.0
G1 X42.03 Y47.68 Z3.2 F960.0
G1 X42.5 Y47.72 Z3.2 F960.0
G1 X42.97 Y47.68 Z3.2 F960.0
G1 X43.43 Y47.56 Z3.2 F960.0
G1 X43.86 Y47.36 Z3.2 F960.0
G1 X44.25 Y47.09 Z3.2 F960.0
G1 X44.59 Y46.75 Z3.2 F960.0
G1 X44.86 Y46.36 Z3.2 F960.0
G1 X45.06 Y45.93 Z3.2 F960.0
G1 X45.18 Y45.47 Z3.2 F960.0
G1 X45.22 Y45.0 Z3.2 F960.0
G1 X45.18 Y44.53 Z3.2 F960.0
G1 X45.06 Y44.07 Z3.2 F960.0
G1 X44.86 Y43.64 Z3.2 F960.0
G1 X44.59 Y43.25 Z3.2 F960.0
G1 X44.25 Y42.91 Z3.2 F960.0
G1 X43.86 Y42.64 Z3.2 F960.0
G1 X43.43 Y42.44 Z3.2 F960.0
G1 X42.97 Y42.32 Z3.2 F960.0
G1 X42.5 Y42.28 Z3.2 F960.0
G1 X42.03 Y42.32 Z3.2 F960.0
G1 X41.57 Y42.44 Z3.2 F960.0
G1 X41.14 Y42.64 Z3.2 F960.0
G1 X40.75 Y42.91 Z3.2 F960.0
G1 X40.41 Y43.25 Z3.2 F960.0
G1 X40.14 Y43.64 Z3.2 F960.0
G1 X39.91 Y44.18 Z3.2 F960.0
;M103
G1 X12.69 Y44.64 Z3.2 F960.0
;M101
G1 X12.56 Y44.07 Z3.2 F960.0
G1 X12.36 Y43.64 Z3.2 F960.0
G1 X12.09 Y43.25 Z3.2 F960.0
G1 X11.75 Y42.91 Z3.2 F960.0
G1 X11.36 Y42.64 Z3.2 F960.0
G1 X10.93 Y42.44 Z3.2 F960.0
G1 X10.47 Y42.32 Z3.2 F960.0
G1 X10.0 Y42.28 Z3.2 F960.0
G1 X9.53 Y42.32 Z3.2 F960.0
G1 X9.07 Y42.44 Z3.2 F960.0
G1 X8.64 Y42.64 Z3.2 F960.0
G1 X8.25 Y42.91 Z3.2 F960.0
G1 X7.91 Y43.25 Z3.2 F960.0
G1 X7.64 Y43.64 Z3.2 F960.0
G1 X7.44 Y44.07 Z3.2 F960.0
G1 X7.32 Y44.53 Z3.2 F960.0
G1 X7.28 Y45.0 Z3.2 F960.0
G1 X7.32 Y45.47 Z3.2 F960.0
G1 X7.44 Y45.93 Z3.2 F960.0
G1 X7.64 Y46.36 Z3.2 F960.0
G1 X7.91 Y46.75 Z3.2 F960.0
G1 X8.25 Y47.09 Z3.2 F960.0
G1 X8.64 Y47.36 Z3.2 F960.0
G1 X9.07 Y47.56 Z3.2 F960.0
G1 X9.53 Y47.68 Z3.2 F960.0
G1 X10.0 Y47.72 Z3.2 F960.0
G1 X10.47 Y47.68 Z3.2 F960.0
G1 X10.93 Y47.56 Z3.2 F960.0
G1 X11.36 Y47.36 Z3.2 F960.0
G1 X11.75 Y47.09 Z3.2 F960.0
G1 X12.09 Y46.75 Z3.2 F960.0
G1 X12.36 Y46.36 Z3.2 F960.0
G1 X12.56 Y45.93 Z3.2 F960.0
G1 X12.69 Y45.36 Z3.2 F960.0
;M103
G1 X12.36 Y54.98 Z3.2 F960.0
;M101
G1 X1.02 Y54.98 Z3.2 F960.0
G1 X1.02 Y35.02 Z3.2 F960.0
G1 X20.64 Y35.02 Z3.2 F960.0
G1 X22.66 Y34.81 Z3.2 F960.0
G1 X24.65 Y34.26 Z3.2 F960.0
G1 X26.52 Y33.37 Z3.2 F960.0
G1 X28.21 Y32.17 Z3.2 F960.0
G1 X29.67 Y30.71 Z3.2 F960.0
G1 X30.87 Y29.02 Z3.2 F960.0
G1 X31.76 Y27.15 Z3.2 F960.0
G1 X32.31 Y25.16 Z3.2 F960.0
G1 X32.52 Y23.14 Z3.2 F960.0
G1 X32.52 Y1.02 Z3.2 F960.0
G1 X52.48 Y1.02 Z3.2 F960.0
G1 X52.48 Y54.98 Z3.2 F960.0
G1 X13.08 Y54.98 Z3.2 F960.0
G1 X12.36 Y55.64 Z3.2 F960.0
G1 X0.36 Y55.64 Z3.2 F960.0
G1 X0.36 Y34.36 Z3.2 F960.0
G1 X20.6 Y34.36 Z3.2 F960.0
G1 X22.54 Y34.16 Z3.2 F960.0
G1 X24.42 Y33.63 Z3.2 F960.0
G1 X26.19 Y32.8 Z3.2 F960.0
G1 X27.78 Y31.67 Z3.2 F960.0
G1 X29.17 Y30.28 Z3.2 F960.0
G1 X30.3 Y28.69 Z3.2 F960.0
G1 X31.13 Y26.92 Z3.2 F960.0
G1 X31.66 Y25.04 Z3.2 F960.0
G1 X31.86 Y23.1 Z3.2 F960.0
G1 X31.86 Y0.36 Z3.2 F960.0
G1 X53.14 Y0.36 Z3.2 F960.0
G1 X53.14 Y55.64 Z3.2 F960.0
G1 X13.08 Y55.64 Z3.2 F960.0
;M103
G1 X10.71 Y46.94 Z3.2 F960.0
;M101
G1 X11.33 Y46.58 Z3.2 F960.0
G1 X11.79 Y46.03 Z3.2 F960.0
G1 X12.03 Y45.36 Z3.2 F960.0
G1 X12.03 Y44.64 Z3.2 F960.0
G1 X11.79 Y43.97 Z3.2 F960.0
G1 X11.33 Y43.42 Z3.2 F960.0
G1 X10.71 Y43.06 Z3.2 F960.0
G1 X10.0 Y42.94 Z3.2 F960.0
G1 X9.3 Y43.06 Z3.2 F960.0
G1 X8.68 Y43.42 Z3.2 F960.0
G1 X8.22 Y43.97 Z3.2 F960.0
G1 X7.97 Y44.64 Z3.2 F960.0
G1 X7.97 Y45.36 Z3.2 F960.0
G1 X8.22 Y46.03 Z3.2 F960.0
G1 X8.68 Y46.58 Z3.2 F960.0
G1 X9.3 Y46.94 Z3.2 F960.0
G1 X10.0 Y47.06 Z3.2 F960.0
;M103
G1 X24.31 Y45.71 Z3.2 F960.0
;M101
G1 X24.67 Y46.33 Z3.2 F960.0
G1 X25.22 Y46.79 Z3.2 F960.0
G1 X25.89 Y47.03 Z3.2 F960.0
G1 X26.61 Y47.03 Z3.2 F960.0
G1 X27.28 Y46.79 Z3.2 F960.0
G1 X27.83 Y46.33 Z3.2 F960.0
G1 X28.19 Y45.71 Z3.2 F960.0
G1 X28.31 Y45.0 Z3.2 F960.0
G1 X28.19 Y44.3 Z3.2 F960.0
G1 X27.83 Y43.68 Z3.2 F960.0
G1 X27.28 Y43.22 Z3.2 F960.0
G1 X26.61 Y42.97 Z3.2 F960.0
G1 X25.89 Y42.97 Z3.2 F960.0
G1 X25.22 Y43.22 Z3.2 F960.0
G1 X24.67 Y43.68 Z3.2 F960.0
G1 X24.31 Y44.3 Z3.2 F960.0
G1 X24.19 Y45.0 Z3.2 F960.0
;M103
G1 X40.47 Y45.36 Z3.2 F960.0
;M101
G1 X40.72 Y46.03 Z3.2 F960.0
G1 X41.18 Y46.58 Z3.2 F960.0
G1 X41.8 Y46.94 Z3.2 F960.0
G1 X42.5 Y47.06 Z3.2 F960.0
G1 X43.21 Y46.94 Z3.2 F960.0
G1 X43.83 Y46.58 Z3.2 F960.0
G1 X44.29 Y46.03 Z3.2 F960.0
G1 X44.53 Y45.36 Z3.2 F960.0
G1 X44.53 Y44.64 Z3.2 F960.0
G1 X44.29 Y43.97 Z3.2 F960.0
G1 X43.83 Y43.42 Z3.2 F960.0
G1 X43.21 Y43.06 Z3.2 F960.0
G1 X42.5 Y42.94 Z3.2 F960.0
G1 X41.8 Y43.06 Z3.2 F960.0
G1 X41.18 Y43.42 Z3.2 F960.0
G1 X40.72 Y43.97 Z3.2 F960.0
G1 X40.47 Y44.64 Z3.2 F960.0
;M103
G1 X40.41 Y31.62 Z3.2 F960.0
;M101
G1 X41.24 Y31.38 Z3.2 F960.0
G1 X42.14 Y30.82 Z3.2 F960.0
G1 X42.63 Y30.24 Z3.2 F960.0
G1 X42.81 Y30.24 Z3.2 F960.0
G1 X43.18 Y30.59 Z3.2 F960.0
G1 X43.63 Y30.88 Z3.2 F960.0
G1 X44.59 Y31.19 Z3.2 F960.0
G1 X45.76 Y31.19 Z3.2 F960.0
G1 X46.79 Y30.87 Z3.2 F960.0
G1 X47.33 Y30.54 Z3.2 F960.0
G1 X48.02 Y29.88 Z3.2 F960.0
G1 X48.5 Y29.01 Z3.2 F960.0
G1 X48.62 Y28.53 Z3.2 F960.0
G1 X48.65 Y27.63 Z3.2 F960.0
G1 X48.4 Y26.64 Z3.2 F960.0
G1 X47.84 Y25.79 Z3.2 F960.0
G1 X47.09 Y25.16 Z3.2 F960.0
G1 X45.97 Y24.68 Z3.2 F960.0
G1 X44.78 Y24.52 Z3.2 F960.0
G1 X44.72 Y26.97 Z3.2 F960.0
G1 X45.22 Y27.16 Z3.2 F960.0
G1 X45.5 Y27.36 Z3.2 F960.0
G1 X45.7 Y27.61 Z3.2 F960.0
G1 X45.78 Y27.82 Z3.2 F960.0
G1 X45.76 Y28.18 Z3.2 F960.0
G1 X45.67 Y28.37 Z3.2 F960.0
G1 X45.52 Y28.52 Z3.2 F960.0
G1 X45.32 Y28.62 Z3.2 F960.0
G1 X45.02 Y28.67 Z3.2 F960.0
G1 X44.81 Y28.64 Z3.2 F960.0
G1 X44.54 Y28.52 Z3.2 F960.0
G1 X44.29 Y28.32 Z3.2 F960.0
G1 X44.09 Y27.99 Z3.2 F960.0
G1 X43.85 Y26.67 Z3.2 F960.0
G1 X41.22 Y26.67 Z3.2 F960.0
G1 X41.07 Y27.87 Z3.2 F960.0
G1 X40.83 Y28.44 Z3.2 F960.0
G1 X40.29 Y28.96 Z3.2 F960.0
G1 X39.87 Y29.1 Z3.2 F960.0
G1 X39.37 Y29.11 Z3.2 F960.0
G1 X38.75 Y28.89 Z3.2 F960.0
G1 X38.56 Y28.74 Z3.2 F960.0
G1 X38.33 Y28.43 Z3.2 F960.0
G1 X38.21 Y27.92 Z3.2 F960.0
G1 X38.26 Y27.56 Z3.2 F960.0
G1 X38.39 Y27.27 Z3.2 F960.0
G1 X38.64 Y27.01 Z3.2 F960.0
G1 X39.02 Y26.8 Z3.2 F960.0
G1 X40.05 Y26.54 Z3.2 F960.0
G1 X40.01 Y24.06 Z3.2 F960.0
G1 X38.79 Y24.15 Z3.2 F960.0
G1 X37.39 Y24.59 Z3.2 F960.0
G1 X36.83 Y24.92 Z3.2 F960.0
G1 X36.34 Y25.32 Z3.2 F960.0
G1 X35.98 Y25.74 Z3.2 F960.0
G1 X35.51 Y26.65 Z3.2 F960.0
G1 X35.33 Y27.8 Z3.2 F960.0
G1 X35.51 Y28.99 Z3.2 F960.0
G1 X35.7 Y29.48 Z3.2 F960.0
G1 X36.02 Y30.01 Z3.2 F960.0
G1 X36.89 Y30.86 Z3.2 F960.0
G1 X37.44 Y31.2 Z3.2 F960.0
G1 X38.12 Y31.49 Z3.2 F960.0
G1 X38.82 Y31.65 Z3.2 F960.0
G1 X39.7 Y31.67 Z3.2 F960.0
;M103
G1 X38.48 Y23.78 Z3.2 F960.0
;M101
G1 X38.57 Y23.68 Z3.2 F960.0
G1 X38.75 Y23.35 Z3.2 F960.0
G1 X38.83 Y22.91 Z3.2 F960.0
G1 X38.75 Y22.47 Z3.2 F960.0
G1 X38.54 Y22.1 Z3.2 F960.0
G1 X38.21 Y21.78 Z3.2 F960.0
G1 X37.82 Y21.59 Z3.2 F960.0
G1 X37.52 Y21.35 Z3.2 F960.0
G1 X41.32 Y19.65 Z3.2 F960.0
G1 X41.59 Y20.13 Z3.2 F960.0
G1 X41.93 Y20.51 Z3.2 F960.0
G1 X42.3 Y20.82 Z3.2 F960.0
G1 X42.78 Y21.09 Z3.2 F960.0
G1 X43.29 Y21.28 Z3.2 F960.0
G1 X43.92 Y21.41 Z3.2 F960.0
G1 X44.59 Y21.45 Z3.2 F960.0
G1 X45.47 Y21.38 Z3.2 F960.0
G1 X46.06 Y21.24 Z3.2 F960.0
G1 X46.6 Y21.01 Z3.2 F960.0
G1 X47.04 Y20.75 Z3.2 F960.0
G1 X47.41 Y20.45 Z3.2 F960.0
G1 X47.72 Y20.1 Z3.2 F960.0
G1 X47.94 Y19.75 Z3.2 F960.0
G1 X48.1 Y19.38 Z3.2 F960.0
G1 X48.26 Y18.7 Z3.2 F960.0
G1 X48.36 Y14.74 Z3.2 F960.0
G1 X35.64 Y14.73 Z3.2 F960.0
G1 X35.64 Y17.3 Z3.2 F960.0
G1 X39.86 Y17.3 Z3.2 F960.0
G1 X39.9 Y17.41 Z3.2 F960.0
G1 X35.64 Y19.31 Z3.2 F960.0
G1 X35.64 Y21.67 Z3.2 F960.0
G1 X35.75 Y22.14 Z3.2 F960.0
G1 X35.63 Y22.3 Z3.2 F960.0
G1 X35.51 Y22.64 Z3.2 F960.0
G1 X35.48 Y22.91 Z3.2 F960.0
G1 X35.52 Y23.21 Z3.2 F960.0
G1 X35.65 Y23.54 Z3.2 F960.0
G1 X35.92 Y23.88 Z3.2 F960.0
G1 X36.33 Y24.17 Z3.2 F960.0
G1 X36.85 Y24.33 Z3.2 F960.0
G1 X36.99 Y24.33 Z3.2 F960.0
;M103
G1 X43.9 Y18.55 Z3.2 F960.0
;M101
G1 X43.76 Y17.96 Z3.2 F960.0
G1 X43.75 Y17.29 Z3.2 F960.0
G1 X45.49 Y17.3 Z3.2 F960.0
G1 X45.39 Y18.42 Z3.2 F960.0
G1 X45.3 Y18.59 Z3.2 F960.0
G1 X45.14 Y18.74 Z3.2 F960.0
G1 X44.78 Y18.87 Z3.2 F960.0
G1 X44.5 Y18.87 Z3.2 F960.0
;M103
G1 X38.49 Y14.31 Z3.2 F960.0
;M101
G1 X48.36 Y12.88 Z3.2 F960.0
G1 X48.36 Y10.34 Z3.2 F960.0
G1 X41.21 Y8.47 Z3.2 F960.0
G1 X41.21 Y8.39 Z3.2 F960.0
G1 X48.36 Y6.52 Z3.2 F960.0
G1 X48.36 Y3.98 Z3.2 F960.0
G1 X35.69 Y2.15 Z3.2 F960.0
G1 X35.64 Y4.69 Z3.2 F960.0
G1 X41.62 Y5.58 Z3.2 F960.0
G1 X41.62 Y5.65 Z3.2 F960.0
G1 X35.64 Y7.21 Z3.2 F960.0
G1 X35.64 Y9.65 Z3.2 F960.0
G1 X41.62 Y11.21 Z3.2 F960.0
G1 X41.62 Y11.28 Z3.2 F960.0
G1 X35.64 Y12.17 Z3.2 F960.0
G1 X35.68 Y14.3 Z3.2 F960.0
;M103
G1 X35.4 Y10.79 Z3.2 F960.0
;M101
G1 X35.14 Y11.06 Z3.2 F960.0
;M103
G1 X35.61 Y5.87 Z3.2 F960.0
;M101
G1 X35.43 Y6.05 Z3.2 F960.0
;M103
G1 X34.45 Y5.14 Z3.2 F960.0
;M101
G1 X34.79 Y5.75 Z3.2 F960.0
G1 X34.47 Y7.01 Z3.2 F960.0
G1 X34.47 Y8.9 Z3.2 F960.0
G1 X33.03 Y6.57 Z3.2 F960.0
G1 X33.03 Y10.34 Z3.2 F960.0
G1 X34.47 Y9.84 Z3.2 F960.0
G1 X34.66 Y10.6 Z3.2 F960.0
G1 X33.03 Y11.28 Z3.2 F960.0
G1 X33.03 Y12.23 Z3.2 F960.0
G1 X34.46 Y12.68 Z3.2 F960.0
G1 X34.46 Y13.62 Z3.2 F960.0
G1 X33.03 Y13.17 Z3.2 F960.0
G1 X33.03 Y15.05 Z3.2 F960.0
G1 X34.46 Y14.57 Z3.2 F960.0
G1 X34.44 Y18.35 Z3.2 F960.0
G1 X33.03 Y16.0 Z3.2 F960.0
G1 X33.03 Y19.77 Z3.2 F960.0
G1 X34.44 Y19.3 Z3.2 F960.0
G1 X34.43 Y22.14 Z3.2 F960.0
G1 X33.03 Y20.71 Z3.2 F960.0
G1 X32.99 Y23.58 Z3.2 F960.0
