; generated by Slic3r 0.7.1 on 2013-05-11 at 15:28:49

; layer_height = 0.3
; perimeters = 3
; solid_layers = 3
; fill_density = 0.25
; nozzle_diameter = 0.5
; filament_diameter = 3
; extrusion_multiplier = 1
; perimeter_speed = 30
; infill_speed = 45
; travel_speed = 100
; extrusion_width_ratio = 0
; scale = 1
; single wall width = 0.70mm

M104 S185 ; set temperature
;G28 ; home all axes
M109 S185 ; wait for temperature to be reached
G90 ; use absolute coordinates
G21 ; set units to millimeters
G92 E0 ; reset extrusion distance
M82 ; use absolute distances for extrusion
M107
G1 Z0.300 F6000.000
G1 X-94.310 Y93.260
G1 F1800.000 E1.90000
G1 X-93.750 Y92.730 F360.000 E1.92142
G1 X-93.540 Y92.560 E1.92892
G1 X-93.330 Y92.410 E1.93609
G1 X-92.890 Y92.130 E1.95058
G1 X-92.430 Y91.890 E1.96499
G1 X-91.700 Y91.610 E1.98671
G1 X-91.200 Y91.480 E2.00106
G1 X-90.690 Y91.390 E2.01545
G1 X-90.430 Y91.360 E2.02272
G1 X-89.910 Y91.340 E2.03717
G1 X-68.090 Y91.360 E2.64328
G1 X-67.340 Y91.470 E2.66434
G1 X-66.840 Y91.600 E2.67869
G1 X-66.360 Y91.770 E2.69283
G1 X-65.900 Y91.980 E2.70688
G1 X-65.670 Y92.100 E2.71409
G1 X-65.450 Y92.230 E2.72118
G1 X-64.830 Y92.670 E2.74230
G1 X-64.450 Y93.010 E2.75647
G1 X-64.270 Y93.190 E2.76354
G1 X-63.930 Y93.570 E2.77770
G1 X-63.490 Y94.190 E2.79882
G1 X-63.360 Y94.410 E2.80592
G1 X-63.130 Y94.870 E2.82020
G1 X-62.940 Y95.340 E2.83429
G1 X-62.790 Y95.830 E2.84852
G1 X-62.730 Y96.080 E2.85566
G1 X-62.620 Y96.830 E2.87672
G1 X-62.620 Y153.160 E4.44144
G1 X-62.730 Y153.910 E4.46250
G1 X-62.860 Y154.410 E4.47685
G1 X-63.030 Y154.890 E4.49099
G1 X-63.240 Y155.350 E4.50504
G1 X-63.360 Y155.580 E4.51225
G1 X-63.490 Y155.800 E4.51934
G1 X-63.930 Y156.420 E4.54046
G1 X-64.270 Y156.800 E4.55463
G1 X-64.450 Y156.980 E4.56170
G1 X-64.830 Y157.320 E4.57586
G1 X-65.450 Y157.760 E4.59698
G1 X-65.670 Y157.890 E4.60408
G1 X-66.130 Y158.120 E4.61836
G1 X-66.600 Y158.310 E4.63245
G1 X-67.090 Y158.460 E4.64668
G1 X-67.340 Y158.520 E4.65382
G1 X-68.090 Y158.630 E4.67488
G1 X-68.600 Y158.650 E4.68906
G1 X-121.920 Y158.630 E6.17017
G1 X-122.670 Y158.520 E6.19122
G1 X-123.170 Y158.390 E6.20557
G1 X-123.650 Y158.220 E6.21972
G1 X-124.110 Y158.010 E6.23377
G1 X-124.340 Y157.890 E6.24097
G1 X-124.560 Y157.760 E6.24807
G1 X-125.180 Y157.320 E6.26919
G1 X-125.560 Y156.980 E6.28335
G1 X-125.740 Y156.800 E6.29042
G1 X-126.080 Y156.420 E6.30459
G1 X-126.520 Y155.800 E6.32571
G1 X-126.650 Y155.580 E6.33280
G1 X-126.880 Y155.120 E6.34709
G1 X-127.070 Y154.650 E6.36117
G1 X-127.220 Y154.160 E6.37541
G1 X-127.280 Y153.910 E6.38255
G1 X-127.390 Y153.160 E6.40360
G1 X-127.390 Y130.810 E7.02444
G1 X-127.320 Y130.290 E7.03901
G1 X-127.270 Y130.030 E7.04637
G1 X-127.130 Y129.520 E7.06106
G1 X-126.950 Y129.030 E7.07556
G1 X-126.720 Y128.550 E7.09034
G1 X-126.460 Y128.100 E7.10478
G1 X-126.150 Y127.660 E7.11973
G1 X-125.990 Y127.460 E7.12685
G1 X-94.381 Y93.337 E8.41889
G1 F1800.000 E6.51889
G1 Z0.600 F6000.000
G92 E0
G1 X-79.951 Y140.074
G1 Z0.300
G1 F1800.000 E1.90000
G1 X-79.606 Y139.981 F360.000 E1.90992
G1 X-79.250 Y139.950 E1.91985
G1 X-78.894 Y139.981 E1.92977
G1 X-78.549 Y140.074 E1.93970
G1 X-78.225 Y140.225 E1.94962
G1 X-77.932 Y140.430 E1.95955
G1 X-77.680 Y140.682 E1.96947
G1 X-77.475 Y140.975 E1.97940
G1 X-77.324 Y141.299 E1.98932
G1 X-77.231 Y141.644 E1.99925
G1 X-77.200 Y142.000 E2.00917
G1 X-77.231 Y142.356 E2.01909
G1 X-77.324 Y142.701 E2.02902
G1 X-77.475 Y143.025 E2.03894
G1 X-77.680 Y143.318 E2.04887
G1 X-77.932 Y143.570 E2.05879
G1 X-78.225 Y143.775 E2.06872
G1 X-78.549 Y143.926 E2.07864
G1 X-78.894 Y144.019 E2.08857
G1 X-79.250 Y144.050 E2.09849
G1 X-79.606 Y144.019 E2.10842
G1 X-79.951 Y143.926 E2.11834
G1 X-80.275 Y143.775 E2.12826
G1 X-80.568 Y143.570 E2.13819
G1 X-80.820 Y143.318 E2.14811
G1 X-81.025 Y143.025 E2.15804
G1 X-81.176 Y142.701 E2.16796
G1 X-81.269 Y142.356 E2.17789
G1 X-81.300 Y142.000 E2.18781
G1 X-81.269 Y141.644 E2.19774
G1 X-81.176 Y141.299 E2.20766
G1 X-81.025 Y140.975 E2.21759
G1 X-80.820 Y140.682 E2.22751
G1 X-80.568 Y140.430 E2.23743
G1 X-80.275 Y140.225 E2.24736
G1 X-80.046 Y140.118 E2.25438
G1 X-80.164 Y139.490 F6000.000
G1 X-79.714 Y139.369 F360.000 E2.26732
G1 X-79.250 Y139.328 E2.28025
G1 X-78.786 Y139.369 E2.29319
G1 X-78.336 Y139.490 E2.30612
G1 X-77.914 Y139.686 E2.31906
G1 X-77.533 Y139.953 E2.33199
G1 X-77.203 Y140.283 E2.34493
G1 X-76.936 Y140.664 E2.35786
G1 X-76.740 Y141.086 E2.37080
G1 X-76.619 Y141.536 E2.38374
G1 X-76.578 Y142.000 E2.39667
G1 X-76.619 Y142.464 E2.40961
G1 X-76.740 Y142.914 E2.42254
G1 X-76.936 Y143.336 E2.43548
G1 X-77.204 Y143.717 E2.44841
G1 X-77.533 Y144.047 E2.46135
G1 X-77.914 Y144.314 E2.47428
G1 X-78.336 Y144.510 E2.48722
G1 X-78.786 Y144.631 E2.50015
G1 X-79.250 Y144.672 E2.51309
G1 X-79.714 Y144.631 E2.52603
G1 X-80.164 Y144.510 E2.53896
G1 X-80.586 Y144.314 E2.55190
G1 X-80.967 Y144.047 E2.56483
G1 X-81.297 Y143.717 E2.57777
G1 X-81.564 Y143.336 E2.59070
G1 X-81.760 Y142.914 E2.60364
G1 X-81.881 Y142.464 E2.61657
G1 X-81.922 Y142.000 E2.62951
G1 X-81.881 Y141.536 E2.64244
G1 X-81.760 Y141.086 E2.65538
G1 X-81.564 Y140.664 E2.66832
G1 X-81.297 Y140.283 E2.68125
G1 X-80.967 Y139.953 E2.69419
G1 X-80.586 Y139.686 E2.70712
G1 X-80.258 Y139.534 E2.71715
G1 X-80.376 Y138.905 F6000.000
G1 X-79.822 Y138.757 F360.000 E2.73310
G1 X-79.250 Y138.707 E2.74905
G1 X-78.678 Y138.757 E2.76499
G1 X-78.124 Y138.905 E2.78094
G1 X-77.603 Y139.148 E2.79689
G1 X-77.133 Y139.477 E2.81283
G1 X-76.727 Y139.883 E2.82878
G1 X-76.398 Y140.353 E2.84473
G1 X-76.155 Y140.874 E2.86067
G1 X-76.007 Y141.428 E2.87662
G1 X-75.957 Y142.000 E2.89256
G1 X-76.007 Y142.572 E2.90851
G1 X-76.155 Y143.126 E2.92446
G1 X-76.398 Y143.647 E2.94040
G1 X-76.727 Y144.117 E2.95635
G1 X-77.133 Y144.523 E2.97230
G1 X-77.603 Y144.852 E2.98824
G1 X-78.124 Y145.095 E3.00419
G1 X-78.678 Y145.243 E3.02013
G1 X-79.250 Y145.293 E3.03608
G1 X-79.822 Y145.243 E3.05203
G1 X-80.376 Y145.095 E3.06797
G1 X-80.897 Y144.852 E3.08392
G1 X-81.367 Y144.523 E3.09987
G1 X-81.773 Y144.117 E3.11581
G1 X-82.102 Y143.647 E3.13176
G1 X-82.345 Y143.126 E3.14771
G1 X-82.493 Y142.572 E3.16365
G1 X-82.543 Y142.000 E3.17960
G1 X-82.493 Y141.428 E3.19554
G1 X-82.345 Y140.874 E3.21149
G1 X-82.102 Y140.353 E3.22744
G1 X-81.773 Y139.883 E3.24338
G1 X-81.367 Y139.477 E3.25933
G1 X-80.897 Y139.148 E3.27528
G1 X-80.471 Y138.949 E3.28832
G1 F1800.000 E1.38832
G1 Z0.600 F6000.000
G92 E0
G1 X-93.481 Y141.644
G1 Z0.300
G1 F1800.000 E1.90000
G1 X-93.450 Y142.000 F360.000 E1.90992
G1 X-93.481 Y142.356 E1.91985
G1 X-93.574 Y142.701 E1.92977
G1 X-93.725 Y143.025 E1.93970
G1 X-93.930 Y143.318 E1.94962
G1 X-94.182 Y143.570 E1.95955
G1 X-94.475 Y143.775 E1.96947
G1 X-94.799 Y143.926 E1.97940
G1 X-95.144 Y144.019 E1.98932
G1 X-95.500 Y144.050 E1.99925
G1 X-95.856 Y144.019 E2.00917
G1 X-96.201 Y143.926 E2.01909
G1 X-96.525 Y143.775 E2.02902
G1 X-96.818 Y143.570 E2.03894
G1 X-97.070 Y143.318 E2.04887
G1 X-97.275 Y143.025 E2.05879
G1 X-97.426 Y142.701 E2.06872
G1 X-97.519 Y142.356 E2.07864
G1 X-97.550 Y142.000 E2.08857
G1 X-97.519 Y141.644 E2.09849
G1 X-97.426 Y141.299 E2.10842
G1 X-97.275 Y140.975 E2.11834
G1 X-97.070 Y140.682 E2.12826
G1 X-96.818 Y140.430 E2.13819
G1 X-96.525 Y140.225 E2.14811
G1 X-96.201 Y140.074 E2.15804
G1 X-95.856 Y139.981 E2.16796
G1 X-95.500 Y139.950 E2.17789
G1 X-95.144 Y139.981 E2.18781
G1 X-94.799 Y140.074 E2.19774
G1 X-94.475 Y140.225 E2.20766
G1 X-94.182 Y140.430 E2.21759
G1 X-93.930 Y140.682 E2.22751
G1 X-93.725 Y140.975 E2.23743
G1 X-93.574 Y141.299 E2.24736
G1 X-93.509 Y141.543 E2.25438
G1 X-92.869 Y141.536 F6000.000
G1 X-92.828 Y142.000 F360.000 E2.26732
G1 X-92.869 Y142.464 E2.28025
G1 X-92.990 Y142.914 E2.29319
G1 X-93.186 Y143.336 E2.30612
G1 X-93.453 Y143.717 E2.31906
G1 X-93.783 Y144.046 E2.33199
G1 X-94.164 Y144.314 E2.34493
G1 X-94.586 Y144.510 E2.35786
G1 X-95.036 Y144.631 E2.37080
G1 X-95.500 Y144.672 E2.38374
G1 X-95.964 Y144.631 E2.39667
G1 X-96.414 Y144.510 E2.40961
G1 X-96.836 Y144.314 E2.42254
G1 X-97.217 Y144.046 E2.43548
G1 X-97.546 Y143.717 E2.44841
G1 X-97.814 Y143.336 E2.46135
G1 X-98.010 Y142.914 E2.47428
G1 X-98.131 Y142.464 E2.48722
G1 X-98.172 Y142.000 E2.50015
G1 X-98.131 Y141.536 E2.51309
G1 X-98.010 Y141.086 E2.52603
G1 X-97.814 Y140.664 E2.53896
G1 X-97.547 Y140.283 E2.55190
G1 X-97.217 Y139.953 E2.56483
G1 X-96.836 Y139.686 E2.57777
G1 X-96.414 Y139.490 E2.59070
G1 X-95.964 Y139.369 E2.60364
G1 X-95.500 Y139.328 E2.61657
G1 X-95.036 Y139.369 E2.62951
G1 X-94.586 Y139.490 E2.64244
G1 X-94.164 Y139.686 E2.65538
G1 X-93.783 Y139.953 E2.66832
G1 X-93.453 Y140.283 E2.68125
G1 X-93.186 Y140.664 E2.69419
G1 X-92.990 Y141.086 E2.70712
G1 X-92.896 Y141.435 E2.71715
G1 X-92.257 Y141.428 F6000.000
G1 X-92.207 Y142.000 F360.000 E2.73310
G1 X-92.257 Y142.572 E2.74905
G1 X-92.405 Y143.126 E2.76499
G1 X-92.648 Y143.647 E2.78094
G1 X-92.977 Y144.117 E2.79689
G1 X-93.383 Y144.523 E2.81283
G1 X-93.853 Y144.852 E2.82878
G1 X-94.374 Y145.095 E2.84473
G1 X-94.928 Y145.243 E2.86067
G1 X-95.500 Y145.293 E2.87662
G1 X-96.072 Y145.243 E2.89256
G1 X-96.626 Y145.095 E2.90851
G1 X-97.147 Y144.852 E2.92446
G1 X-97.617 Y144.523 E2.94040
G1 X-98.023 Y144.117 E2.95635
G1 X-98.352 Y143.647 E2.97230
G1 X-98.595 Y143.126 E2.98824
G1 X-98.743 Y142.572 E3.00419
G1 X-98.793 Y142.000 E3.02013
G1 X-98.743 Y141.428 E3.03608
G1 X-98.595 Y140.874 E3.05203
G1 X-98.352 Y140.353 E3.06797
G1 X-98.023 Y139.883 E3.08392
G1 X-97.617 Y139.477 E3.09987
G1 X-97.147 Y139.148 E3.11581
G1 X-96.626 Y138.905 E3.13176
G1 X-96.072 Y138.757 E3.14771
G1 X-95.500 Y138.707 E3.16365
G1 X-94.928 Y138.757 E3.17960
G1 X-94.374 Y138.905 E3.19554
G1 X-93.853 Y139.148 E3.21149
G1 X-93.383 Y139.477 E3.22744
G1 X-92.977 Y139.883 E3.24338
G1 X-92.648 Y140.353 E3.25933
G1 X-92.405 Y140.874 E3.27528
G1 X-92.284 Y141.327 E3.28832
G1 F1800.000 E1.38832
G1 Z0.600 F6000.000
G92 E0
G1 X-109.700 Y142.000
G1 Z0.300
G1 F1800.000 E1.90000
G1 X-109.731 Y142.356 F360.000 E1.90992
G1 X-109.824 Y142.701 E1.91985
G1 X-109.975 Y143.025 E1.92977
G1 X-110.180 Y143.318 E1.93970
G1 X-110.432 Y143.570 E1.94962
G1 X-110.725 Y143.775 E1.95955
G1 X-111.049 Y143.926 E1.96947
G1 X-111.394 Y144.019 E1.97940
G1 X-111.750 Y144.050 E1.98932
G1 X-112.106 Y144.019 E1.99925
G1 X-112.451 Y143.926 E2.00917
G1 X-112.775 Y143.775 E2.01909
G1 X-113.068 Y143.570 E2.02902
G1 X-113.320 Y143.318 E2.03894
G1 X-113.525 Y143.025 E2.04887
G1 X-113.676 Y142.701 E2.05879
G1 X-113.769 Y142.356 E2.06872
G1 X-113.800 Y142.000 E2.07864
G1 X-113.769 Y141.644 E2.08857
G1 X-113.676 Y141.299 E2.09849
G1 X-113.525 Y140.975 E2.10842
G1 X-113.320 Y140.682 E2.11834
G1 X-113.068 Y140.430 E2.12826
G1 X-112.775 Y140.225 E2.13819
G1 X-112.451 Y140.074 E2.14811
G1 X-112.106 Y139.981 E2.15804
G1 X-111.750 Y139.950 E2.16796
G1 X-111.394 Y139.981 E2.17789
G1 X-111.049 Y140.074 E2.18781
G1 X-110.725 Y140.225 E2.19774
G1 X-110.432 Y140.430 E2.20766
G1 X-110.180 Y140.682 E2.21759
G1 X-109.975 Y140.975 E2.22751
G1 X-109.824 Y141.299 E2.23744
G1 X-109.731 Y141.644 E2.24736
G1 X-109.709 Y141.896 E2.25438
G1 X-109.078 Y142.000 F6000.000
G1 X-109.119 Y142.464 F360.000 E2.26732
G1 X-109.240 Y142.914 E2.28025
G1 X-109.436 Y143.336 E2.29319
G1 X-109.704 Y143.717 E2.30612
G1 X-110.033 Y144.046 E2.31906
G1 X-110.414 Y144.314 E2.33199
G1 X-110.836 Y144.510 E2.34493
G1 X-111.286 Y144.631 E2.35786
G1 X-111.750 Y144.672 E2.37080
G1 X-112.214 Y144.631 E2.38374
G1 X-112.664 Y144.510 E2.39667
G1 X-113.086 Y144.314 E2.40961
G1 X-113.467 Y144.046 E2.42254
G1 X-113.796 Y143.717 E2.43548
G1 X-114.064 Y143.336 E2.44841
G1 X-114.260 Y142.914 E2.46135
G1 X-114.381 Y142.464 E2.47428
G1 X-114.422 Y142.000 E2.48722
G1 X-114.381 Y141.536 E2.50015
G1 X-114.260 Y141.086 E2.51309
G1 X-114.064 Y140.664 E2.52603
G1 X-113.797 Y140.283 E2.53896
G1 X-113.467 Y139.953 E2.55190
G1 X-113.086 Y139.686 E2.56483
G1 X-112.664 Y139.490 E2.57777
G1 X-112.214 Y139.369 E2.59070
G1 X-111.750 Y139.328 E2.60364
G1 X-111.286 Y139.369 E2.61657
G1 X-110.836 Y139.490 E2.62951
G1 X-110.414 Y139.686 E2.64244
G1 X-110.033 Y139.953 E2.65538
G1 X-109.703 Y140.283 E2.66832
G1 X-109.436 Y140.664 E2.68125
G1 X-109.240 Y141.086 E2.69419
G1 X-109.119 Y141.536 E2.70712
G1 X-109.088 Y141.896 E2.71715
G1 X-108.457 Y142.000 F6000.000
G1 X-108.507 Y142.572 F360.000 E2.73310
G1 X-108.655 Y143.126 E2.74905
G1 X-108.898 Y143.647 E2.76499
G1 X-109.227 Y144.117 E2.78094
G1 X-109.633 Y144.523 E2.79689
G1 X-110.103 Y144.852 E2.81283
G1 X-110.624 Y145.095 E2.82878
G1 X-111.178 Y145.243 E2.84472
G1 X-111.750 Y145.293 E2.86067
G1 X-112.322 Y145.243 E2.87662
G1 X-112.876 Y145.095 E2.89256
G1 X-113.397 Y144.852 E2.90851
G1 X-113.867 Y144.523 E2.92446
G1 X-114.273 Y144.117 E2.94040
G1 X-114.602 Y143.647 E2.95635
G1 X-114.845 Y143.126 E2.97230
G1 X-114.993 Y142.572 E2.98824
G1 X-115.043 Y142.000 E3.00419
G1 X-114.993 Y141.428 E3.02013
G1 X-114.845 Y140.874 E3.03608
G1 X-114.602 Y140.353 E3.05203
G1 X-114.273 Y139.883 E3.06797
G1 X-113.867 Y139.477 E3.08392
G1 X-113.397 Y139.148 E3.09987
G1 X-112.876 Y138.905 E3.11581
G1 X-112.322 Y138.757 E3.13176
G1 X-111.750 Y138.707 E3.14771
G1 X-111.178 Y138.757 E3.16365
G1 X-110.624 Y138.905 E3.17960
G1 X-110.103 Y139.148 E3.19554
G1 X-109.633 Y139.477 E3.21149
G1 X-109.227 Y139.883 E3.22744
G1 X-108.898 Y140.353 E3.24338
G1 X-108.655 Y140.874 E3.25933
G1 X-108.507 Y141.428 E3.27528
G1 X-108.466 Y141.896 E3.28832
G1 F1800.000 E1.38832
G1 Z0.600 F6000.000
G92 E0
G1 X-120.163 Y132.587
G1 Z0.300
G1 F1800.000 E1.90000
G1 X-88.663 Y132.587 F360.000 E2.77500
G1 X-88.663 Y98.587 E3.71944
G1 X-69.837 Y98.587 E4.24237
G1 X-69.837 Y151.413 E5.70975
G1 X-120.163 Y151.413 E7.10767
G1 X-120.163 Y132.692 E7.62770
G1 X-120.782 Y131.968 F6000.000
G1 X-89.282 Y131.968 F360.000 E8.50270
G1 X-89.282 Y97.968 E9.44714
G1 X-69.218 Y97.968 E10.00449
G1 X-69.218 Y152.032 E11.50628
G1 X-120.782 Y152.032 E12.93862
G1 X-120.782 Y132.072 E13.49306
G1 X-121.402 Y131.348 F6000.000
G1 X-89.902 Y131.348 F360.000 E14.36806
G1 X-89.902 Y97.348 E15.31250
G1 X-68.598 Y97.348 E15.90426
G1 X-68.598 Y152.652 E17.44046
G1 X-121.402 Y152.652 E18.90722
G1 X-121.402 Y131.453 E19.49608
G1 X-113.903 Y133.010 F6000.000
G1 X-95.922 Y150.990 F540.000 E20.21000
G1 X-96.804 Y150.990 F6000.000
G1 X-114.785 Y133.010 F540.000 E20.92392
G1 X-115.668 Y133.010 E20.94870
G1 X-110.111 Y138.566 E21.16930
G1 X-111.251 Y138.308 E21.20211
G1 X-116.550 Y133.010 E21.41250
G1 X-117.432 Y133.010 E21.43727
G1 X-112.111 Y138.331 E21.64854
G1 X-112.824 Y138.500 F6000.000
G1 X-118.315 Y133.010 F540.000 E21.86653
G1 X-119.197 Y133.010 E21.89130
G1 X-113.435 Y138.771 E22.12007
G1 X-113.965 Y139.124 F6000.000
G1 X-119.740 Y133.349 F540.000 E22.34940
G1 X-119.740 Y134.231 E22.37417
G1 X-114.422 Y139.550 E22.58535
G1 X-114.808 Y140.046 F6000.000
G1 X-119.740 Y135.113 F540.000 E22.78119
G1 X-119.740 Y135.996 E22.80597
G1 X-115.119 Y140.617 E22.98944
G1 X-115.344 Y141.275 F6000.000
G1 X-119.740 Y136.878 F540.000 E23.16401
G1 X-119.740 Y137.761 E23.18878
G1 X-115.455 Y142.046 E23.35893
G1 X-115.373 Y143.010 F6000.000
G1 X-119.740 Y138.643 F540.000 E23.53234
G1 X-119.740 Y139.525 E23.55712
G1 X-114.552 Y144.713 E23.76310
G1 X-114.463 Y144.802 F6000.000
G1 X-108.275 Y150.990 F540.000 E24.00880
G1 X-109.158 Y150.990 E24.03357
G1 X-119.740 Y140.408 E24.45375
G1 X-119.740 Y141.290 E24.47852
G1 X-110.040 Y150.990 E24.86367
G1 X-110.922 Y150.990 E24.88845
G1 X-119.740 Y142.172 E25.23856
G1 X-119.740 Y143.055 E25.26333
G1 X-111.805 Y150.990 E25.57841
G1 X-112.687 Y150.990 E25.60319
G1 X-119.740 Y143.937 E25.88323
G1 X-119.740 Y144.820 E25.90800
G1 X-113.570 Y150.990 E26.15301
G1 X-114.452 Y150.990 E26.17779
G1 X-119.740 Y145.702 E26.38776
G1 X-119.740 Y146.584 E26.41253
G1 X-115.334 Y150.990 E26.58747
G1 X-116.217 Y150.990 E26.61225
G1 X-119.740 Y147.467 E26.75215
G1 X-119.740 Y148.349 E26.77693
G1 X-117.099 Y150.990 E26.88180
G1 X-117.981 Y150.990 E26.90657
G1 X-119.740 Y149.231 E26.97641
G1 X-119.740 Y150.114 E27.00118
G1 X-118.864 Y150.990 E27.03598
G1 F1800.000 E25.13598
G1 Z0.600 F6000.000
G92 E0
G1 X-112.760 Y145.623
G1 Z0.300
