; generated by Slic3r 0.9.9-dev on 2013-07-13 at 23:30:13

; layer_height = 0.3
; perimeters = 3
; top_solid_layers = 4
; bottom_solid_layers = 4
; fill_density = 0.25
; perimeter_speed = 50
; infill_speed = 80
; travel_speed = 165
; nozzle_diameter = 0.5
; filament_diameter = 2.85
; extrusion_multiplier = 1
; perimeters extrusion width = 0.70mm
; infill extrusion width = 0.70mm
; solid infill extrusion width = 0.70mm
; top infill extrusion width = 0.70mm
; support material extrusion width = 0.70mm
; first layer extrusion width = 1.00mm

G21 ; set units to millimeters
M107
M190 S68 ; wait for bed temperature to be reached
M104 S185 ; set temperature
;G28 ; home all axes
;G1 Z5 F5000 ; lift nozzle
M109 S185 ; wait for temperature to be reached
G90 ; use absolute coordinates
G92 E0
M82 ; use absolute distances for extrusion
G1 F1800.000 E-1.00000
G1 Z0.800
G92 E0
G1 X101.386 Y67.013 F9900.000
G1 Z0.500
G1 F1800.000 E1.00000
G1 X101.856 Y66.333 F900.000 E1.05784
G1 X103.036 Y64.823 E1.19192
G1 X103.576 Y64.203 E1.24945
G1 X104.896 Y62.873 E1.38055
G1 X105.556 Y62.293 E1.44203
G1 X107.036 Y61.143 E1.57317
G1 X107.696 Y60.693 E1.62906
G1 X109.296 Y59.723 E1.75997
G1 X110.036 Y59.333 E1.81850
G1 X111.746 Y58.563 E1.94971
G1 X112.546 Y58.253 E2.00974
G1 X114.326 Y57.703 E2.14009
G1 X115.086 Y57.513 E2.19491
G1 X116.906 Y57.173 E2.32445
G1 X117.776 Y57.073 E2.38572
G1 X119.666 Y56.963 E2.51818
G1 X120.466 Y56.963 E2.57416
G1 X122.336 Y57.073 E2.70522
G1 X123.186 Y57.173 E2.76511
G1 X125.026 Y57.513 E2.89603
G1 X125.796 Y57.703 E2.95152
G1 X127.586 Y58.253 E3.08254
G1 X128.396 Y58.563 E3.14322
G1 X130.106 Y59.333 E3.27443
G1 X130.846 Y59.723 E3.33296
G1 X132.446 Y60.693 E3.46387
G1 X133.126 Y61.153 E3.52132
G1 X134.596 Y62.303 E3.65190
G1 X135.236 Y62.873 E3.71187
G1 X136.556 Y64.203 E3.84297
G1 X137.076 Y64.793 E3.89800
G1 X138.236 Y66.263 E4.02902
G1 X138.716 Y66.963 E4.08840
G1 X139.686 Y68.563 E4.21932
G1 X140.076 Y69.303 E4.27784
G1 X140.846 Y71.013 E4.40906
G1 X141.156 Y71.823 E4.46974
G1 X141.706 Y73.613 E4.60076
G1 X141.896 Y74.383 E4.65625
G1 X142.236 Y76.223 E4.78717
G1 X142.336 Y77.073 E4.84705
G1 X142.446 Y78.943 E4.97812
G1 X142.806 Y108.823 E7.06889
G1 X142.806 Y112.743 E7.34317
G1 X142.726 Y113.553 E7.40012
G1 X142.616 Y114.083 E7.43799
G1 X142.476 Y114.603 E7.47567
G1 X142.386 Y114.863 E7.49492
G1 X142.056 Y115.603 E7.55161
G1 X141.796 Y116.073 E7.58919
G1 X141.646 Y116.303 E7.60840
G1 X141.496 Y116.523 E7.62703
G1 X141.156 Y116.953 E7.66539
G1 X140.596 Y117.533 E7.72180
G1 X139.966 Y118.053 E7.77895
G1 X139.516 Y118.353 E7.81679
G1 X139.046 Y118.613 E7.85437
G1 X138.306 Y118.943 E7.91106
G1 X138.046 Y119.033 E7.93031
G1 X137.256 Y119.233 E7.98733
G1 X136.996 Y119.283 E8.00586
G1 X136.186 Y119.363 E8.06281
G1 X103.816 Y119.363 E10.32765
G1 X103.006 Y119.283 E10.38460
G1 X102.476 Y119.173 E10.42247
G1 X101.956 Y119.033 E10.46015
G1 X101.696 Y118.943 E10.47940
G1 X100.956 Y118.613 E10.53609
G1 X100.486 Y118.353 E10.57367
G1 X100.256 Y118.203 E10.59289
G1 X100.036 Y118.053 E10.61152
G1 X99.606 Y117.713 E10.64987
G1 X99.026 Y117.153 E10.70628
G1 X98.506 Y116.523 E10.76344
G1 X98.206 Y116.073 E10.80128
G1 X97.946 Y115.603 E10.83886
G1 X97.616 Y114.863 E10.89555
G1 X97.526 Y114.603 E10.91480
G1 X97.326 Y113.813 E10.97182
G1 X97.276 Y113.553 E10.99034
G1 X97.196 Y112.743 E11.04729
G1 X97.196 Y108.793 E11.32366
G1 X97.686 Y78.903 E13.41527
G1 X97.806 Y77.033 E13.54638
G1 X97.906 Y76.253 E13.60140
G1 X98.236 Y74.413 E13.73219
G1 X98.436 Y73.573 E13.79261
G1 X98.996 Y71.783 E13.92383
G1 X99.296 Y71.013 E13.98165
G1 X100.066 Y69.303 E14.11287
G1 X100.446 Y68.573 E14.17045
G1 X101.317 Y67.127 E14.28851
G1 F1800.000 E13.28851
G1 Z0.800
G92 E0
G1 X104.078 Y108.906 F9900.000
G1 Z0.500
G1 F1800.000 E1.00000
G1 X135.922 Y108.906 F1080.000 E3.22807
G1 X135.922 Y110.692 E3.35299
G1 X104.078 Y110.692 E5.58107
G1 X104.078 Y112.477 E5.70599
G1 X135.922 Y112.477 E7.93406
G1 F1800.000 E6.93406
G1 Z0.800
G92 E0
G1 X137.574 Y109.394 F9900.000
G1 X122.995 Y84.679
G1 Z0.500
G1 F1800.000 E1.00000
G1 X122.158 Y85.069 F540.000 E1.06460
G1 X121.132 Y85.344 E1.13893
G1 X120.074 Y85.437 E1.21326
G1 X119.016 Y85.344 E1.28758
G1 X117.990 Y85.069 E1.36191
G1 X117.027 Y84.620 E1.43623
G1 X116.157 Y84.011 E1.51056
G1 X115.405 Y83.260 E1.58488
G1 X114.796 Y82.390 E1.65921
G1 X114.347 Y81.427 E1.73353
G1 X114.072 Y80.401 E1.80785
G1 X113.980 Y79.342 E1.88218
G1 X114.072 Y78.284 E1.95651
G1 X114.347 Y77.258 E2.03083
G1 X114.796 Y76.295 E2.10516
G1 X115.405 Y75.425 E2.17948
G1 X116.157 Y74.674 E2.25380
G1 X117.027 Y74.065 E2.32813
G1 X117.990 Y73.616 E2.40246
G1 X119.016 Y73.341 E2.47678
G1 X120.074 Y73.248 E2.55111
G1 X121.132 Y73.341 E2.62544
G1 X122.158 Y73.616 E2.69976
G1 X123.121 Y74.065 E2.77408
G1 X123.991 Y74.674 E2.84841
G1 X124.742 Y75.425 E2.92273
G1 X125.352 Y76.295 E2.99706
G1 X125.801 Y77.258 E3.07138
G1 X126.075 Y78.284 E3.14571
G1 X126.168 Y79.342 E3.22003
G1 X126.075 Y80.401 E3.29436
G1 X125.801 Y81.427 E3.36868
G1 X125.352 Y82.390 E3.44301
G1 X124.742 Y83.260 E3.51733
G1 X123.991 Y84.011 E3.59165
G1 X123.116 Y84.622 E3.66633
G1 X122.673 Y83.844 F9900.000
G1 X121.852 Y84.227 F540.000 E3.72973
G1 X120.977 Y84.462 E3.79312
G1 X120.074 Y84.541 E3.85652
G1 X119.171 Y84.462 E3.91992
G1 X118.296 Y84.227 E3.98331
G1 X117.475 Y83.844 E4.04671
G1 X116.733 Y83.324 E4.11010
G1 X116.092 Y82.684 E4.17350
G1 X115.572 Y81.942 E4.23690
G1 X115.189 Y81.120 E4.30029
G1 X114.955 Y80.245 E4.36369
G1 X114.876 Y79.343 E4.42708
G1 X114.955 Y78.440 E4.49048
G1 X115.189 Y77.565 E4.55387
G1 X115.572 Y76.744 E4.61727
G1 X116.092 Y76.001 E4.68067
G1 X116.733 Y75.361 E4.74406
G1 X117.475 Y74.841 E4.80746
G1 X118.296 Y74.458 E4.87086
G1 X119.171 Y74.223 E4.93425
G1 X120.074 Y74.144 E4.99765
G1 X120.977 Y74.223 E5.06105
G1 X121.907 Y74.484 E5.12864
G1 X122.673 Y74.841 E5.18778
G1 X123.415 Y75.361 E5.25117
G1 X124.056 Y76.001 E5.31457
G1 X124.576 Y76.743 E5.37796
G1 X124.958 Y77.565 E5.44136
G1 X125.193 Y78.440 E5.50476
G1 X125.272 Y79.343 E5.56815
G1 X125.193 Y80.245 E5.63155
G1 X124.958 Y81.120 E5.69494
G1 X124.576 Y81.942 E5.75834
G1 X124.056 Y82.684 E5.82174
G1 X123.415 Y83.324 E5.88513
G1 X122.783 Y83.767 E5.93916
G1 X122.647 Y84.736 F9900.000
G1 F1800.000 E4.93916
G1 Z0.800
G92 E0
G1 X128.338 Y88.357 F9900.000
G1 X130.458 Y87.570
G1 X129.333 Y87.693
G1 Z0.500
G1 F1800.000 E1.00000
G1 X130.019 Y88.515 F630.000 E1.07490
G1 X129.121 Y89.426 E1.16439
G1 X127.819 Y90.457 E1.28062
G1 X126.401 Y91.322 E1.39684
G1 X124.887 Y92.006 E1.51307
G1 X123.266 Y92.511 E1.63187
G1 X121.618 Y92.537 E1.74718
G1 X120.015 Y92.345 E1.86012
G1 X118.453 Y91.939 E1.97305
G1 X117.471 Y91.536 E2.04731
G1 X117.103 Y92.541 E2.12221
G1 X115.865 Y92.219 E2.21170
G1 X114.321 Y91.608 E2.32792
G1 X112.863 Y90.811 E2.44415
G1 X111.514 Y89.842 E2.56037
G1 X110.266 Y88.691 E2.67917
G1 X109.419 Y87.277 E2.79449
G1 X108.784 Y85.793 E2.90742
G1 X108.354 Y84.237 E3.02036
G1 X108.212 Y83.186 E3.09461
G1 X107.158 Y83.369 E3.16951
G1 X106.818 Y82.136 E3.25900
G1 X106.576 Y80.493 E3.37523
G1 X106.536 Y78.832 E3.49145
G1 X106.701 Y77.179 E3.60768
G1 X107.074 Y75.523 E3.72648
G1 X107.875 Y74.082 E3.84179
G1 X108.842 Y72.790 E3.95473
G1 X109.975 Y71.640 E4.06767
G1 X110.815 Y70.992 E4.14192
G1 X110.129 Y70.170 E4.21682
G1 X111.026 Y69.259 E4.30631
G1 X112.329 Y68.228 E4.42254
G1 X113.747 Y67.363 E4.53876
G1 X115.261 Y66.679 E4.65499
G1 X116.882 Y66.174 E4.77379
G1 X118.530 Y66.148 E4.88910
G1 X120.132 Y66.340 E5.00204
G1 X121.695 Y66.746 E5.11497
G1 X122.676 Y67.149 E5.18923
G1 X123.045 Y66.144 E5.26412
G1 X124.282 Y66.466 E5.35361
G1 X125.827 Y67.078 E5.46984
G1 X127.285 Y67.874 E5.58607
G1 X128.634 Y68.843 E5.70229
G1 X129.882 Y69.994 E5.82109
G1 X130.729 Y71.408 E5.93641
G1 X131.364 Y72.892 E6.04934
G1 X131.793 Y74.448 E6.16228
G1 X131.935 Y75.500 E6.23653
G1 X132.990 Y75.316 E6.31143
G1 X133.330 Y76.549 E6.40092
G1 X133.572 Y78.192 E6.51715
G1 X133.611 Y79.853 E6.63337
G1 X133.447 Y81.506 E6.74960
G1 X133.074 Y83.162 E6.86840
G1 X132.273 Y84.603 E6.98371
G1 X131.305 Y85.895 E7.09665
G1 X130.173 Y87.045 E7.20959
G1 X129.439 Y87.611 E7.27447
G1 X130.167 Y88.011 F9900.000
G1 X131.834 Y87.902
G1 X133.342 Y86.371 F900.000 E7.42483
G1 X133.342 Y105.163 E8.73960
G1 X106.658 Y105.163 E10.60662
G1 X106.658 Y99.522 E11.00125
G1 X106.806 Y99.522 E11.01159
G1 X106.806 Y86.794 E11.90220
G1 X107.232 Y86.706 E11.93268
G1 X107.825 Y88.091 E12.03807
G1 X108.866 Y89.829 E12.17982
G1 X110.383 Y91.229 E12.32426
G1 X111.911 Y92.326 E12.45584
G1 X113.561 Y93.227 E12.58740
G1 X115.309 Y93.920 E12.71897
G1 X118.222 Y94.677 E12.92955
G1 X118.541 Y93.807 E12.99442
G1 X119.683 Y94.104 E13.07699
G1 X121.526 Y94.324 E13.20683
G1 X123.551 Y94.292 E13.34858
G1 X125.523 Y93.678 E13.49302
G1 X127.236 Y92.903 E13.62459
G1 X128.842 Y91.925 E13.75617
G1 X130.316 Y90.757 E13.88775
G1 X132.428 Y88.614 E14.09831
G1 X131.920 Y88.005 E14.15380
G1 X131.224 Y88.564 F9900.000
G1 X130.629 Y87.853 F900.000 E14.21866
G1 X131.984 Y86.478 E14.35368
G1 X133.024 Y85.089 E14.47508
G1 X133.902 Y83.510 E14.60152
G1 X134.235 Y83.596 E14.62558
G1 X134.235 Y106.055 E16.19698
G1 X105.765 Y106.055 E18.18893
G1 X105.765 Y98.630 E18.70847
G1 X105.913 Y98.630 E18.71881
G1 X105.913 Y84.492 E19.70797
G1 X107.426 Y84.229 E19.81543
G1 X107.939 Y86.089 E19.95045
G1 X108.622 Y87.684 E20.07184
G1 X109.566 Y89.260 E20.20037
G1 X110.949 Y90.536 E20.33199
G1 X112.387 Y91.568 E20.45590
G1 X113.941 Y92.417 E20.57979
G1 X115.587 Y93.070 E20.70369
G1 X117.663 Y93.609 E20.85372
G1 X117.981 Y92.739 E20.91858
G1 X119.849 Y93.225 E21.05360
G1 X121.572 Y93.431 E21.17500
G1 X123.409 Y93.401 E21.30352
G1 X125.205 Y92.842 E21.43515
G1 X126.818 Y92.112 E21.55905
G1 X128.331 Y91.191 E21.68294
G1 X129.719 Y90.091 E21.80685
G1 X131.130 Y88.660 E21.94750
G1 F1800.000 E20.94750
G1 Z0.800
G92 E0
G1 X130.752 Y88.108 F9900.000
G1 X130.458 Y87.570
G1 X128.338 Y88.357
G1 X124.439 Y86.903
G1 Z0.500
G1 F1800.000 E1.00000
G1 X115.709 Y86.903 F900.000 E1.61086
G1 X111.343 Y79.343 E2.22172
G1 X115.709 Y71.782 E2.83258
G1 X124.439 Y71.782 E3.44344
G1 X128.805 Y79.343 E4.05430
G1 X124.506 Y86.788 E4.65579
G1 F1800.000 E3.65579
G1 Z0.800
G92 E0
G1 X128.338 Y88.357 F9900.000
G1 X130.458 Y87.570
G1 X132.341 Y84.629
G1 X135.074 Y79.388
G1 X135.128 Y79.356
G1 Z0.500
G1 F1800.000 E1.00000
G1 X135.128 Y106.948 F630.000 E2.93054
G1 X104.872 Y106.948 E5.04740
G1 X104.872 Y97.737 E5.69187
G1 X105.020 Y97.737 E5.70221
G1 X105.020 Y79.356 E6.98828
G1 X105.131 Y77.528 E7.11641
G1 X105.458 Y75.740 E7.24359
G1 X105.999 Y74.005 E7.37077
G1 X106.745 Y72.347 E7.49795
G1 X107.686 Y70.792 E7.62514
G1 X108.807 Y69.361 E7.75232
G1 X110.092 Y68.075 E7.87950
G1 X111.523 Y66.954 E8.00668
G1 X113.078 Y66.014 E8.13386
G1 X114.736 Y65.268 E8.26105
G1 X116.471 Y64.727 E8.38823
G1 X118.259 Y64.399 E8.51541
G1 X120.074 Y64.290 E8.64259
G1 X121.888 Y64.399 E8.76977
G1 X123.676 Y64.727 E8.89696
G1 X125.412 Y65.268 E9.02414
G1 X127.069 Y66.014 E9.15132
G1 X128.625 Y66.954 E9.27850
G1 X129.404 Y67.565 E9.34778
G1 X130.056 Y68.075 E9.40569
G1 X131.341 Y69.361 E9.53287
G1 X132.462 Y70.792 E9.66005
G1 X133.402 Y72.347 E9.78723
G1 X134.149 Y74.005 E9.91441
G1 X134.689 Y75.740 E10.04160
G1 X135.017 Y77.528 E10.16878
G1 X135.119 Y79.222 E10.28754
G1 X134.364 Y79.818 F9900.000
G1 F1800.000 E9.28754
G1 Z0.800
G92 E0
G1 X133.673 Y79.874 F9900.000
G1 X133.004 Y74.477
G1 X132.391 Y74.464
G1 X131.499 Y79.725
G1 X129.909 Y79.215
G1 Z0.500
G1 F1800.000 E1.00000
G1 X125.699 Y86.508 F630.000 E1.58915
G1 X126.377 Y87.121 E1.65313
G1 X125.101 Y87.796 E1.75408
G1 X116.681 Y87.796 E2.34323
G1 X116.489 Y88.690 E2.40722
G1 X115.267 Y87.923 E2.50817
G1 X111.056 Y80.631 E3.09731
G1 X110.186 Y80.912 E3.16130
G1 X110.239 Y79.470 E3.26225
G1 X114.449 Y72.177 E3.85140
G1 X113.771 Y71.564 E3.91538
G1 X115.046 Y70.889 E4.01633
G1 X123.467 Y70.889 E4.60548
G1 X123.659 Y69.995 E4.66947
G1 X124.881 Y70.762 E4.77042
G1 X129.091 Y78.054 E5.35957
G1 X129.962 Y77.774 E5.42355
G1 X129.914 Y79.082 E5.51513
G1 X129.028 Y79.360 F9900.000
G1 F1800.000 E4.51513
G1 Z0.800
G92 E0
G1 X131.499 Y79.725 F9900.000
G1 X132.391 Y74.464
G1 X129.943 Y69.969
G1 X125.405 Y65.328
G1 X116.891 Y66.109
G1 X113.712 Y67.317
G1 X109.426 Y70.554
G1 X105.074 Y79.389
G1 X107.318 Y84.153
G1 X110.202 Y88.737
G1 X112.508 Y87.582
G1 Z0.500
G1 F1800.000 E1.00000
G1 X114.315 Y89.628 F540.000 E1.19101
G1 X116.208 Y90.984 E1.35393
G1 X116.801 Y91.106 E1.39630
G1 F1800.000 E0.39630
G1 Z0.800
G92 E0
G1 X116.949 Y91.387 F9900.000
G1 X116.465 Y91.062
G1 X117.500 Y89.108
G1 Z0.500
G1 F1800.000 E1.00000
G1 X117.831 Y89.245 F540.000 E1.02506
G1 X117.831 Y89.245 F9900.000
G1 X118.634 Y89.502 F540.000 E1.08408
G1 X118.634 Y89.502 F9900.000
G1 X121.127 Y90.063 F540.000 E1.26284
G1 X122.674 Y90.101 E1.37115
G1 X124.997 Y89.765 E1.53534
G1 X124.997 Y89.765 F9900.000
G1 X127.164 Y89.053 F540.000 E1.69492
G1 X128.554 Y88.309 E1.80528
G1 F1800.000 E0.80528
G1 Z0.800
G92 E0
G1 X128.338 Y88.357 F9900.000
G1 X127.512 Y86.244
G1 Z0.500
G1 F1800.000 E1.00000
G1 X127.788 Y86.057 F540.000 E1.02335
G1 X127.788 Y86.057 F9900.000
G1 X129.268 Y84.501 F540.000 E1.17362
G1 X129.268 Y84.501 F9900.000
G1 X130.524 Y82.764 F540.000 E1.32355
G1 X130.524 Y82.764 F9900.000
G1 X131.777 Y79.570 F540.000 E1.56365
G1 X132.086 Y76.498 E1.77969
G1 F1800.000 E0.77969
G1 Z0.800
G92 E0
G1 X132.391 Y74.464 F9900.000
G1 X131.499 Y79.725
G1 X129.755 Y76.967
G1 Z0.500
G1 F1800.000 E1.00000
G1 X129.398 Y74.568 F540.000 E1.16967
G1 X128.116 Y71.798 E1.38325
G1 X128.116 Y71.798 F9900.000
G1 X128.100 Y71.730 F540.000 E1.38814
G1 X128.100 Y71.730 F9900.000
G1 X126.639 Y69.867 F540.000 E1.55376
G1 X126.639 Y69.867 F9900.000
G1 X124.616 Y68.117 F540.000 E1.74097
G1 X124.616 Y68.117 F9900.000
G1 X123.763 Y67.637 F540.000 E1.80946
G1 X123.763 Y67.637 F9900.000
G1 X123.639 Y67.527 F540.000 E1.82100
G1 X123.639 Y67.527 F9900.000
G1 X123.612 Y67.519 F540.000 E1.82297
G1 F1800.000 E0.82297
G1 Z0.800
G92 E0
G1 X122.007 Y66.236 F9900.000
G1 X126.118 Y69.639
G1 X122.857 Y69.771
G1 Z0.500
G1 F1800.000 E1.00000
G1 X121.142 Y69.068 F540.000 E1.12964
G1 X121.142 Y69.068 F9900.000
G1 X120.874 Y68.955 F540.000 E1.15003
G1 X120.874 Y68.955 F9900.000
G1 X117.812 Y68.580 F540.000 E1.36585
G1 X115.542 Y68.825 E1.52562
G1 X112.623 Y69.796 E1.74088
G1 X111.624 Y70.346 E1.82069
G1 X111.341 Y70.833 E1.86008
G1 F1800.000 E0.86008
G1 Z0.800
G92 E0
G1 X111.213 Y70.594 F9900.000
G1 X112.118 Y70.295
G1 X113.176 Y72.147
G1 Z0.500
G1 F1800.000 E1.00000
G1 X111.240 Y73.683 F540.000 E1.17293
G1 X110.262 Y74.896 E1.28196
G1 X109.123 Y76.948 E1.44618
G1 X109.123 Y76.948 F9900.000
G1 X108.371 Y79.115 F540.000 E1.60670
G1 X108.371 Y79.115 F9900.000
G1 X108.230 Y79.980 F540.000 E1.66802
G1 X108.230 Y79.980 F9900.000
G1 X108.081 Y81.030 F540.000 E1.74221
G1 X108.081 Y81.030 F9900.000
G1 X108.060 Y82.180 F540.000 E1.82269
G1 X108.250 Y82.390 E1.84249
G1 F1800.000 E0.84249
G1 Z0.800
G92 E0
G1 X108.067 Y82.642 F9900.000
G1 X110.329 Y81.996
G1 Z0.500
G1 F1800.000 E1.00000
G1 X110.393 Y81.718 F540.000 E1.01997
G1 X110.329 Y81.996 F9900.000
G1 X110.401 Y82.666 F540.000 E1.06710
G1 X110.401 Y82.666 F9900.000
G1 X110.469 Y82.797 F540.000 E1.07740
G1 X110.469 Y82.797 F9900.000
G1 X111.284 Y85.452 F540.000 E1.27176
G1 X111.284 Y85.452 F9900.000
G1 X112.284 Y87.289 F540.000 E1.41803
G1 X112.284 Y87.289 F9900.000
G1 X112.508 Y87.582 F540.000 E1.44385
G1 F1800.000 E0.44385
G1 Z0.800
G92 E0
G1 X110.202 Y88.737 F9900.000
G1 X104.929 Y106.894
G1 X117.862 Y92.794
G1 X118.069 Y92.390
G1 X116.465 Y91.062
G1 X117.291 Y88.914
G1 Z0.500
G1 F1800.000 E1.00000
G1 X117.398 Y89.033 F540.000 E1.01122
G1 X117.398 Y89.033 F9900.000
G1 X117.421 Y89.040 F540.000 E1.01290
G1 X117.421 Y89.040 F9900.000
G1 X117.500 Y89.108 F540.000 E1.02020
G1 F1800.000 E0.02020
G1 Z0.800
G92 E0
G1 X116.465 Y91.062 F9900.000
G1 X118.069 Y92.390
G1 X135.074 Y106.894
G1 X130.752 Y88.108
G1 X130.458 Y87.570
G1 X128.338 Y88.357
G1 X126.971 Y86.539
G1 Z0.500
G1 F1800.000 E1.00000
G1 X127.512 Y86.244 F540.000 E1.04305
