; generated by Slic3r 0.9.9-dev on 2013-07-14 at 13:00:30

; layer_height = 0.3
; perimeters = 3
; top_solid_layers = 4
; bottom_solid_layers = 4
; fill_density = 0.25
; perimeter_speed = 50
; infill_speed = 80
; travel_speed = 165
; nozzle_diameter = 0.5
; filament_diameter = 2.85
; extrusion_multiplier = 1
; perimeters extrusion width = 0.70mm
; infill extrusion width = 0.70mm
; solid infill extrusion width = 0.70mm
; top infill extrusion width = 0.70mm
; support material extrusion width = 0.70mm
; first layer extrusion width = 1.00mm

G21 ; set units to millimeters
M107
M190 S68 ; wait for bed temperature to be reached
M104 S185 ; set temperature
;G28 ; home all axes
;G1 Z5 F5000 ; lift nozzle
M109 S185 ; wait for temperature to be reached
G90 ; use absolute coordinates
G92 E0
M82 ; use absolute distances for extrusion
G1 F1800.000 E-1.00000
G1 Z0.800
G92 E0
G1 X99.230 Y65.670 F9900.000
G1 Z0.500
G1 F1800.000 E1.00000
G1 X99.380 Y65.450 F900.000 E1.01863
G1 X99.720 Y65.020 E1.05698
G1 X100.280 Y64.440 E1.11339
G1 X100.910 Y63.920 E1.17055
G1 X101.360 Y63.620 E1.20839
G1 X102.070 Y63.240 E1.26473
G1 X102.570 Y63.030 E1.30268
G1 X102.830 Y62.940 E1.32193
G1 X103.350 Y62.800 E1.35961
G1 X103.880 Y62.690 E1.39748
G1 X104.690 Y62.610 E1.45443
G1 X123.450 Y62.610 E2.76702
G1 X125.270 Y62.700 E2.89451
G1 X126.190 Y62.810 E2.95934
G1 X127.600 Y63.080 E3.05979
G1 X128.380 Y63.280 E3.11613
G1 X129.710 Y63.700 E3.21372
G1 X130.520 Y64.010 E3.27440
G1 X131.860 Y64.630 E3.37770
G1 X132.590 Y65.030 E3.43594
G1 X133.820 Y65.790 E3.53711
G1 X134.540 Y66.300 E3.59884
G1 X135.650 Y67.200 E3.69883
G1 X136.280 Y67.770 E3.75827
G1 X137.280 Y68.810 E3.85922
G1 X137.830 Y69.460 E3.91879
G1 X138.690 Y70.610 E4.01926
G1 X139.160 Y71.340 E4.08001
G1 X139.870 Y72.590 E4.18059
G1 X140.230 Y73.300 E4.23629
G1 X140.790 Y74.620 E4.33662
G1 X141.080 Y75.480 E4.40012
G1 X141.450 Y76.820 E4.49738
G1 X141.620 Y77.580 E4.55187
G1 X141.850 Y79.050 E4.65597
G1 X141.930 Y80.120 E4.73105
G1 X141.930 Y82.120 E4.87098
G1 X141.910 Y82.620 E4.90600
G1 X140.130 Y107.270 E6.63518
G1 X140.050 Y107.800 E6.67268
G1 X139.850 Y108.590 E6.72970
G1 X139.660 Y109.110 E6.76844
G1 X139.440 Y109.600 E6.80602
G1 X139.170 Y110.080 E6.84455
G1 X138.710 Y110.750 E6.90141
G1 X138.170 Y111.360 E6.95842
G1 X137.770 Y111.730 E6.99654
G1 X137.350 Y112.070 E7.03435
G1 X136.900 Y112.370 E7.07219
G1 X136.420 Y112.640 E7.11072
G1 X135.680 Y112.960 E7.16713
G1 X135.160 Y113.130 E7.20541
G1 X134.630 Y113.260 E7.24359
G1 X134.360 Y113.310 E7.26280
G1 X133.550 Y113.390 E7.31975
G1 X105.000 Y113.390 E9.31732
G1 X104.460 Y113.340 E9.35526
G1 X103.910 Y113.260 E9.39415
G1 X103.640 Y113.200 E9.41350
G1 X103.380 Y113.130 E9.43234
G1 X102.860 Y112.950 E9.47084
G1 X102.100 Y112.620 E9.52882
G1 X101.390 Y112.190 E9.58689
G1 X100.950 Y111.860 E9.62538
G1 X100.740 Y111.690 E9.64428
G1 X100.340 Y111.310 E9.68288
G1 X99.970 Y110.900 E9.72152
G1 X99.640 Y110.460 E9.76000
G1 X99.340 Y110.000 E9.79843
G1 X99.080 Y109.510 E9.83724
G1 X98.860 Y109.010 E9.87546
G1 X98.680 Y108.490 E9.91396
G1 X98.540 Y107.960 E9.95232
G1 X98.420 Y107.140 E10.01030
G1 X98.390 Y106.590 E10.04884
G1 X98.070 Y82.060 E11.76529
G1 X98.070 Y69.230 E12.66297
G1 X98.150 Y68.420 E12.71992
G1 X98.260 Y67.890 E12.75779
G1 X98.400 Y67.370 E12.79547
G1 X98.700 Y66.610 E12.85264
G1 X98.950 Y66.130 E12.89050
G1 X99.156 Y65.782 E12.91882
G1 F1800.000 E11.91882
G1 Z0.800
G92 E0
G1 X107.191 Y71.732 F9900.000
G1 Z0.500
G1 F1800.000 E1.00000
G1 X115.801 Y71.732 F900.000 E1.60236
G1 X114.540 Y72.930 E1.72405
G1 X113.517 Y74.206 E1.83846
G1 X112.676 Y75.608 E1.95288
G1 X112.031 Y77.111 E2.06730
G1 X111.595 Y78.687 E2.18171
G1 X111.374 Y80.307 E2.29613
G1 X111.374 Y81.943 E2.41054
G1 X111.595 Y83.563 E2.52496
G1 X112.031 Y85.139 E2.63938
G1 X112.676 Y86.642 E2.75379
G1 X113.517 Y88.044 E2.86821
G1 X114.419 Y89.169 E2.96911
G1 X114.540 Y89.320 E2.98263
G1 X115.725 Y90.447 E3.09704
G1 X117.051 Y91.403 E3.21146
G1 X118.494 Y92.173 E3.32588
G1 X119.847 Y92.674 E3.42677
G1 X120.028 Y92.741 E3.44029
G1 X121.624 Y93.097 E3.55471
G1 X123.253 Y93.235 E3.66913
G1 X124.886 Y93.152 E3.78354
G1 X126.494 Y92.850 E3.89796
G1 X128.045 Y92.335 E4.01237
G1 X129.514 Y91.615 E4.12679
G1 X131.051 Y90.583 E4.25633
G1 X131.051 Y104.268 E5.21386
G1 X107.514 Y104.268 E6.86065
G1 X107.514 Y84.429 E8.24875
G1 X107.420 Y82.945 E8.35281
G1 X107.191 Y81.764 E8.43692
G1 X107.191 Y71.866 E9.12951
G1 X106.299 Y70.839 F9900.000
G1 X118.181 Y70.839 F900.000 E9.96086
G1 X118.258 Y71.077 E9.97837
G1 X116.297 Y72.492 E10.14756
G1 X115.199 Y73.535 E10.25352
G1 X114.252 Y74.717 E10.35949
G1 X113.473 Y76.016 E10.46545
G1 X112.875 Y77.408 E10.57142
G1 X112.471 Y78.867 E10.67738
G1 X112.267 Y80.368 E10.78335
G1 X112.267 Y81.882 E10.88931
G1 X112.471 Y83.383 E10.99527
G1 X112.875 Y84.842 E11.10124
G1 X113.472 Y86.234 E11.20720
G1 X114.252 Y87.533 E11.31317
G1 X115.199 Y88.715 E11.41913
G1 X116.296 Y89.758 E11.52509
G1 X117.525 Y90.644 E11.63106
G1 X118.861 Y91.357 E11.73702
G1 X120.281 Y91.883 E11.84299
G1 X121.759 Y92.213 E11.94895
G1 X123.268 Y92.340 E12.05491
G1 X124.781 Y92.264 E12.16088
G1 X126.269 Y91.984 E12.26684
G1 X127.707 Y91.507 E12.37281
G1 X129.066 Y90.840 E12.47877
G1 X130.324 Y89.996 E12.58473
G1 X131.944 Y88.557 E12.73631
G1 X131.944 Y105.161 E13.89803
G1 X106.622 Y105.161 E15.66974
G1 X106.622 Y84.457 E17.11831
G1 X106.532 Y83.058 E17.21639
G1 X106.299 Y81.850 E17.30250
G1 X106.299 Y70.973 E18.06355
G1 X105.406 Y69.946 F9900.000
G1 X123.445 Y69.946 F630.000 E19.32567
G1 X124.838 Y70.033 E19.42334
G1 X126.196 Y70.288 E19.52004
G1 X127.513 Y70.708 E19.61674
G1 X128.767 Y71.288 E19.71343
G1 X129.941 Y72.019 E19.81013
G1 X131.015 Y72.888 E19.90683
G1 X131.974 Y73.884 E20.00353
G1 X132.802 Y74.990 E20.10023
G1 X133.488 Y76.190 E20.19693
G1 X134.020 Y77.465 E20.29363
G1 X134.391 Y78.797 E20.39033
G1 X134.523 Y79.679 E20.45273
G1 X133.659 Y79.679 E20.51313
G1 X133.493 Y78.706 E20.58218
G1 X133.076 Y77.376 E20.67969
G1 X132.483 Y76.115 E20.77720
G1 X131.726 Y74.945 E20.87471
G1 X130.818 Y73.887 E20.97222
G1 X129.776 Y72.962 E21.06973
G1 X128.619 Y72.185 E21.16725
G1 X127.368 Y71.572 E21.26476
G1 X126.045 Y71.132 E21.36227
G1 X124.676 Y70.875 E21.45978
G1 X123.284 Y70.804 E21.55729
G1 X121.895 Y70.922 E21.65481
G1 X120.605 Y71.210 E21.74725
G1 X119.228 Y71.709 E21.84978
G1 X117.998 Y72.365 E21.94730
G1 X116.868 Y73.181 E22.04481
G1 X115.858 Y74.141 E22.14232
G1 X114.986 Y75.228 E22.23983
G1 X114.269 Y76.423 E22.33734
G1 X113.719 Y77.704 E22.43486
G1 X113.347 Y79.047 E22.53237
G1 X113.160 Y80.428 E22.62988
G1 X113.160 Y81.822 E22.72739
G1 X113.347 Y83.203 E22.82490
G1 X113.700 Y84.476 E22.91735
G1 X114.269 Y85.827 E23.01988
G1 X114.986 Y87.022 E23.11740
G1 X115.812 Y88.053 E23.20984
G1 X116.868 Y89.069 E23.31237
G1 X117.998 Y89.885 E23.40989
G1 X119.228 Y90.541 E23.50740
G1 X120.467 Y90.999 E23.59984
G1 X121.895 Y91.328 E23.70238
G1 X123.284 Y91.446 E23.79989
G1 X124.676 Y91.375 E23.89740
G1 X126.045 Y91.118 E23.99491
G1 X127.368 Y90.678 E24.09243
G1 X128.619 Y90.065 E24.18994
G1 X129.776 Y89.288 E24.28745
G1 X130.818 Y88.363 E24.38496
G1 X131.679 Y87.360 E24.47741
G1 X132.483 Y86.135 E24.57994
G1 X133.076 Y84.874 E24.67745
G1 X133.493 Y83.544 E24.77497
G1 X133.659 Y82.571 E24.84401
G1 X134.524 Y82.571 E24.90449
G1 X134.401 Y83.407 E24.96359
G1 X134.051 Y84.695 E25.05698
G1 X133.550 Y85.932 E25.15037
G1 X132.836 Y87.225 E25.25367
G1 X132.836 Y106.054 E26.57107
G1 X105.729 Y106.054 E28.46769
G1 X105.729 Y84.486 E29.97674
G1 X105.645 Y83.172 E30.06884
G1 X105.406 Y81.936 E30.15696
G1 X105.406 Y70.080 E30.98645
G1 X106.179 Y70.393 F9900.000
G1 X105.464 Y70.002
G1 X114.213 Y85.855
G1 X116.827 Y89.118
G1 X132.783 Y106.000
G1 X132.783 Y87.258
G1 X133.650 Y82.625
G1 X133.680 Y84.381
G1 X133.956 Y82.956 F540.000 E31.08799
G1 X134.016 Y83.029 F9900.000
G1 X134.385 Y82.708 F540.000 E31.12218
G1 X134.385 Y82.708 F9900.000
G1 X134.392 Y82.695 F540.000 E31.12317
G1 X133.680 Y84.381 F9900.000
G1 X133.672 Y84.411 F540.000 E31.12532
G1 X133.119 Y84.669 F9900.000
G1 X133.672 Y84.411 F540.000 E31.16802
G1 X133.712 Y85.731 E31.26044
G1 X133.712 Y85.731 F9900.000
G1 X133.631 Y85.858 F540.000 E31.27094
G1 X133.631 Y85.858 F9900.000
G1 X133.514 Y86.281 F540.000 E31.30168
G1 X133.514 Y86.281 F9900.000
G1 X133.516 Y86.627 F540.000 E31.32585
G1 X132.783 Y87.258 F9900.000
G1 X129.826 Y89.325
G1 X105.778 Y106.000
G1 X113.660 Y77.683
G1 X115.811 Y74.098
G1 X119.202 Y71.652
G1 X123.283 Y70.741
G1 X127.374 Y71.510
G1 X131.939 Y73.933
G1 X134.382 Y79.625
G1 X134.381 Y79.588
G1 X134.018 Y79.257 F540.000 E31.36026
G1 X133.542 Y77.390 E31.49509
G1 X132.313 Y75.038 E31.68069
G1 X131.174 Y73.636 E31.80713
G1 X129.804 Y72.458 E31.93356
G1 X129.804 Y72.458 F9900.000
G1 X129.498 Y72.250 F540.000 E31.95947
G1 X129.498 Y72.250 F9900.000
G1 X127.303 Y71.111 F540.000 E32.13246
G1 X127.303 Y71.111 F9900.000
G1 X124.928 Y70.474 F540.000 E32.30450
G1 X124.928 Y70.474 F9900.000
G1 X124.924 Y70.474 F540.000 E32.30476
G1 X124.581 Y70.147 F9900.000
G1 X124.924 Y70.474 F540.000 E32.33796
G1 X124.460 Y70.994 E32.38672
G1 X123.110 Y71.251 E32.48285
G1 X123.283 Y70.741 F9900.000
G1 X127.374 Y71.510
G1 X131.939 Y73.933
G1 X133.650 Y79.625
G1 X133.924 Y79.361
G1 X133.942 Y79.348 F540.000 E32.48438
G1 X133.942 Y79.348 F9900.000
G1 X134.018 Y79.257 F540.000 E32.49269
G1 X134.382 Y79.625 F9900.000
G1 X131.939 Y73.933
G1 X127.374 Y71.510
G1 X123.283 Y70.741
G1 X119.202 Y71.652
G1 X115.811 Y74.098
G1 X113.660 Y77.683
G1 X105.778 Y106.000
G1 X129.826 Y89.325
G1 X130.012 Y92.091
G1 X130.404 Y92.482 F1080.000 E32.53208
G1 X130.404 Y93.766 E32.62344
G1 X129.151 Y92.513 E32.74951
G1 X128.289 Y92.935 E32.81779
G1 X130.404 Y95.050 E33.03056
G1 X130.404 Y96.334 E33.12192
G1 X127.326 Y93.256 E33.43166
G1 X126.326 Y93.540 E33.50560
G1 X130.404 Y97.618 E33.91591
G1 X130.404 Y98.902 E34.00727
G1 X125.246 Y93.743 E34.52634
G1 X124.060 Y93.842 E34.61095
G1 X130.404 Y100.186 E35.24927
G1 X130.404 Y101.469 E35.34063
G1 X122.779 Y93.844 E36.10793
G1 X121.349 Y93.699 E36.21016
G1 X130.404 Y102.753 E37.12129
G1 X129.988 Y103.621 E37.18977
G1 X119.662 Y93.295 E38.22883
G1 X117.412 Y92.329 E38.40310
G1 X128.704 Y103.621 E39.53942
G1 X127.420 Y103.621 E39.63078
G1 X108.158 Y84.360 E41.56903
G1 X108.162 Y85.647 E41.66061
G1 X126.136 Y103.621 E43.46935
G1 X124.852 Y103.621 E43.56071
G1 X108.162 Y86.930 E45.24026
G1 X108.162 Y88.214 E45.33161
G1 X123.568 Y103.621 E46.88197
G1 X122.285 Y103.621 E46.97332
G1 X108.162 Y89.498 E48.39449
G1 X108.162 Y90.782 E48.48584
G1 X121.001 Y103.621 E49.77781
G1 X119.717 Y103.621 E49.86916
G1 X108.162 Y92.066 E51.03193
G1 X108.162 Y93.350 E51.12329
G1 X118.433 Y103.621 E52.15687
G1 X117.149 Y103.621 E52.24822
G1 X108.162 Y94.634 E53.15260
G1 X108.162 Y95.918 E53.24396
G1 X115.865 Y103.621 E54.01915
G1 X114.581 Y103.621 E54.11050
G1 X108.162 Y97.202 E54.75650
G1 X108.162 Y98.485 E54.84785
G1 X113.297 Y103.621 E55.36465
G1 X112.013 Y103.621 E55.45600
G1 X108.162 Y99.769 E55.84361
G1 X108.162 Y101.053 E55.93496
G1 X110.730 Y103.621 E56.19337
G1 X109.446 Y103.621 E56.28473
G1 X108.162 Y102.337 E56.41394
G1 X108.162 Y103.621 E56.50531
G1 X112.217 Y87.134 F9900.000
G1 X108.071 Y82.988 F1080.000 E56.92248
G1 X107.838 Y81.472 E57.03164
G1 X111.304 Y84.937 E57.38034
G1 X110.899 Y83.248 E57.50392
G1 X107.838 Y80.188 E57.81187
G1 X107.838 Y78.904 E57.90322
G1 X110.727 Y81.793 E58.19391
G1 X110.727 Y80.509 E58.28526
G1 X107.838 Y77.620 E58.57595
G1 X107.838 Y76.336 E58.66731
G1 X110.851 Y79.349 E58.97050
G1 X111.042 Y78.256 E59.04945
G1 X107.838 Y75.052 E59.37186
G1 X107.838 Y73.768 E59.46321
G1 X111.321 Y77.251 E59.81364
G1 X111.669 Y76.315 E59.88470
G1 X107.838 Y72.485 E60.27013
G1 X109.017 Y72.379 E60.35430
G1 X112.054 Y75.416 E60.65996
G1 X112.525 Y74.603 E60.72682
G1 X110.301 Y72.379 E60.95063
G1 X111.584 Y72.379 E61.04198
G1 X113.010 Y73.804 E61.18544
G1 X113.581 Y73.092 E61.25043
G1 X112.868 Y72.379 E61.32216
G1 X114.152 Y72.379 E61.41353
G1 X118.952 Y71.124 F9900.000
G1 X119.284 Y70.593 F360.000 E61.44353
G1 X119.581 Y70.889 E61.46362
G1 X120.148 Y70.593 E61.49425
M106 S255
M104 S180 ; set temperature
M140 S65 ; set bed temperature
G1 F1800.000 E60.49425
G1 Z1.100
G92 E0
G1 X117.426 Y71.311 F9900.000
G1 Z0.800
G1 F1800.000 E1.00000
G1 X116.106 Y72.263 F2317.306 E1.05007
G1 X114.980 Y73.334 E1.09793
G1 X114.007 Y74.547 E1.14578
G1 X113.207 Y75.880 E1.19363
G1 X112.594 Y77.309 E1.24148
G1 X112.179 Y78.807 E1.28933
G1 X111.999 Y80.129 E1.33040
G1 X111.970 Y80.348 E1.33718
G1 X111.970 Y81.902 E1.38503
G1 X112.179 Y83.443 E1.43289
G1 X112.594 Y84.941 E1.48074
G1 X113.207 Y86.370 E1.52859
G1 X114.007 Y87.703 E1.57644
G1 X114.980 Y88.916 E1.62429
G1 X115.947 Y89.835 E1.66536
G1 X116.106 Y89.987 E1.67214
G1 X117.367 Y90.897 E1.72000
G1 X118.739 Y91.628 E1.76785
G1 X120.197 Y92.168 E1.81570
G1 X121.714 Y92.507 E1.86355
G1 X123.263 Y92.638 E1.91140
G1 X124.816 Y92.560 E1.95925
G1 X126.344 Y92.273 E2.00711
G1 X127.819 Y91.782 E2.05496
G1 X129.215 Y91.098 E2.10281
G1 X130.506 Y90.231 E2.15066
G1 X131.646 Y89.219 E2.19760
G1 X131.646 Y104.864 E2.67913
G1 X106.919 Y104.864 E3.44022
G1 X106.919 Y84.448 E4.06859
G1 X106.828 Y83.021 E4.11261
G1 X106.596 Y81.822 E4.15020
G1 X106.596 Y71.136 E4.47908
G1 X117.369 Y71.136 E4.81067
G1 X117.396 Y71.217 E4.81330
G1 X117.714 Y71.910 F9900.000
G1 X116.525 Y72.768 F2317.306 E4.85842
G1 X115.463 Y73.778 E4.90355
G1 X114.656 Y74.784 E4.94325
G1 X114.546 Y74.922 E4.94867
G1 X113.791 Y76.179 E4.99380
G1 X113.213 Y77.526 E5.03892
G1 X112.822 Y78.939 E5.08405
G1 X112.648 Y80.217 E5.12375
G1 X112.624 Y80.392 E5.12918
G1 X112.624 Y81.858 E5.17430
G1 X112.822 Y83.311 E5.21943
G1 X113.166 Y84.554 E5.25913
G1 X113.213 Y84.724 E5.26455
G1 X113.791 Y86.071 E5.30968
G1 X114.546 Y87.328 E5.35480
G1 X115.463 Y88.472 E5.39993
G1 X116.525 Y89.482 E5.44505
G1 X117.714 Y90.340 E5.49018
G1 X119.008 Y91.030 E5.53530
G1 X120.383 Y91.539 E5.58043
G1 X121.814 Y91.859 E5.62556
G1 X123.275 Y91.982 E5.67068
G1 X124.739 Y91.908 E5.71581
G1 X126.180 Y91.637 E5.76093
G1 X127.571 Y91.175 E5.80606
G1 X128.887 Y90.530 E5.85118
G1 X130.105 Y89.713 E5.89631
G1 X131.201 Y88.739 E5.94143
G1 X132.301 Y87.458 E5.99341
G1 X132.301 Y105.518 E6.54929
G1 X106.264 Y105.518 E7.35066
G1 X106.264 Y84.469 E7.99853
G1 X106.177 Y83.104 E8.04063
G1 X105.941 Y81.884 E8.07886
G1 X105.941 Y70.482 E8.42982
G1 X119.997 Y70.482 E8.86242
G1 X120.059 Y70.831 E8.87333
G1 X119.008 Y71.220 E8.90783
G1 X117.801 Y71.864 E8.94994
G1 X118.061 Y72.466 F9900.000
G1 X116.944 Y73.272 F1622.114 E8.99234
G1 X115.946 Y74.222 E9.03474
G1 X115.084 Y75.297 E9.07714
G1 X114.375 Y76.478 E9.11953
G1 X113.832 Y77.744 E9.16193
G1 X113.464 Y79.071 E9.20433
G1 X113.279 Y80.436 E9.24673
G1 X113.279 Y81.814 E9.28913
G1 X113.464 Y83.179 E9.33153
G1 X113.797 Y84.379 E9.36987
G1 X113.832 Y84.506 E9.37393
G1 X114.375 Y85.772 E9.41633
G1 X115.084 Y86.953 E9.45873
G1 X115.946 Y88.028 E9.50113
G1 X116.944 Y88.978 E9.54353
G1 X118.061 Y89.784 E9.58593
G1 X119.277 Y90.432 E9.62833
G1 X120.569 Y90.910 E9.67073
G1 X121.913 Y91.210 E9.71313
G1 X123.286 Y91.327 E9.75553
G1 X124.661 Y91.257 E9.79793
G1 X126.015 Y91.002 E9.84033
G1 X127.323 Y90.568 E9.88273
G1 X128.559 Y89.961 E9.92512
G1 X129.703 Y89.194 E9.96752
G1 X130.733 Y88.279 E10.00992
G1 X131.631 Y87.234 E10.05232
G1 X132.379 Y86.077 E10.09472
G1 X132.965 Y84.830 E10.13712
G1 X133.377 Y83.516 E10.17952
G1 X133.559 Y82.452 E10.21274
G1 X134.662 Y82.452 E10.24668
G1 X134.518 Y83.431 E10.27714
G1 X134.164 Y84.733 E10.31866
G1 X133.658 Y85.984 E10.36018
G1 X132.955 Y87.256 E10.40490
G1 X132.955 Y106.173 E10.98715
G1 X105.610 Y106.173 E11.82881
G1 X105.610 Y84.490 E12.49619
G1 X105.527 Y83.187 E12.53635
G1 X105.287 Y81.947 E12.57523
G1 X105.287 Y69.827 E12.94826
G1 X123.448 Y69.827 E13.50725
G1 X124.908 Y69.918 E13.55227
G1 X126.225 Y70.172 E13.59356
G1 X127.556 Y70.597 E13.63655
G1 X128.824 Y71.183 E13.67954
G1 X130.010 Y71.921 E13.72254
G1 X131.095 Y72.800 E13.76553
G1 X132.064 Y73.806 E13.80852
G1 X132.902 Y74.924 E13.85151
