; generated by Slic3r 0.9.9-dev on 2013-07-06 at 12:11:56

; layer_height = 0.3
; perimeters = 3
; top_solid_layers = 4
; bottom_solid_layers = 4
; fill_density = 0.25
; perimeter_speed = 50
; infill_speed = 80
; travel_speed = 165
; nozzle_diameter = 0.5
; filament_diameter = 2.85
; extrusion_multiplier = 1
; perimeters extrusion width = 0.70mm
; infill extrusion width = 0.70mm
; solid infill extrusion width = 0.70mm
; top infill extrusion width = 0.70mm
; support material extrusion width = 0.70mm
; first layer extrusion width = 0.60mm

G21 ; set units to millimeters
M107
M190 S65 ; wait for bed temperature to be reached
M104 S185 ; set temperature
;G28 ; home all axes
;G1 Z5 F5000 ; lift nozzle
M109 S185 ; wait for temperature to be reached
G90 ; use absolute coordinates
G92 E0
M82 ; use absolute distances for extrusion
G1 F1800.000 E-1.00000
G1 Z0.600
G92 E0
G1 X98.220 Y60.253 F9900.000
G1 Z0.300
G1 F1800.000 E1.00000
G1 X98.710 Y59.593 F1500.000 E1.02236
G1 X99.270 Y58.983 E1.04489
G1 X99.890 Y58.453 E1.06708
G1 X100.340 Y58.133 E1.08211
G1 X100.810 Y57.853 E1.09699
G1 X101.300 Y57.613 E1.11184
G1 X101.810 Y57.403 E1.12684
G1 X102.600 Y57.173 E1.14923
G1 X102.870 Y57.113 E1.15675
G1 X103.410 Y57.033 E1.17160
G1 X103.680 Y57.003 E1.17900
G1 X104.230 Y56.983 E1.19397
G1 X135.770 Y56.983 E2.05207
G1 X136.320 Y57.003 E2.06704
G1 X137.130 Y57.113 E2.08928
G1 X137.670 Y57.243 E2.10439
G1 X138.190 Y57.403 E2.11919
G1 X138.700 Y57.613 E2.13420
G1 X139.190 Y57.853 E2.14904
G1 X139.430 Y57.993 E2.15660
G1 X139.660 Y58.133 E2.16393
G1 X140.110 Y58.453 E2.17895
G1 X140.730 Y58.983 E2.20114
G1 X141.290 Y59.593 E2.22367
G1 X141.780 Y60.253 E2.24604
G1 X142.060 Y60.723 E2.26092
G1 X142.300 Y61.213 E2.27576
G1 X142.510 Y61.723 E2.29077
G1 X142.670 Y62.243 E2.30557
G1 X142.800 Y62.783 E2.32068
G1 X142.880 Y63.323 E2.33553
G1 X142.910 Y63.593 E2.34293
G1 X142.930 Y64.143 E2.35790
G1 X142.930 Y67.683 E2.45421
G1 X142.660 Y96.723 E3.24433
G1 X142.520 Y98.983 E3.30593
G1 X142.420 Y99.803 E3.32841
G1 X142.090 Y101.623 E3.37873
G1 X141.890 Y102.463 E3.40222
G1 X141.330 Y104.273 E3.45377
G1 X141.010 Y105.103 E3.47797
G1 X140.240 Y106.803 E3.52874
G1 X139.850 Y107.543 E3.55150
G1 X138.930 Y109.073 E3.60007
G1 X138.460 Y109.763 E3.62279
G1 X137.260 Y111.313 E3.67612
G1 X136.640 Y112.013 E3.70156
G1 X135.310 Y113.333 E3.75254
G1 X134.700 Y113.873 E3.77471
G1 X133.230 Y115.033 E3.82565
G1 X132.480 Y115.553 E3.85048
G1 X130.880 Y116.513 E3.90125
G1 X130.140 Y116.903 E3.92400
G1 X128.430 Y117.673 E3.97503
G1 X127.630 Y117.973 E3.99827
G1 X125.840 Y118.533 E4.04930
G1 X125.000 Y118.743 E4.07286
G1 X123.160 Y119.083 E4.12376
G1 X122.280 Y119.183 E4.14786
G1 X119.990 Y119.313 E4.21026
G1 X117.710 Y119.183 E4.27240
G1 X116.830 Y119.083 E4.29649
G1 X114.990 Y118.743 E4.34740
G1 X114.180 Y118.543 E4.37010
G1 X112.400 Y117.993 E4.42079
G1 X111.550 Y117.673 E4.44550
G1 X109.830 Y116.893 E4.49688
G1 X109.110 Y116.513 E4.51903
G1 X107.510 Y115.553 E4.56979
G1 X106.760 Y115.033 E4.59462
G1 X105.290 Y113.873 E4.64557
G1 X104.680 Y113.333 E4.66773
G1 X103.350 Y112.013 E4.71871
G1 X102.740 Y111.323 E4.74377
G1 X101.590 Y109.843 E4.79476
G1 X101.120 Y109.163 E4.81725
G1 X100.150 Y107.563 E4.86816
G1 X99.750 Y106.803 E4.89152
G1 X98.980 Y105.103 E4.94230
G1 X98.660 Y104.253 E4.96701
G1 X98.110 Y102.463 E5.01796
G1 X97.910 Y101.673 E5.04013
G1 X97.570 Y99.843 E5.09077
G1 X97.470 Y98.953 E5.11513
G1 X97.340 Y96.723 E5.17591
G1 X97.070 Y67.683 E5.96602
G1 X97.070 Y64.143 E6.06233
G1 X97.090 Y63.593 E6.07731
G1 X97.120 Y63.323 E6.08470
G1 X97.200 Y62.783 E6.09955
G1 X97.330 Y62.243 E6.11466
G1 X97.490 Y61.723 E6.12946
G1 X97.700 Y61.213 E6.14447
G1 X97.940 Y60.723 E6.15931
G1 X98.175 Y60.327 E6.17184
G1 X98.670 Y60.623 F9900.000
G1 X99.130 Y59.983 F1500.000 E6.19328
G1 X99.670 Y59.403 E6.21484
G1 X100.070 Y59.043 E6.22948
G1 X100.280 Y58.883 E6.23667
G1 X100.940 Y58.443 E6.25825
G1 X101.170 Y58.313 E6.26543
G1 X101.650 Y58.093 E6.27980
G1 X102.400 Y57.823 E6.30149
G1 X102.910 Y57.693 E6.31581
G1 X103.700 Y57.583 E6.33751
G1 X104.230 Y57.563 E6.35194
G1 X135.770 Y57.563 E7.21003
G1 X136.300 Y57.583 E7.22446
G1 X136.560 Y57.613 E7.23158
G1 X137.090 Y57.693 E7.24617
G1 X137.340 Y57.753 E7.25316
G1 X137.850 Y57.903 E7.26762
G1 X138.350 Y58.093 E7.28218
G1 X138.830 Y58.313 E7.29654
G1 X139.060 Y58.443 E7.30373
G1 X139.510 Y58.733 E7.31830
G1 X139.930 Y59.043 E7.33250
G1 X140.510 Y59.583 E7.35406
G1 X140.870 Y59.983 E7.36870
G1 X141.030 Y60.193 E7.37588
G1 X141.470 Y60.853 E7.39746
G1 X141.600 Y61.083 E7.40465
G1 X141.820 Y61.563 E7.41902
G1 X142.010 Y62.063 E7.43357
G1 X142.160 Y62.573 E7.44803
G1 X142.220 Y62.823 E7.45503
G1 X142.300 Y63.353 E7.46961
G1 X142.330 Y63.613 E7.47673
G1 X142.350 Y64.143 E7.49116
G1 X142.350 Y67.673 E7.58720
G1 X142.080 Y96.713 E8.37731
G1 X141.950 Y98.943 E8.43809
G1 X141.850 Y99.693 E8.45867
G1 X141.520 Y101.513 E8.50900
G1 X141.330 Y102.283 E8.53057
G1 X140.770 Y104.093 E8.58212
G1 X140.480 Y104.863 E8.60451
G1 X139.710 Y106.563 E8.65528
G1 X139.360 Y107.243 E8.67609
G1 X138.440 Y108.773 E8.72466
G1 X138.000 Y109.413 E8.74579
G1 X136.800 Y110.963 E8.79912
G1 X136.230 Y111.603 E8.82244
G1 X134.900 Y112.923 E8.87342
G1 X134.350 Y113.413 E8.89346
G1 X132.880 Y114.573 E8.94441
G1 X132.180 Y115.053 E8.96750
G1 X130.580 Y116.013 E9.01826
G1 X129.900 Y116.373 E9.03920
G1 X128.190 Y117.143 E9.09022
G1 X127.450 Y117.423 E9.11175
G1 X125.660 Y117.983 E9.16277
G1 X124.900 Y118.173 E9.18409
G1 X123.060 Y118.513 E9.23499
G1 X122.250 Y118.613 E9.25720
G1 X120.010 Y118.733 E9.31823
G1 X117.740 Y118.613 E9.38007
G1 X116.930 Y118.513 E9.40228
G1 X115.090 Y118.173 E9.45319
G1 X114.350 Y117.993 E9.47391
G1 X112.570 Y117.443 E9.52459
G1 X111.790 Y117.143 E9.54733
G1 X110.070 Y116.363 E9.59871
G1 X109.410 Y116.013 E9.61904
G1 X107.810 Y115.053 E9.66980
G1 X107.110 Y114.573 E9.69289
G1 X105.640 Y113.413 E9.74384
G1 X105.090 Y112.923 E9.76388
G1 X103.760 Y111.603 E9.81486
G1 X103.200 Y110.973 E9.83780
G1 X102.050 Y109.493 E9.88879
G1 X101.610 Y108.863 E9.90970
G1 X100.640 Y107.263 E9.96060
G1 X100.280 Y106.563 E9.98202
G1 X99.510 Y104.863 E10.03279
G1 X99.210 Y104.083 E10.05553
G1 X98.660 Y102.293 E10.10647
G1 X98.480 Y101.563 E10.12693
G1 X98.140 Y99.733 E10.17757
G1 X98.040 Y98.913 E10.20004
G1 X97.930 Y97.033 E10.25128
G1 X97.650 Y67.673 E11.05010
G1 X97.650 Y64.143 E11.14614
G1 X97.670 Y63.613 E11.16057
G1 X97.700 Y63.353 E11.16769
G1 X97.780 Y62.823 E11.18228
G1 X97.910 Y62.313 E11.19660
G1 X98.180 Y61.563 E11.21828
G1 X98.400 Y61.083 E11.23265
G1 X98.625 Y60.697 E11.24480
G1 F1800.000 E10.24480
G1 Z0.600
G92 E0
G1 X135.780 Y64.147 F9900.000
G1 Z0.300
G1 F1800.000 E1.00000
G1 X104.220 Y64.147 F1800.000 E1.85863
G1 X104.220 Y65.304 E1.89011
G1 X135.780 Y65.304 E2.74874
G1 X135.780 Y66.461 E2.78022
G1 X104.220 Y66.461 E3.63884
G1 X104.220 Y67.618 E3.67033
G1 X135.780 Y67.618 E4.52895
G1 F1800.000 E3.52895
G1 Z0.600
G92 E0
G1 X122.792 Y91.120 F9900.000
G1 Z0.300
G1 F1800.000 E1.00000
G1 X123.688 Y91.671 F1500.000 E1.02861
G1 X124.477 Y92.366 E1.05723
G1 X125.138 Y93.185 E1.08585
G1 X125.651 Y94.103 E1.11447
G1 X126.001 Y95.095 E1.14308
G1 X126.180 Y96.133 E1.17174
G1 X126.180 Y97.182 E1.20028
G1 X126.001 Y98.220 E1.22894
G1 X125.651 Y99.212 E1.25756
G1 X125.138 Y100.130 E1.28617
G1 X124.477 Y100.949 E1.31479
G1 X123.688 Y101.643 E1.34340
G1 X122.792 Y102.195 E1.37203
G1 X121.816 Y102.587 E1.40064
G1 X120.788 Y102.809 E1.42926
G1 X119.737 Y102.853 E1.45787
G1 X118.694 Y102.720 E1.48649
G1 X117.688 Y102.412 E1.51512
G1 X116.748 Y101.938 E1.54373
G1 X115.903 Y101.313 E1.57235
G1 X115.175 Y100.553 E1.60097
G1 X114.586 Y99.682 E1.62958
G1 X114.153 Y98.723 E1.65821
G1 X113.888 Y97.705 E1.68682
G1 X113.798 Y96.657 E1.71544
G1 X113.888 Y95.609 E1.74406
G1 X114.153 Y94.591 E1.77267
G1 X114.586 Y93.633 E1.80129
G1 X115.175 Y92.762 E1.82991
G1 X115.903 Y92.002 E1.85853
G1 X116.749 Y91.377 E1.88715
G1 X117.688 Y90.903 E1.91576
G1 X118.694 Y90.595 E1.94438
G1 X119.737 Y90.461 E1.97299
G1 X120.788 Y90.506 E2.00162
G1 X121.816 Y90.728 E2.03023
G1 X122.712 Y91.088 E2.05649
G1 X122.531 Y91.638 F9900.000
G1 X123.342 Y92.138 F1500.000 E2.08243
G1 X124.058 Y92.768 E2.10836
G1 X124.657 Y93.510 E2.13430
G1 X125.122 Y94.342 E2.16024
G1 X125.440 Y95.241 E2.18618
G1 X125.601 Y96.182 E2.21216
G1 X125.601 Y97.133 E2.23802
G1 X125.440 Y98.074 E2.26400
G1 X125.122 Y98.973 E2.28994
G1 X124.657 Y99.805 E2.31587
G1 X124.058 Y100.547 E2.34181
G1 X123.343 Y101.177 E2.36775
G1 X122.530 Y101.677 E2.39369
G1 X121.646 Y102.032 E2.41963
G1 X120.714 Y102.233 E2.44556
G1 X119.762 Y102.273 E2.47150
G1 X118.816 Y102.152 E2.49744
G1 X117.904 Y101.873 E2.52338
G1 X117.053 Y101.444 E2.54932
G1 X116.286 Y100.877 E2.57525
G1 X115.627 Y100.189 E2.60120
G1 X115.093 Y99.399 E2.62713
G1 X114.700 Y98.530 E2.65307
G1 X114.460 Y97.607 E2.67901
G1 X114.379 Y96.657 E2.70495
G1 X114.460 Y95.707 E2.73089
G1 X114.700 Y94.785 E2.75682
G1 X115.093 Y93.916 E2.78276
G1 X115.627 Y93.126 E2.80870
G1 X116.286 Y92.438 E2.83464
G1 X117.053 Y91.871 E2.86058
G1 X117.904 Y91.442 E2.88652
G1 X118.816 Y91.163 E2.91246
G1 X119.761 Y91.042 E2.93839
G1 X120.714 Y91.082 E2.96433
G1 X121.646 Y91.283 E2.99027
G1 X122.450 Y91.606 E3.01385
G1 X123.023 Y91.335 F9900.000
G1 F1800.000 E2.01385
G1 Z0.600
G92 E0
G1 X126.826 Y84.588 F9900.000
G1 Z0.300
G1 F1800.000 E1.00000
G1 X128.134 Y85.424 F1500.000 E1.04222
G1 X129.385 Y86.446 E1.08617
G1 X130.621 Y87.722 E1.13450
G1 X131.269 Y89.882 E1.19586
G1 X131.396 Y90.478 E1.21243
G1 X132.275 Y90.192 E1.23758
G1 X132.964 Y91.729 E1.28342
G1 X133.450 Y93.272 E1.32741
G1 X133.757 Y94.923 E1.37310
G1 X133.868 Y96.470 E1.41531
G1 X133.796 Y98.084 E1.45927
G1 X133.536 Y99.679 E1.50323
G1 X133.049 Y101.387 E1.55156
G1 X131.502 Y103.029 E1.61291
G1 X131.050 Y103.437 E1.62949
G1 X131.737 Y104.055 E1.65464
G1 X130.749 Y105.422 E1.70051
G1 X129.657 Y106.612 E1.74446
G1 X128.433 Y107.669 E1.78846
G1 X127.096 Y108.574 E1.83238
G1 X125.662 Y109.318 E1.87634
G1 X124.151 Y109.891 E1.92030
G1 X122.428 Y110.323 E1.96862
G1 X120.234 Y109.804 E2.02998
G1 X119.654 Y109.616 E2.04655
G1 X119.462 Y110.521 E2.07170
G1 X117.785 Y110.349 E2.11757
G1 X116.207 Y109.998 E2.16153
G1 X114.682 Y109.467 E2.20549
G1 X113.228 Y108.761 E2.24944
G1 X111.866 Y107.891 E2.29341
G1 X110.615 Y106.869 E2.33736
G1 X109.379 Y105.593 E2.38569
G1 X108.731 Y103.433 E2.44704
G1 X108.604 Y102.837 E2.46362
G1 X107.725 Y103.123 E2.48877
G1 X107.035 Y101.584 E2.53464
G1 X106.550 Y100.043 E2.57860
G1 X106.248 Y98.456 E2.62255
G1 X106.132 Y96.845 E2.66651
G1 X106.204 Y95.230 E2.71047
G1 X106.464 Y93.636 E2.75443
G1 X106.951 Y91.928 E2.80276
G1 X108.498 Y90.286 E2.86411
G1 X108.950 Y89.878 E2.88069
G1 X108.263 Y89.260 E2.90584
G1 X109.251 Y87.893 E2.95171
G1 X110.343 Y86.703 E2.99567
G1 X111.566 Y85.647 E3.03962
G1 X112.904 Y84.741 E3.08358
G1 X114.338 Y83.997 E3.12754
G1 X115.849 Y83.424 E3.17149
G1 X117.572 Y82.992 E3.21982
G1 X119.766 Y83.511 E3.28118
G1 X120.346 Y83.699 E3.29775
G1 X120.538 Y82.794 E3.32290
G1 X122.215 Y82.966 E3.36877
G1 X123.793 Y83.317 E3.41273
G1 X125.318 Y83.848 E3.45669
G1 X126.751 Y84.544 E3.50003
G1 F1800.000 E2.50003
G1 Z0.600
G92 E0
G1 X123.355 Y87.549 F9900.000
G1 Z0.300
G1 F1800.000 E1.00000
G1 X123.220 Y88.047 F1050.000 E1.01403
G1 X114.933 Y88.047 E1.23951
G1 X113.625 Y88.730 E1.27965
G1 X112.443 Y89.515 E1.31824
G1 X111.432 Y90.364 E1.35417
G1 X110.576 Y91.277 E1.38820
G1 X109.862 Y92.252 E1.42110
G1 X109.279 Y93.293 E1.45356
G1 X108.813 Y94.436 E1.48713
G1 X108.484 Y95.630 E1.52082
G1 X108.281 Y96.911 E1.55612
G1 X108.208 Y98.286 E1.59359
G1 X108.274 Y99.762 E1.63378
G1 X108.488 Y101.344 E1.67720
G1 X108.669 Y102.208 E1.70123
G1 X108.040 Y102.412 E1.71920
G1 X107.577 Y101.379 E1.75002
G1 X107.112 Y99.902 E1.79214
G1 X106.822 Y98.381 E1.83426
G1 X106.711 Y96.837 E1.87638
G1 X106.781 Y95.290 E1.91850
G1 X107.029 Y93.762 E1.96062
G1 X107.469 Y92.222 E2.00420
G1 X108.903 Y90.700 E2.06108
G1 X110.281 Y89.457 E2.11158
G1 X111.642 Y88.433 E2.15793
G1 X112.983 Y87.611 E2.20071
G1 X114.301 Y86.981 E2.24047
G1 X115.595 Y86.528 E2.27776
G1 X116.880 Y86.242 E2.31359
G1 X118.115 Y86.121 E2.34734
G1 X119.315 Y86.154 E2.37999
G1 X120.472 Y86.335 E2.41186
G1 X121.578 Y86.659 E2.44322
G1 X122.617 Y87.118 E2.47410
G1 X123.280 Y87.505 E2.49500
G1 X123.839 Y87.727 F9900.000
G1 X123.678 Y87.173
G1 X122.407 Y86.542 F1050.000 E2.53359
G1 X121.166 Y86.091 E2.56952
G1 X119.948 Y85.806 E2.60356
G1 X118.746 Y85.675 E2.63645
G1 X117.553 Y85.691 E2.66892
G1 X116.331 Y85.859 E2.70248
G1 X115.132 Y86.171 E2.73618
G1 X113.921 Y86.635 E2.77147
G1 X112.693 Y87.260 E2.80894
G1 X111.448 Y88.055 E2.84913
G1 X110.185 Y89.031 E2.89256
G1 X109.527 Y89.620 E2.91658
G1 X109.037 Y89.178 E2.93456
G1 X109.700 Y88.259 E2.96537
G1 X110.747 Y87.119 E3.00749
G1 X111.919 Y86.107 E3.04962
G1 X113.200 Y85.239 E3.09173
G1 X114.574 Y84.526 E3.13386
G1 X116.022 Y83.977 E3.17598
G1 X117.576 Y83.587 E3.21955
G1 X119.610 Y84.068 E3.27643
G1 X121.376 Y84.641 E3.32693
G1 X122.944 Y85.307 E3.37328
G1 X124.326 Y86.058 E3.41606
G1 X125.531 Y86.884 E3.45583
G1 X126.570 Y87.778 E3.49311
G1 X127.461 Y88.748 E3.52894
G1 X128.182 Y89.757 E3.56269
G1 X128.754 Y90.812 E3.59534
G1 X129.176 Y91.905 E3.62722
G1 X129.448 Y93.025 E3.65857
G1 X129.570 Y94.154 E3.68946
G1 X129.566 Y95.009 E3.71271
G1 X129.067 Y95.141 E3.72675
G1 X124.923 Y87.964 E3.95222
G1 X123.751 Y87.219 E3.99000
G1 X123.185 Y87.476 F9900.000
G1 X121.476 Y91.838
G1 X122.269 Y92.157 F1500.000 E4.01326
G1 X122.997 Y92.605 E4.03652
G1 X123.639 Y93.170 E4.05978
G1 X124.194 Y93.868 E4.08404
G1 X124.593 Y94.581 E4.10628
G1 X124.878 Y95.387 E4.12954
G1 X125.022 Y96.232 E4.15285
G1 X125.022 Y97.083 E4.17602
G1 X124.878 Y97.928 E4.19932
G1 X124.593 Y98.734 E4.22258
G1 X124.176 Y99.480 E4.24584
G1 X123.639 Y100.145 E4.26910
G1 X122.997 Y100.710 E4.29235
G1 X122.269 Y101.158 E4.31562
G1 X121.476 Y101.477 E4.33887
G1 X120.640 Y101.657 E4.36213
G1 X119.786 Y101.693 E4.38539
G1 X118.938 Y101.585 E4.40865
G1 X118.121 Y101.334 E4.43191
G1 X117.357 Y100.949 E4.45517
G1 X116.670 Y100.441 E4.47843
G1 X116.078 Y99.824 E4.50169
G1 X115.584 Y99.082 E4.52595
G1 X115.248 Y98.337 E4.54819
G1 X115.032 Y97.509 E4.57145
G1 X114.960 Y96.657 E4.59471
G1 X115.032 Y95.806 E4.61797
G1 X115.248 Y94.978 E4.64123
G1 X115.600 Y94.199 E4.66448
G1 X116.078 Y93.491 E4.68774
G1 X116.670 Y92.874 E4.71100
G1 X117.357 Y92.365 E4.73426
G1 X118.121 Y91.981 E4.75752
G1 X118.938 Y91.730 E4.78078
G1 X119.786 Y91.622 E4.80404
G1 X120.640 Y91.658 E4.82730
G1 X121.391 Y91.820 E4.84819
G1 X121.910 Y91.456 F9900.000
G1 F1800.000 E3.84819
G1 Z0.600
G92 E0
G1 X125.640 Y86.382 F9900.000
G1 Z0.300
G1 F1800.000 E1.00000
G1 X124.485 Y85.631 F1050.000 E1.03747
G1 X123.174 Y84.950 E1.07766
G1 X121.698 Y84.344 E1.12108
G1 X120.859 Y84.069 E1.14511
G1 X120.996 Y83.423 E1.16308
G1 X122.123 Y83.538 E1.19390
G1 X123.634 Y83.874 E1.23602
G1 X125.096 Y84.384 E1.27814
G1 X126.489 Y85.060 E1.32026
G1 X127.794 Y85.893 E1.36238
G1 X128.993 Y86.872 E1.40450
G1 X130.107 Y88.023 E1.44808
G1 X130.708 Y90.026 E1.50496
G1 X131.095 Y91.841 E1.55546
G1 X131.302 Y93.531 E1.60180
G1 X131.343 Y95.104 E1.64459
G1 X131.230 Y96.561 E1.68435
G1 X130.975 Y97.907 E1.72164
G1 X130.580 Y99.164 E1.75746
G1 X130.067 Y100.293 E1.79122
G1 X129.439 Y101.316 E1.82387
G1 X128.703 Y102.228 E1.85574
G1 X127.870 Y103.024 E1.88710
G1 X126.953 Y103.694 E1.91798
G1 X126.211 Y104.117 E1.94124
G1 X125.847 Y103.751 E1.95527
G1 X129.991 Y96.574 E2.18075
G1 X130.053 Y95.100 E2.22089
G1 X129.964 Y93.685 E2.25948
G1 X129.734 Y92.384 E2.29541
G1 X129.372 Y91.187 E2.32944
G1 X128.885 Y90.080 E2.36234
G1 X128.274 Y89.055 E2.39481
G1 X127.517 Y88.080 E2.42837
G1 X126.648 Y87.198 E2.46206
G1 X125.707 Y86.436 E2.49500
G1 X125.116 Y86.626 F9900.000
G1 F1800.000 E1.49500
G1 Z0.600
G92 E0
G1 X131.331 Y91.107 F9900.000
G1 Z0.300
G1 F1800.000 E1.00000
G1 X131.960 Y90.903 F1050.000 E1.01797
G1 X132.423 Y91.935 E1.04876
G1 X132.893 Y93.443 E1.09173
G1 X133.178 Y94.934 E1.13303
G1 X133.289 Y96.478 E1.17515
