; generated by Slic3r 0.9.9-dev on 2013-09-15 at 17:47:47

; layer_height = 0.3
; perimeters = 2
; top_solid_layers = 4
; bottom_solid_layers = 4
; fill_density = 0.25
; perimeter_speed = 50
; infill_speed = 50
; travel_speed = 165
; nozzle_diameter = 0.5
; filament_diameter = 3.2
; extrusion_multiplier = 1
; perimeters extrusion width = 0.70mm
; infill extrusion width = 0.70mm
; solid infill extrusion width = 0.70mm
; top infill extrusion width = 0.70mm
; first layer extrusion width = 0.80mm

G21 ; set units to millimeters
M107
M190 S65 ; wait for bed temperature to be reached
M104 S185 ; set temperature
;G28 ; home all axes
;G1 Z5 F5000 ; lift nozzle
M109 S185 ; wait for temperature to be reached
G90 ; use absolute coordinates
G92 E0
M82 ; use absolute distances for extrusion
G1 F1800.000 E-1.00000
G1 Z0.700
G92 E0
G1 X87.450 Y36.021 F9900.000
G1 Z0.400
G1 F1800.000 E1.00000
G1 X87.560 Y35.771 F900.000 E1.00999
G1 X87.820 Y35.291 E1.02997
G1 X88.110 Y34.831 E1.04986
G1 X88.430 Y34.401 E1.06947
G1 X88.980 Y33.801 E1.09925
G1 X89.600 Y33.281 E1.12886
G1 X90.280 Y32.831 E1.15869
G1 X90.760 Y32.571 E1.17866
G1 X91.010 Y32.461 E1.18866
G1 X91.520 Y32.271 E1.20857
G1 X92.040 Y32.121 E1.22837
G1 X92.840 Y31.971 E1.25815
G1 X93.650 Y31.921 E1.28784
G1 X114.840 Y31.921 E2.06311
G1 X115.680 Y31.981 E2.09392
G1 X116.500 Y32.131 E2.12442
G1 X117.300 Y32.391 E2.15520
G1 X117.810 Y32.611 E2.17552
G1 X118.060 Y32.741 E2.18583
G1 X118.530 Y33.031 E2.20603
G1 X118.990 Y33.351 E2.22654
G1 X119.410 Y33.721 E2.24701
G1 X119.810 Y34.111 E2.26745
G1 X151.310 Y68.511 E3.97398
G1 X151.670 Y68.941 E3.99450
G1 X151.990 Y69.391 E4.01470
G1 X152.400 Y70.111 E4.04502
G1 X152.620 Y70.621 E4.06534
G1 X152.800 Y71.141 E4.08547
G1 X152.930 Y71.681 E4.10579
G1 X153.020 Y72.231 E4.12618
G1 X153.080 Y73.061 E4.15663
G1 X153.080 Y93.651 E4.90995
G1 X153.060 Y94.161 E4.92862
G1 X152.960 Y94.911 E4.95631
G1 X152.850 Y95.441 E4.97611
G1 X152.670 Y96.061 E4.99973
G1 X152.280 Y96.951 E5.03528
G1 X133.190 Y133.841 E6.55497
G1 X132.840 Y134.381 E6.57852
G1 X132.450 Y134.881 E6.60172
G1 X131.890 Y135.491 E6.63202
G1 X131.420 Y135.901 E6.65483
G1 X130.910 Y136.261 E6.67767
G1 X130.370 Y136.581 E6.70064
G1 X130.180 Y136.681 E6.70849
G1 X129.120 Y137.131 E6.75063
G1 X110.100 Y143.311 E7.48232
G1 X109.340 Y143.501 E7.51098
G1 X108.670 Y143.621 E7.53588
G1 X107.870 Y143.671 E7.56521
G1 X106.790 Y143.581 E7.60486
G1 X106.300 Y143.501 E7.62302
G1 X105.720 Y143.351 E7.64494
G1 X105.160 Y143.161 E7.66658
G1 X104.610 Y142.911 E7.68868
G1 X104.190 Y142.681 E7.70620
G1 X103.670 Y142.361 E7.72854
G1 X103.180 Y141.991 E7.75101
G1 X102.730 Y141.571 E7.77353
G1 X102.180 Y140.991 E7.80277
G1 X101.990 Y140.751 E7.81397
G1 X101.650 Y140.251 E7.83609
G1 X101.270 Y139.591 E7.86396
G1 X101.050 Y139.101 E7.88361
G1 X100.860 Y138.601 E7.90318
G1 X87.240 Y96.671 E9.51616
G1 X87.080 Y96.091 E9.53817
G1 X87.020 Y95.791 E9.54937
G1 X86.940 Y95.191 E9.57151
G1 X86.910 Y94.591 E9.59349
G1 X86.910 Y38.661 E11.63979
G1 X86.960 Y37.851 E11.66948
G1 X87.050 Y37.311 E11.68951
G1 X87.180 Y36.791 E11.70912
G1 X87.409 Y36.123 E11.73494
G1 F1800.000 E10.73494
G1 Z0.700
G92 E0
G1 X134.599 Y81.856 F9900.000
G1 Z0.400
G1 F1800.000 E1.00000
G1 X134.945 Y81.510 F540.000 E1.01790
G1 X135.346 Y81.229 E1.03581
G1 X135.790 Y81.022 E1.05371
G1 X136.262 Y80.896 E1.07162
G1 X136.373 Y80.886 E1.07569
G1 X136.750 Y80.853 E1.08952
G1 X137.238 Y80.896 E1.10743
G1 X137.710 Y81.022 E1.12533
G1 X138.154 Y81.229 E1.14324
G1 X138.555 Y81.510 E1.16114
G1 X138.901 Y81.856 E1.17906
G1 X139.182 Y82.257 E1.19696
G1 X139.388 Y82.701 E1.21487
G1 X139.515 Y83.173 E1.23277
G1 X139.558 Y83.661 E1.25068
G1 X139.515 Y84.148 E1.26858
G1 X139.388 Y84.621 E1.28649
G1 X139.181 Y85.065 E1.30439
G1 X138.901 Y85.466 E1.32230
G1 X138.555 Y85.812 E1.34020
G1 X138.154 Y86.092 E1.35811
G1 X137.710 Y86.299 E1.37601
G1 X137.238 Y86.426 E1.39392
G1 X136.750 Y86.468 E1.41183
G1 X136.262 Y86.426 E1.42973
G1 X135.790 Y86.299 E1.44764
G1 X135.346 Y86.092 E1.46555
G1 X134.945 Y85.812 E1.48345
G1 X134.599 Y85.465 E1.50136
G1 X134.318 Y85.064 E1.51927
G1 X134.112 Y84.621 E1.53717
G1 X133.985 Y84.148 E1.55507
G1 X133.942 Y83.661 E1.57298
G1 X133.985 Y83.173 E1.59088
G1 X134.112 Y82.700 E1.60879
G1 X134.319 Y82.257 E1.62670
G1 X134.536 Y81.946 E1.64057
G1 X135.165 Y82.331 F9900.000
G1 X135.420 Y82.076 F540.000 E1.65376
G1 X135.715 Y81.869 E1.66696
G1 X136.042 Y81.716 E1.68016
G1 X136.437 Y81.619 E1.69505
G1 X136.750 Y81.592 E1.70653
G1 X137.109 Y81.623 E1.71972
G1 X137.458 Y81.716 E1.73292
G1 X137.785 Y81.869 E1.74612
G1 X138.080 Y82.076 E1.75931
G1 X138.335 Y82.331 E1.77251
G1 X138.542 Y82.626 E1.78571
G1 X138.694 Y82.953 E1.79890
G1 X138.788 Y83.301 E1.81210
G1 X138.819 Y83.661 E1.82529
G1 X138.788 Y84.020 E1.83849
G1 X138.694 Y84.369 E1.85169
G1 X138.542 Y84.695 E1.86488
G1 X138.335 Y84.991 E1.87808
G1 X138.080 Y85.246 E1.89128
G1 X137.785 Y85.453 E1.90447
G1 X137.458 Y85.605 E1.91767
G1 X137.109 Y85.699 E1.93086
G1 X136.750 Y85.730 E1.94406
G1 X136.391 Y85.699 E1.95726
G1 X136.042 Y85.605 E1.97045
G1 X135.715 Y85.453 E1.98365
G1 X135.420 Y85.246 E1.99685
G1 X135.165 Y84.991 E2.01004
G1 X134.958 Y84.695 E2.02324
G1 X134.806 Y84.368 E2.03644
G1 X134.712 Y84.020 E2.04963
G1 X134.681 Y83.661 E2.06283
G1 X134.712 Y83.301 E2.07602
G1 X134.806 Y82.953 E2.08922
G1 X134.958 Y82.626 E2.10242
G1 X135.102 Y82.421 E2.11158
G1 X135.051 Y81.988 F9900.000
G1 X123.265 Y83.173
G1 X123.308 Y83.661 F540.000 E2.12948
G1 X123.265 Y84.148 E2.14739
G1 X123.138 Y84.621 E2.16530
G1 X122.932 Y85.065 E2.18320
G1 X122.868 Y85.156 E2.18728
G1 X122.651 Y85.466 E2.20111
G1 X122.305 Y85.812 E2.21901
G1 X121.904 Y86.092 E2.23692
G1 X121.460 Y86.299 E2.25482
G1 X120.988 Y86.426 E2.27273
G1 X120.500 Y86.468 E2.29064
G1 X120.012 Y86.426 E2.30854
G1 X119.540 Y86.299 E2.32644
G1 X119.096 Y86.092 E2.34435
G1 X119.005 Y86.028 E2.34843
G1 X118.695 Y85.812 E2.36226
G1 X118.349 Y85.465 E2.38017
G1 X118.068 Y85.065 E2.39807
G1 X117.862 Y84.621 E2.41598
G1 X117.735 Y84.148 E2.43388
G1 X117.692 Y83.661 E2.45179
G1 X117.735 Y83.173 E2.46970
G1 X117.862 Y82.700 E2.48760
G1 X118.068 Y82.257 E2.50550
G1 X118.132 Y82.166 E2.50958
G1 X118.349 Y81.856 E2.52341
G1 X118.695 Y81.510 E2.54132
G1 X119.096 Y81.229 E2.55922
G1 X119.540 Y81.022 E2.57713
G1 X120.012 Y80.896 E2.59503
G1 X120.500 Y80.853 E2.61294
G1 X120.988 Y80.896 E2.63085
G1 X121.460 Y81.022 E2.64875
G1 X121.904 Y81.229 E2.66666
G1 X122.305 Y81.510 E2.68456
G1 X122.651 Y81.856 E2.70247
G1 X122.931 Y82.257 E2.72037
G1 X123.138 Y82.700 E2.73828
G1 X123.236 Y83.067 E2.75215
G1 X122.538 Y83.301 F9900.000
G1 X122.569 Y83.661 F540.000 E2.76534
G1 X122.538 Y84.020 E2.77854
G1 X122.444 Y84.368 E2.79174
G1 X122.265 Y84.734 E2.80663
G1 X122.085 Y84.991 E2.81811
G1 X121.830 Y85.246 E2.83130
G1 X121.535 Y85.453 E2.84450
G1 X121.208 Y85.605 E2.85769
G1 X120.859 Y85.699 E2.87089
G1 X120.500 Y85.730 E2.88409
G1 X120.141 Y85.699 E2.89728
G1 X119.792 Y85.605 E2.91048
G1 X119.427 Y85.426 E2.92537
G1 X119.170 Y85.246 E2.93685
G1 X118.915 Y84.991 E2.95005
G1 X118.708 Y84.695 E2.96324
G1 X118.556 Y84.368 E2.97644
G1 X118.462 Y84.020 E2.98964
G1 X118.431 Y83.661 E3.00283
G1 X118.462 Y83.301 E3.01603
G1 X118.556 Y82.953 E3.02923
G1 X118.735 Y82.588 E3.04412
G1 X118.915 Y82.331 E3.05560
G1 X119.170 Y82.076 E3.06879
G1 X119.465 Y81.869 E3.08199
G1 X119.792 Y81.716 E3.09518
G1 X120.141 Y81.623 E3.10838
G1 X120.500 Y81.592 E3.12158
G1 X120.859 Y81.623 E3.13477
G1 X121.208 Y81.716 E3.14797
G1 X121.535 Y81.869 E3.16117
G1 X121.830 Y82.076 E3.17436
G1 X122.085 Y82.331 E3.18756
G1 X122.292 Y82.626 E3.20075
G1 X122.444 Y82.953 E3.21395
G1 X122.509 Y83.195 E3.22311
G1 X122.873 Y83.435 F9900.000
G1 X122.907 Y83.661
G1 X120.500 Y81.254
G1 X106.657 Y83.661
G1 X107.058 Y83.661
G1 X107.015 Y84.148 F540.000 E3.24101
G1 X106.888 Y84.621 E3.25892
G1 X106.682 Y85.065 E3.27683
G1 X106.401 Y85.466 E3.29473
G1 X106.055 Y85.812 E3.31264
G1 X105.654 Y86.092 E3.33055
G1 X105.210 Y86.299 E3.34845
G1 X104.738 Y86.426 E3.36635
G1 X104.250 Y86.468 E3.38426
G1 X103.762 Y86.426 E3.40217
G1 X103.290 Y86.299 E3.42007
G1 X102.846 Y86.092 E3.43798
G1 X102.445 Y85.812 E3.45588
G1 X102.099 Y85.465 E3.47379
G1 X101.818 Y85.065 E3.49170
G1 X101.612 Y84.621 E3.50960
G1 X101.485 Y84.148 E3.52751
G1 X101.442 Y83.661 E3.54541
G1 X101.485 Y83.173 E3.56332
G1 X101.612 Y82.700 E3.58123
G1 X101.819 Y82.257 E3.59913
G1 X102.099 Y81.856 E3.61704
G1 X102.445 Y81.510 E3.63494
G1 X102.846 Y81.229 E3.65285
G1 X103.290 Y81.022 E3.67075
G1 X103.762 Y80.896 E3.68866
G1 X104.250 Y80.853 E3.70656
G1 X104.738 Y80.896 E3.72447
G1 X105.210 Y81.022 E3.74237
G1 X105.654 Y81.229 E3.76028
G1 X106.055 Y81.510 E3.77818
G1 X106.401 Y81.856 E3.79609
G1 X106.682 Y82.257 E3.81400
G1 X106.888 Y82.701 E3.83190
G1 X107.015 Y83.173 E3.84981
G1 X107.048 Y83.551 E3.86368
G1 X106.319 Y83.661 F9900.000
G1 X106.288 Y84.020 F540.000 E3.87687
G1 X106.194 Y84.368 E3.89007
G1 X106.042 Y84.695 E3.90327
G1 X105.835 Y84.991 E3.91646
G1 X105.580 Y85.246 E3.92966
G1 X105.285 Y85.453 E3.94286
G1 X104.958 Y85.605 E3.95605
G1 X104.609 Y85.699 E3.96925
G1 X104.250 Y85.730 E3.98245
G1 X103.891 Y85.699 E3.99564
G1 X103.542 Y85.605 E4.00884
G1 X103.215 Y85.453 E4.02203
G1 X102.920 Y85.246 E4.03523
G1 X102.665 Y84.991 E4.04843
G1 X102.458 Y84.695 E4.06162
G1 X102.306 Y84.368 E4.07482
G1 X102.212 Y84.020 E4.08802
G1 X102.181 Y83.661 E4.10121
G1 X102.212 Y83.301 E4.11441
G1 X102.306 Y82.953 E4.12761
G1 X102.458 Y82.626 E4.14080
G1 X102.665 Y82.331 E4.15400
G1 X102.958 Y82.049 E4.16889
G1 X103.215 Y81.869 E4.18037
G1 X103.542 Y81.716 E4.19356
G1 X103.891 Y81.623 E4.20676
G1 X104.250 Y81.592 E4.21996
G1 X104.609 Y81.623 E4.23315
G1 X104.958 Y81.716 E4.24635
G1 X105.285 Y81.869 E4.25955
G1 X105.580 Y82.076 E4.27274
G1 X105.835 Y82.331 E4.28594
G1 X106.042 Y82.626 E4.29914
G1 X106.194 Y82.953 E4.31233
G1 X106.288 Y83.301 E4.32553
G1 X106.310 Y83.551 E4.33469
G1 X106.626 Y83.850 F9900.000
G1 X107.964 Y101.491
G1 X108.460 Y101.535 F540.000 E4.35292
G1 X108.941 Y101.664 E4.37114
G1 X109.393 Y101.874 E4.38936
G1 X109.801 Y102.160 E4.40759
G1 X110.153 Y102.512 E4.42581
G1 X110.439 Y102.920 E4.44404
G1 X110.649 Y103.372 E4.46226
G1 X110.778 Y103.853 E4.48049
G1 X110.822 Y104.349 E4.49871
G1 X110.778 Y104.845 E4.51694
G1 X110.649 Y105.326 E4.53516
G1 X110.439 Y105.778 E4.55338
G1 X110.153 Y106.186 E4.57161
G1 X109.801 Y106.538 E4.58984
G1 X109.393 Y106.824 E4.60805
G1 X108.942 Y107.034 E4.62628
G1 X108.460 Y107.163 E4.64451
G1 X107.964 Y107.207 E4.66274
G1 X107.468 Y107.163 E4.68095
G1 X107.360 Y107.134 E4.68504
G1 X106.987 Y107.034 E4.69918
G1 X106.535 Y106.824 E4.71740
G1 X106.127 Y106.538 E4.73563
G1 X105.775 Y106.186 E4.75386
G1 X105.489 Y105.778 E4.77208
G1 X105.279 Y105.326 E4.79030
G1 X105.150 Y104.845 E4.80853
G1 X105.106 Y104.349 E4.82675
G1 X105.150 Y103.853 E4.84498
G1 X105.279 Y103.372 E4.86320
G1 X105.489 Y102.920 E4.88143
G1 X105.775 Y102.512 E4.89965
G1 X106.127 Y102.160 E4.91788
G1 X106.535 Y101.874 E4.93610
G1 X106.987 Y101.664 E4.95432
G1 X107.468 Y101.535 E4.97255
G1 X107.854 Y101.501 E4.98674
G1 X107.964 Y102.230 F9900.000
G1 X108.332 Y102.262 F540.000 E5.00025
G1 X108.689 Y102.358 E5.01376
G1 X109.024 Y102.514 E5.02728
G1 X109.326 Y102.726 E5.04080
G1 X109.587 Y102.987 E5.05431
G1 X109.799 Y103.289 E5.06783
G1 X109.955 Y103.624 E5.08134
G1 X110.051 Y103.981 E5.09486
G1 X110.083 Y104.349 E5.10837
G1 X110.051 Y104.717 E5.12189
G1 X109.955 Y105.074 E5.13540
G1 X109.799 Y105.409 E5.14892
G1 X109.587 Y105.711 E5.16243
G1 X109.326 Y105.973 E5.17595
G1 X109.024 Y106.184 E5.18946
G1 X108.689 Y106.340 E5.20298
G1 X108.332 Y106.436 E5.21649
G1 X107.964 Y106.468 E5.23001
G1 X107.550 Y106.424 E5.24524
G1 X107.239 Y106.341 E5.25702
G1 X106.904 Y106.184 E5.27053
G1 X106.602 Y105.973 E5.28405
G1 X106.341 Y105.711 E5.29756
G1 X106.129 Y105.409 E5.31108
G1 X105.973 Y105.074 E5.32459
G1 X105.877 Y104.717 E5.33811
G1 X105.845 Y104.349 E5.35162
G1 X105.877 Y103.981 E5.36514
G1 X105.973 Y103.624 E5.37865
G1 X106.129 Y103.289 E5.39217
G1 X106.341 Y102.987 E5.40568
G1 X106.602 Y102.726 E5.41920
G1 X106.904 Y102.514 E5.43271
G1 X107.239 Y102.358 E5.44623
G1 X107.596 Y102.262 E5.45975
G1 X107.854 Y102.239 E5.46922
G1 X108.158 Y101.915 F9900.000
G1 X107.941 Y102.059
G1 X109.455 Y102.610
G1 X110.255 Y104.325
G1 X113.956 Y120.486
G1 X112.978 Y120.102
G1 X113.459 Y119.973 F540.000 E5.48743
G1 X113.955 Y119.930 E5.50567
G1 X114.451 Y119.973 E5.52389
G1 X114.932 Y120.102 E5.54212
G1 X115.384 Y120.313 E5.56035
G1 X115.792 Y120.598 E5.57856
G1 X116.144 Y120.951 E5.59679
G1 X116.430 Y121.359 E5.61501
G1 X116.640 Y121.810 E5.63324
G1 X116.769 Y122.291 E5.65146
G1 X116.813 Y122.787 E5.66969
G1 X116.769 Y123.284 E5.68792
G1 X116.640 Y123.765 E5.70614
G1 X116.430 Y124.216 E5.72436
G1 X116.144 Y124.624 E5.74259
G1 X115.792 Y124.976 E5.76081
G1 X115.384 Y125.262 E5.77904
G1 X114.932 Y125.473 E5.79727
G1 X114.451 Y125.602 E5.81548
G1 X113.955 Y125.645 E5.83371
G1 X113.459 Y125.602 E5.85193
G1 X112.978 Y125.473 E5.87016
G1 X112.526 Y125.262 E5.88839
G1 X112.118 Y124.977 E5.90661
G1 X111.766 Y124.624 E5.92484
G1 X111.480 Y124.216 E5.94306
G1 X111.270 Y123.765 E5.96129
G1 X111.141 Y123.284 E5.97951
G1 X111.097 Y122.787 E5.99773
G1 X111.141 Y122.291 E6.01596
G1 X111.270 Y121.810 E6.03418
G1 X111.480 Y121.359 E6.05240
G1 X111.766 Y120.951 E6.07063
G1 X112.118 Y120.598 E6.08885
G1 X112.526 Y120.313 E6.10709
G1 X112.878 Y120.149 E6.12127
G1 X113.230 Y120.796 F9900.000
G1 X113.587 Y120.700 F540.000 E6.13478
G1 X113.955 Y120.668 E6.14830
G1 X114.323 Y120.700 E6.16181
G1 X114.680 Y120.796 E6.17533
G1 X115.015 Y120.952 E6.18885
G1 X115.317 Y121.164 E6.20236
G1 X115.578 Y121.425 E6.21588
G1 X115.790 Y121.728 E6.22939
G1 X115.946 Y122.063 E6.24291
G1 X116.042 Y122.419 E6.25642
G1 X116.074 Y122.787 E6.26994
G1 X116.042 Y123.155 E6.28345
G1 X115.946 Y123.512 E6.29697
G1 X115.790 Y123.847 E6.31048
G1 X115.578 Y124.150 E6.32400
G1 X115.317 Y124.411 E6.33751
G1 X115.015 Y124.623 E6.35103
G1 X114.680 Y124.779 E6.36455
G1 X114.323 Y124.874 E6.37806
G1 X113.908 Y124.903 E6.39329
G1 X113.587 Y124.874 E6.40507
G1 X113.230 Y124.779 E6.41858
G1 X112.895 Y124.623 E6.43210
G1 X112.593 Y124.411 E6.44561
G1 X112.332 Y124.150 E6.45913
G1 X112.120 Y123.847 E6.47264
G1 X111.964 Y123.512 E6.48616
G1 X111.868 Y123.155 E6.49967
G1 X111.836 Y122.787 E6.51319
G1 X111.868 Y122.419 E6.52671
G1 X111.964 Y122.063 E6.54022
G1 X112.120 Y121.728 E6.55373
G1 X112.332 Y121.425 E6.56725
G1 X112.593 Y121.164 E6.58076
G1 X112.895 Y120.952 E6.59428
G1 X113.130 Y120.843 E6.60376
G1 X113.305 Y120.434 F9900.000
G1 X119.545 Y109.277
G1 X126.223 Y129.832 F900.000 E7.39449
G1 X108.170 Y135.698 E8.08895
G1 X94.759 Y94.422 E9.67681
G1 X94.759 Y39.764 E11.67655
G1 X113.745 Y39.764 E12.37116
G1 X113.741 Y57.692 E13.02709
G1 X113.843 Y59.509 E13.09368
G1 X114.153 Y61.335 E13.16142
G1 X114.666 Y63.114 E13.22916
G1 X115.374 Y64.825 E13.29691
G1 X116.270 Y66.445 E13.36465
G1 X117.341 Y67.955 E13.43239
G1 X118.575 Y69.336 E13.50013
G1 X119.956 Y70.569 E13.56787
G1 X121.466 Y71.641 E13.63562
G1 X123.086 Y72.537 E13.70336
G1 X124.797 Y73.245 E13.77110
G1 X126.576 Y73.758 E13.83884
G1 X128.401 Y74.068 E13.90658
G1 X130.219 Y74.170 E13.97319
G1 X145.241 Y74.170 E14.52278
G1 X145.241 Y93.152 E15.21725
G1 X131.261 Y93.152 E15.72874
G1 X129.677 Y93.434 E15.78761
G1 X128.014 Y93.942 E15.85122
G1 X126.425 Y94.662 E15.91503
G1 X124.943 Y95.581 E15.97884
G1 X123.591 Y96.683 E16.04265
G1 X122.393 Y97.950 E16.10645
G1 X121.368 Y99.361 E16.17026
G1 X120.533 Y100.892 E16.23407
G1 X119.903 Y102.518 E16.29788
G1 X119.487 Y104.212 E16.36168
G1 X119.293 Y105.945 E16.42549
G1 X119.324 Y107.687 E16.48923
G1 X119.530 Y109.168 E16.54393
G1 X120.265 Y109.112 F9900.000
G1 X127.075 Y130.074 F630.000 E17.35032
G1 X127.090 Y130.167 E17.35376
G1 X127.073 Y130.243 E17.35662
G1 X127.003 Y130.336 E17.36088
G1 X126.919 Y130.379 E17.36433
G1 X107.927 Y136.550 E18.09495
G1 X107.844 Y136.565 E18.09805
G1 X107.741 Y136.540 E18.10190
G1 X107.661 Y136.472 E18.10575
