; generated by Slic3r 0.9.9-dev on 2013-09-16 at 21:19:24

; layer_height = 0.3
; perimeters = 2
; top_solid_layers = 4
; bottom_solid_layers = 4
; fill_density = 0.25
; perimeter_speed = 50
; infill_speed = 50
; travel_speed = 165
; nozzle_diameter = 0.5
; filament_diameter = 3.2
; extrusion_multiplier = 1
; perimeters extrusion width = 0.70mm
; infill extrusion width = 0.70mm
; solid infill extrusion width = 0.70mm
; top infill extrusion width = 0.70mm
; first layer extrusion width = 0.80mm

G21 ; set units to millimeters
M107
M190 S65 ; wait for bed temperature to be reached
M104 S185 ; set temperature
;G28 ; home all axes
;G1 Z5 F5000 ; lift nozzle
M109 S185 ; wait for temperature to be reached
G90 ; use absolute coordinates
G92 E0
M82 ; use absolute distances for extrusion
G1 F1800.000 E-1.00000
G1 Z0.700
G92 E0
G1 X88.320 Y68.941 F9900.000
G1 Z0.400
G1 F1800.000 E1.00000
G1 X88.680 Y68.511 F900.000 E1.02052
G1 X120.180 Y34.111 E2.72705
G1 X120.580 Y33.721 E2.74749
G1 X121.000 Y33.351 E2.76797
G1 X121.460 Y33.031 E2.78847
G1 X121.930 Y32.741 E2.80867
G1 X122.180 Y32.611 E2.81898
G1 X122.690 Y32.391 E2.83930
G1 X123.490 Y32.131 E2.87008
G1 X124.310 Y31.981 E2.90058
G1 X125.150 Y31.921 E2.93139
G1 X146.610 Y31.931 E3.71654
G1 X147.150 Y31.971 E3.73635
G1 X147.420 Y32.011 E3.74634
G1 X148.210 Y32.191 E3.77598
G1 X148.980 Y32.461 E3.80584
G1 X149.230 Y32.571 E3.81583
G1 X149.710 Y32.831 E3.83580
G1 X150.390 Y33.281 E3.86563
G1 X151.010 Y33.801 E3.89524
G1 X151.560 Y34.401 E3.92502
G1 X151.880 Y34.831 E3.94463
G1 X152.170 Y35.291 E3.96453
G1 X152.430 Y35.771 E3.98450
G1 X152.730 Y36.531 E4.01439
G1 X152.880 Y37.051 E4.03419
G1 X152.990 Y37.581 E4.05400
G1 X153.030 Y37.851 E4.06398
G1 X153.080 Y38.661 E4.09368
G1 X153.080 Y94.591 E6.13997
G1 X153.050 Y95.191 E6.16195
G1 X152.970 Y95.791 E6.18410
G1 X152.910 Y96.091 E6.19529
G1 X152.750 Y96.671 E6.21730
G1 X139.130 Y138.601 E7.83029
G1 X138.940 Y139.101 E7.84986
G1 X138.720 Y139.591 E7.86951
G1 X138.340 Y140.251 E7.89737
G1 X138.000 Y140.751 E7.91949
G1 X137.810 Y140.991 E7.93069
G1 X137.260 Y141.571 E7.95994
G1 X136.810 Y141.991 E7.98246
G1 X136.320 Y142.361 E8.00492
G1 X135.800 Y142.681 E8.02726
G1 X135.360 Y142.921 E8.04560
G1 X134.790 Y143.171 E8.06837
G1 X134.190 Y143.381 E8.09163
G1 X133.890 Y143.461 E8.10299
G1 X133.180 Y143.591 E8.12940
G1 X132.680 Y143.651 E8.14782
G1 X132.150 Y143.671 E8.16722
G1 X131.040 Y143.571 E8.20800
G1 X129.890 Y143.311 E8.25114
G1 X110.870 Y137.131 E8.98283
G1 X109.810 Y136.681 E9.02496
G1 X109.620 Y136.581 E9.03282
G1 X109.080 Y136.261 E9.05578
G1 X108.570 Y135.901 E9.07862
G1 X108.100 Y135.491 E9.10144
G1 X107.670 Y135.031 E9.12448
G1 X107.340 Y134.641 E9.14317
G1 X106.970 Y134.121 E9.16652
G1 X106.650 Y133.571 E9.18980
G1 X87.700 Y96.961 E10.69804
G1 X87.430 Y96.371 E10.72178
G1 X87.130 Y95.451 E10.75718
G1 X86.980 Y94.601 E10.78876
G1 X86.910 Y93.651 E10.82361
G1 X86.920 Y72.781 E11.58718
G1 X86.970 Y72.231 E11.60738
G1 X87.060 Y71.681 E11.62777
G1 X87.190 Y71.141 E11.64810
G1 X87.370 Y70.621 E11.66823
G1 X87.590 Y70.111 E11.68855
G1 X87.720 Y69.861 E11.69886
G1 X88.000 Y69.391 E11.71887
G1 X88.255 Y69.030 E11.73504
G1 F1800.000 E10.73504
G1 Z0.700
G92 E0
G1 X101.099 Y81.856 F9900.000
G1 Z0.400
G1 F1800.000 E1.00000
G1 X101.445 Y81.510 F540.000 E1.01790
G1 X101.846 Y81.229 E1.03581
G1 X102.290 Y81.022 E1.05371
G1 X102.762 Y80.896 E1.07162
G1 X102.873 Y80.886 E1.07569
G1 X103.250 Y80.853 E1.08953
G1 X103.738 Y80.896 E1.10743
G1 X104.210 Y81.022 E1.12533
G1 X104.654 Y81.229 E1.14325
G1 X105.055 Y81.510 E1.16115
G1 X105.401 Y81.856 E1.17905
G1 X105.682 Y82.257 E1.19696
G1 X105.888 Y82.700 E1.21486
G1 X106.015 Y83.173 E1.23277
G1 X106.058 Y83.661 E1.25068
G1 X106.015 Y84.148 E1.26858
G1 X105.888 Y84.621 E1.28649
G1 X105.682 Y85.065 E1.30439
G1 X105.401 Y85.466 E1.32230
G1 X105.055 Y85.812 E1.34020
G1 X104.654 Y86.092 E1.35811
G1 X104.210 Y86.299 E1.37602
G1 X103.738 Y86.426 E1.39392
G1 X103.250 Y86.468 E1.41183
G1 X102.762 Y86.426 E1.42974
G1 X102.290 Y86.299 E1.44764
G1 X101.846 Y86.092 E1.46554
G1 X101.445 Y85.812 E1.48345
G1 X101.099 Y85.465 E1.50136
G1 X100.818 Y85.065 E1.51926
G1 X100.612 Y84.621 E1.53717
G1 X100.485 Y84.148 E1.55507
G1 X100.442 Y83.661 E1.57298
G1 X100.485 Y83.173 E1.59089
G1 X100.612 Y82.700 E1.60879
G1 X100.818 Y82.257 E1.62670
G1 X101.036 Y81.946 E1.64057
G1 X101.665 Y82.331 F9900.000
G1 X101.920 Y82.076 F540.000 E1.65376
G1 X102.215 Y81.869 E1.66696
G1 X102.542 Y81.716 E1.68016
G1 X102.937 Y81.619 E1.69505
G1 X103.250 Y81.592 E1.70653
G1 X103.609 Y81.623 E1.71972
G1 X103.958 Y81.716 E1.73292
G1 X104.285 Y81.869 E1.74612
G1 X104.580 Y82.076 E1.75931
G1 X104.835 Y82.331 E1.77251
G1 X105.042 Y82.626 E1.78570
G1 X105.207 Y82.998 E1.80060
G1 X105.288 Y83.301 E1.81207
G1 X105.319 Y83.661 E1.82527
G1 X105.288 Y84.020 E1.83847
G1 X105.194 Y84.369 E1.85166
G1 X105.042 Y84.695 E1.86486
G1 X104.835 Y84.991 E1.87806
G1 X104.580 Y85.246 E1.89125
G1 X104.285 Y85.453 E1.90445
G1 X103.958 Y85.605 E1.91764
G1 X103.609 Y85.699 E1.93084
G1 X103.250 Y85.730 E1.94404
G1 X102.891 Y85.699 E1.95723
G1 X102.542 Y85.605 E1.97043
G1 X102.215 Y85.453 E1.98363
G1 X101.920 Y85.246 E1.99682
G1 X101.665 Y84.991 E2.01002
G1 X101.458 Y84.695 E2.02322
G1 X101.306 Y84.369 E2.03641
G1 X101.212 Y84.020 E2.04961
G1 X101.181 Y83.661 E2.06280
G1 X101.212 Y83.301 E2.07600
G1 X101.306 Y82.953 E2.08920
G1 X101.458 Y82.626 E2.10239
G1 X101.602 Y82.421 E2.11155
G1 X101.551 Y81.988 F9900.000
G1 X100.844 Y83.659
G1 X103.250 Y81.254
G1 X117.094 Y83.659
G1 X116.735 Y83.173
G1 X116.862 Y82.700 F540.000 E2.12946
G1 X117.068 Y82.257 E2.14736
G1 X117.349 Y81.856 E2.16527
G1 X117.695 Y81.510 E2.18318
G1 X117.786 Y81.446 E2.18725
G1 X118.096 Y81.229 E2.20108
G1 X118.540 Y81.022 E2.21899
G1 X119.012 Y80.896 E2.23689
G1 X119.500 Y80.853 E2.25480
G1 X119.988 Y80.896 E2.27271
G1 X120.460 Y81.022 E2.29061
G1 X120.561 Y81.069 E2.29468
G1 X120.904 Y81.229 E2.30852
G1 X121.305 Y81.510 E2.32642
G1 X121.651 Y81.856 E2.34433
G1 X121.932 Y82.257 E2.36224
G1 X122.138 Y82.700 E2.38014
G1 X122.265 Y83.173 E2.39804
G1 X122.308 Y83.661 E2.41595
G1 X122.265 Y84.148 E2.43386
G1 X122.138 Y84.621 E2.45176
G1 X122.091 Y84.722 E2.45583
G1 X121.931 Y85.065 E2.46967
G1 X121.651 Y85.465 E2.48757
G1 X121.305 Y85.812 E2.50548
G1 X120.904 Y86.092 E2.52338
G1 X120.460 Y86.299 E2.54129
G1 X119.988 Y86.426 E2.55920
G1 X119.500 Y86.468 E2.57710
G1 X119.012 Y86.426 E2.59501
G1 X118.540 Y86.299 E2.61291
G1 X118.096 Y86.092 E2.63082
G1 X117.695 Y85.812 E2.64873
G1 X117.349 Y85.465 E2.66664
G1 X117.068 Y85.065 E2.68454
G1 X116.862 Y84.621 E2.70244
G1 X116.735 Y84.148 E2.72035
G1 X116.692 Y83.661 E2.73825
G1 X116.725 Y83.283 E2.75212
G1 X117.462 Y83.301 F9900.000
G1 X117.556 Y82.953 F540.000 E2.76532
G1 X117.708 Y82.626 E2.77851
G1 X117.915 Y82.331 E2.79171
G1 X118.208 Y82.049 E2.80660
G1 X118.465 Y81.869 E2.81808
G1 X118.792 Y81.716 E2.83128
G1 X119.141 Y81.623 E2.84447
G1 X119.500 Y81.592 E2.85767
G1 X119.859 Y81.623 E2.87087
G1 X120.208 Y81.716 E2.88406
G1 X120.535 Y81.869 E2.89726
G1 X120.830 Y82.076 E2.91046
G1 X121.085 Y82.331 E2.92365
G1 X121.292 Y82.626 E2.93685
G1 X121.444 Y82.953 E2.95005
G1 X121.538 Y83.301 E2.96324
G1 X121.569 Y83.661 E2.97644
G1 X121.538 Y84.020 E2.98964
G1 X121.425 Y84.411 E3.00453
G1 X121.292 Y84.695 E3.01600
G1 X121.085 Y84.991 E3.02920
G1 X120.830 Y85.246 E3.04240
G1 X120.535 Y85.453 E3.05559
G1 X120.208 Y85.605 E3.06879
G1 X119.859 Y85.699 E3.08199
G1 X119.500 Y85.730 E3.09518
G1 X119.141 Y85.699 E3.10838
G1 X118.792 Y85.605 E3.12157
G1 X118.465 Y85.453 E3.13477
G1 X118.170 Y85.246 E3.14797
G1 X117.915 Y84.991 E3.16117
G1 X117.708 Y84.695 E3.17436
G1 X117.556 Y84.369 E3.18756
G1 X117.462 Y84.020 E3.20075
G1 X117.431 Y83.661 E3.21395
G1 X117.453 Y83.411 E3.22311
G1 X117.193 Y83.062 F9900.000
G1 X117.094 Y83.659
G1 X119.500 Y81.254
G1 X133.344 Y83.659
G1 X132.942 Y83.661
G1 X132.985 Y83.173 F540.000 E3.24101
G1 X133.112 Y82.701 E3.25892
G1 X133.318 Y82.257 E3.27682
G1 X133.599 Y81.856 E3.29473
G1 X133.945 Y81.510 E3.31263
G1 X134.346 Y81.229 E3.33054
G1 X134.790 Y81.022 E3.34845
G1 X135.262 Y80.896 E3.36635
G1 X135.750 Y80.853 E3.38426
G1 X136.238 Y80.896 E3.40217
G1 X136.710 Y81.022 E3.42007
G1 X137.154 Y81.229 E3.43798
G1 X137.555 Y81.510 E3.45588
G1 X137.901 Y81.856 E3.47379
G1 X138.181 Y82.257 E3.49169
G1 X138.388 Y82.700 E3.50960
G1 X138.515 Y83.173 E3.52750
G1 X138.558 Y83.661 E3.54541
G1 X138.515 Y84.148 E3.56332
G1 X138.388 Y84.621 E3.58122
G1 X138.181 Y85.065 E3.59913
G1 X137.901 Y85.465 E3.61703
G1 X137.822 Y85.544 E3.62111
G1 X137.555 Y85.811 E3.63494
G1 X137.154 Y86.092 E3.65284
G1 X136.710 Y86.299 E3.67075
G1 X136.238 Y86.426 E3.68866
G1 X135.750 Y86.468 E3.70656
G1 X135.262 Y86.426 E3.72447
G1 X134.790 Y86.299 E3.74237
G1 X134.346 Y86.092 E3.76028
G1 X133.945 Y85.812 E3.77818
G1 X133.599 Y85.465 E3.79609
G1 X133.319 Y85.065 E3.81400
G1 X133.112 Y84.621 E3.83190
G1 X132.985 Y84.148 E3.84981
G1 X132.952 Y83.771 E3.86368
G1 X133.681 Y83.661 F9900.000
G1 X133.712 Y83.301 F540.000 E3.87687
G1 X133.825 Y82.911 E3.89176
G1 X133.958 Y82.626 E3.90324
G1 X134.165 Y82.331 E3.91644
G1 X134.420 Y82.076 E3.92963
G1 X134.715 Y81.869 E3.94283
G1 X135.042 Y81.716 E3.95603
G1 X135.391 Y81.623 E3.96922
G1 X135.750 Y81.592 E3.98242
G1 X136.109 Y81.623 E3.99562
G1 X136.500 Y81.736 E4.01051
G1 X136.785 Y81.869 E4.02199
G1 X137.080 Y82.076 E4.03518
G1 X137.335 Y82.331 E4.04838
G1 X137.542 Y82.626 E4.06157
G1 X137.694 Y82.953 E4.07477
G1 X137.788 Y83.301 E4.08797
G1 X137.819 Y83.661 E4.10117
G1 X137.788 Y84.020 E4.11436
G1 X137.694 Y84.368 E4.12756
G1 X137.542 Y84.695 E4.14076
G1 X137.302 Y85.024 E4.15565
G1 X137.080 Y85.246 E4.16712
G1 X136.785 Y85.453 E4.18032
G1 X136.458 Y85.605 E4.19352
G1 X136.109 Y85.699 E4.20671
G1 X135.750 Y85.730 E4.21991
G1 X135.391 Y85.699 E4.23311
G1 X135.042 Y85.605 E4.24630
G1 X134.715 Y85.453 E4.25950
G1 X134.420 Y85.246 E4.27270
G1 X134.165 Y84.991 E4.28589
G1 X133.958 Y84.695 E4.29909
G1 X133.806 Y84.368 E4.31228
G1 X133.712 Y84.020 E4.32548
G1 X133.690 Y83.771 E4.33464
G1 X133.374 Y83.471 F9900.000
G1 X131.881 Y101.967
G1 X132.378 Y102.010 F540.000 E4.35287
G1 X132.859 Y102.139 E4.37109
G1 X133.310 Y102.350 E4.38932
G1 X133.718 Y102.636 E4.40754
G1 X134.071 Y102.988 E4.42577
G1 X134.356 Y103.396 E4.44399
G1 X134.567 Y103.847 E4.46221
G1 X134.696 Y104.328 E4.48044
G1 X134.739 Y104.825 E4.49866
G1 X134.696 Y105.321 E4.51689
G1 X134.567 Y105.802 E4.53512
G1 X134.356 Y106.253 E4.55333
G1 X134.071 Y106.661 E4.57156
G1 X133.718 Y107.014 E4.58979
G1 X133.310 Y107.300 E4.60802
G1 X132.859 Y107.510 E4.62624
G1 X132.378 Y107.639 E4.64446
G1 X131.882 Y107.682 E4.66268
G1 X131.385 Y107.639 E4.68092
G1 X130.904 Y107.510 E4.69914
G1 X130.453 Y107.299 E4.71737
G1 X130.045 Y107.014 E4.73558
G1 X129.692 Y106.661 E4.75381
G1 X129.407 Y106.253 E4.77203
G1 X129.196 Y105.802 E4.79026
G1 X129.067 Y105.321 E4.80848
G1 X129.024 Y104.825 E4.82671
G1 X129.067 Y104.328 E4.84493
G1 X129.196 Y103.847 E4.86316
G1 X129.407 Y103.396 E4.88138
G1 X129.692 Y102.988 E4.89961
G1 X130.045 Y102.636 E4.91783
G1 X130.453 Y102.350 E4.93606
G1 X130.904 Y102.139 E4.95428
G1 X131.385 Y102.010 E4.97251
G1 X131.771 Y101.977 E4.98669
G1 X131.881 Y102.705 F9900.000
G1 X132.249 Y102.738 F540.000 E5.00020
G1 X132.606 Y102.833 E5.01372
G1 X132.941 Y102.989 E5.02724
G1 X133.244 Y103.201 E5.04075
G1 X133.505 Y103.462 E5.05427
G1 X133.717 Y103.765 E5.06778
G1 X133.873 Y104.100 E5.08130
G1 X133.969 Y104.457 E5.09481
G1 X134.001 Y104.825 E5.10833
G1 X133.968 Y105.193 E5.12184
G1 X133.873 Y105.549 E5.13536
G1 X133.717 Y105.884 E5.14887
G1 X133.505 Y106.187 E5.16239
G1 X133.244 Y106.448 E5.17590
G1 X132.941 Y106.660 E5.18942
G1 X132.606 Y106.816 E5.20294
G1 X132.250 Y106.912 E5.21645
G1 X131.881 Y106.944 E5.22996
G1 X131.513 Y106.912 E5.24348
G1 X131.157 Y106.816 E5.25700
G1 X130.822 Y106.660 E5.27051
G1 X130.519 Y106.448 E5.28403
G1 X130.258 Y106.187 E5.29754
G1 X130.046 Y105.884 E5.31106
G1 X129.890 Y105.549 E5.32457
G1 X129.794 Y105.193 E5.33809
G1 X129.762 Y104.825 E5.35160
G1 X129.794 Y104.457 E5.36512
G1 X129.890 Y104.100 E5.37863
G1 X130.046 Y103.765 E5.39215
G1 X130.258 Y103.462 E5.40566
G1 X130.519 Y103.201 E5.41918
G1 X130.822 Y102.989 E5.43269
G1 X131.157 Y102.833 E5.44621
G1 X131.513 Y102.738 E5.45972
G1 X131.772 Y102.715 E5.46920
G1 X132.075 Y102.391 F9900.000
G1 X131.881 Y102.523
G1 X130.142 Y103.334
G1 X129.599 Y104.825
G1 X126.046 Y120.486
G1 X127.022 Y120.102
G1 X127.474 Y120.313 F540.000 E5.48743
G1 X127.882 Y120.598 E5.50565
G1 X128.234 Y120.951 E5.52387
G1 X128.520 Y121.359 E5.54210
G1 X128.730 Y121.810 E5.56032
G1 X128.859 Y122.291 E5.57854
G1 X128.903 Y122.787 E5.59677
G1 X128.859 Y123.284 E5.61500
G1 X128.730 Y123.765 E5.63322
G1 X128.520 Y124.216 E5.65145
G1 X128.234 Y124.624 E5.66967
G1 X127.882 Y124.976 E5.68789
G1 X127.474 Y125.262 E5.70612
G1 X127.022 Y125.473 E5.72435
G1 X126.542 Y125.602 E5.74256
G1 X126.045 Y125.645 E5.76079
G1 X125.549 Y125.602 E5.77901
G1 X125.068 Y125.473 E5.79724
G1 X124.616 Y125.262 E5.81547
G1 X124.208 Y124.977 E5.83368
G1 X123.856 Y124.624 E5.85192
G1 X123.570 Y124.216 E5.87014
G1 X123.360 Y123.765 E5.88837
G1 X123.231 Y123.284 E5.90659
G1 X123.187 Y122.787 E5.92481
G1 X123.231 Y122.291 E5.94304
G1 X123.360 Y121.810 E5.96126
G1 X123.570 Y121.359 E5.97948
G1 X123.856 Y120.951 E5.99771
G1 X124.208 Y120.598 E6.01593
G1 X124.616 Y120.313 E6.03416
G1 X125.068 Y120.102 E6.05238
G1 X125.549 Y119.973 E6.07060
G1 X126.045 Y119.930 E6.08883
G1 X126.541 Y119.973 E6.10705
G1 X126.916 Y120.074 E6.12125
G1 X126.770 Y120.796 F9900.000
G1 X127.105 Y120.952 F540.000 E6.13476
G1 X127.407 Y121.164 E6.14828
G1 X127.668 Y121.425 E6.16179
G1 X127.880 Y121.728 E6.17531
G1 X128.036 Y122.063 E6.18882
G1 X128.136 Y122.467 E6.20405
G1 X128.164 Y122.787 E6.21583
G1 X128.132 Y123.155 E6.22935
G1 X128.036 Y123.512 E6.24286
G1 X127.880 Y123.847 E6.25638
G1 X127.668 Y124.150 E6.26989
G1 X127.407 Y124.411 E6.28341
G1 X127.105 Y124.623 E6.29692
G1 X126.770 Y124.779 E6.31044
G1 X126.413 Y124.874 E6.32395
G1 X126.045 Y124.907 E6.33747
G1 X125.677 Y124.874 E6.35098
G1 X125.320 Y124.779 E6.36450
G1 X124.985 Y124.623 E6.37802
G1 X124.683 Y124.411 E6.39153
G1 X124.422 Y124.150 E6.40505
G1 X124.210 Y123.847 E6.41856
G1 X124.054 Y123.512 E6.43208
G1 X123.958 Y123.155 E6.44559
G1 X123.930 Y122.740 E6.46082
G1 X123.958 Y122.419 E6.47260
G1 X124.054 Y122.063 E6.48611
G1 X124.210 Y121.728 E6.49963
G1 X124.422 Y121.425 E6.51314
G1 X124.683 Y121.164 E6.52666
G1 X124.985 Y120.952 E6.54018
G1 X125.320 Y120.796 E6.55369
G1 X125.677 Y120.700 E6.56720
G1 X126.045 Y120.668 E6.58072
G1 X126.413 Y120.700 E6.59423
G1 X126.663 Y120.767 E6.60371
G1 X127.060 Y120.567 F9900.000
G1 X119.266 Y112.932
G1 X120.455 Y109.277 F900.000 E6.74434
G1 X120.676 Y107.684 E6.80320
G1 X120.707 Y105.945 E6.86681
G1 X120.513 Y104.212 E6.93062
G1 X120.097 Y102.518 E6.99443
G1 X119.467 Y100.892 E7.05824
G1 X118.632 Y99.361 E7.12204
G1 X117.607 Y97.950 E7.18585
G1 X116.409 Y96.683 E7.24966
G1 X115.057 Y95.581 E7.31347
G1 X113.575 Y94.662 E7.37727
G1 X111.986 Y93.942 E7.44108
G1 X110.320 Y93.433 E7.50481
G1 X108.739 Y93.152 E7.56358
G1 X94.755 Y93.156 E8.07520
G1 X94.759 Y74.170 E8.76980
G1 X109.781 Y74.170 E9.31939
G1 X111.599 Y74.068 E9.38600
G1 X113.424 Y73.758 E9.45374
G1 X115.203 Y73.245 E9.52149
G1 X116.914 Y72.537 E9.58923
G1 X118.534 Y71.641 E9.65697
G1 X120.044 Y70.569 E9.72471
G1 X121.425 Y69.336 E9.79245
G1 X122.659 Y67.955 E9.86019
G1 X123.730 Y66.445 E9.92794
G1 X124.626 Y64.825 E9.99568
G1 X125.334 Y63.114 E10.06342
G1 X125.847 Y61.335 E10.13116
G1 X126.157 Y59.509 E10.19890
G1 X126.259 Y57.692 E10.26551
G1 X126.259 Y39.764 E10.92142
G1 X145.241 Y39.764 E11.61590
G1 X145.241 Y94.422 E13.61564
G1 X131.829 Y135.698 E15.20350
G1 X113.777 Y129.832 E15.89798
G1 X119.232 Y113.037 E16.54405
G1 X118.567 Y112.705 F9900.000
G1 X119.735 Y109.112 F630.000 E16.68227
G1 X119.942 Y107.627 E16.73714
G1 X119.971 Y105.980 E16.79740
G1 X119.787 Y104.341 E16.85773
G1 X119.394 Y102.740 E16.91805
