; generated by Slic3r 0.9.9-dev on 2013-09-16 at 19:57:46

; layer_height = 0.3
; perimeters = 2
; top_solid_layers = 4
; bottom_solid_layers = 4
; fill_density = 0.25
; perimeter_speed = 50
; infill_speed = 50
; travel_speed = 165
; nozzle_diameter = 0.5
; filament_diameter = 3.2
; extrusion_multiplier = 1
; perimeters extrusion width = 0.70mm
; infill extrusion width = 0.70mm
; solid infill extrusion width = 0.70mm
; top infill extrusion width = 0.70mm
; first layer extrusion width = 0.80mm

G21 ; set units to millimeters
M107
M190 S65 ; wait for bed temperature to be reached
M104 S185 ; set temperature
;G28 ; home all axes
;G1 Z5 F5000 ; lift nozzle
M109 S185 ; wait for temperature to be reached
G90 ; use absolute coordinates
G92 E0
M82 ; use absolute distances for extrusion
G1 F1800.000 E-1.00000
G1 Z0.700
G92 E0
G1 X88.205 Y60.820 F9900.000
G1 Z0.400
G1 F1800.000 E1.00000
G1 X88.595 Y60.300 F900.000 E1.02378
G1 X88.815 Y60.050 E1.03597
G1 X89.275 Y59.590 E1.05977
G1 X89.935 Y59.060 E1.09074
G1 X90.465 Y58.710 E1.11397
G1 X90.745 Y58.550 E1.12577
G1 X91.605 Y58.160 E1.16032
G1 X92.115 Y57.980 E1.18011
G1 X92.445 Y57.890 E1.19262
G1 X93.115 Y57.750 E1.21767
G1 X93.555 Y57.700 E1.23387
G1 X94.225 Y57.660 E1.25842
G1 X144.185 Y57.670 E3.08630
G1 X144.775 Y57.720 E3.10796
G1 X145.655 Y57.900 E3.14082
G1 X147.315 Y58.430 E3.20458
G1 X148.215 Y58.780 E3.23991
G1 X149.075 Y59.240 E3.27559
G1 X149.765 Y59.690 E3.30573
G1 X150.185 Y60.030 E3.32550
G1 X150.915 Y60.740 E3.36276
G1 X151.535 Y61.520 E3.39921
G1 X152.135 Y62.510 E3.44157
G1 X152.255 Y62.750 E3.45138
G1 X152.625 Y63.630 E3.48631
G1 X152.875 Y64.450 E3.51767
G1 X152.985 Y65.000 E3.53819
G1 X153.075 Y65.800 E3.56765
G1 X153.095 Y66.290 E3.58559
G1 X153.055 Y67.060 E3.61380
G1 X152.915 Y68.040 E3.65002
G1 X152.855 Y68.310 E3.66014
G1 X152.685 Y68.930 E3.68366
G1 X139.185 Y110.490 E5.28241
G1 X138.705 Y111.680 E5.32936
G1 X138.275 Y112.530 E5.36421
G1 X137.785 Y113.360 E5.39948
G1 X137.365 Y113.940 E5.42567
G1 X136.735 Y114.660 E5.46068
G1 X136.035 Y115.360 E5.49690
G1 X135.485 Y115.830 E5.52337
G1 X134.625 Y116.450 E5.56215
G1 X134.005 Y116.830 E5.58876
G1 X133.035 Y117.320 E5.62852
G1 X132.375 Y117.590 E5.65461
G1 X131.415 Y117.910 E5.69163
G1 X130.715 Y118.080 E5.71799
G1 X129.685 Y118.240 E5.75612
G1 X128.405 Y118.330 E5.80307
G1 X94.235 Y118.330 E7.05324
G1 X93.285 Y118.260 E7.08809
G1 X92.775 Y118.180 E7.10698
G1 X91.885 Y117.950 E7.14061
G1 X91.325 Y117.730 E7.16262
G1 X90.775 Y117.460 E7.18504
G1 X90.055 Y117.020 E7.21591
G1 X89.535 Y116.630 E7.23969
G1 X89.285 Y116.410 E7.25188
G1 X88.825 Y115.950 E7.27568
G1 X88.295 Y115.290 E7.30665
G1 X87.945 Y114.760 E7.32988
G1 X87.645 Y114.200 E7.35313
G1 X87.395 Y113.620 E7.37624
G1 X87.225 Y113.150 E7.39452
G1 X87.015 Y112.280 E7.42727
G1 X86.935 Y111.690 E7.44905
G1 X86.905 Y111.100 E7.47066
G1 X86.895 Y65.000 E9.15731
G1 X86.995 Y63.840 E9.19991
G1 X87.115 Y63.240 E9.22230
G1 X87.275 Y62.650 E9.24466
G1 X87.375 Y62.370 E9.25554
G1 X87.625 Y61.810 E9.27798
G1 X87.915 Y61.280 E9.30008
G1 X88.145 Y60.913 E9.31594
G1 F1800.000 E8.31594
G1 Z0.700
G92 E0
G1 X129.524 Y74.911 F9900.000
G1 Z0.400
G1 F1800.000 E1.00000
G1 X129.734 Y74.459 F540.000 E1.01822
G1 X130.020 Y74.051 E1.03645
G1 X130.372 Y73.699 E1.05467
G1 X130.780 Y73.413 E1.07290
G1 X131.232 Y73.203 E1.09112
G1 X131.713 Y73.074 E1.10935
G1 X132.209 Y73.031 E1.12757
G1 X132.705 Y73.074 E1.14580
G1 X133.186 Y73.203 E1.16402
G1 X133.638 Y73.413 E1.18224
G1 X134.046 Y73.699 E1.20047
G1 X134.398 Y74.051 E1.21869
G1 X134.684 Y74.459 E1.23692
G1 X134.894 Y74.911 E1.25514
G1 X135.023 Y75.392 E1.27337
G1 X135.067 Y75.888 E1.29159
G1 X135.023 Y76.384 E1.30982
G1 X134.894 Y76.866 E1.32804
G1 X134.684 Y77.317 E1.34626
G1 X134.618 Y77.410 E1.35043
G1 X134.398 Y77.725 E1.36449
G1 X134.046 Y78.077 E1.38272
G1 X133.638 Y78.363 E1.40094
G1 X133.186 Y78.574 E1.41916
G1 X132.705 Y78.702 E1.43739
G1 X132.209 Y78.746 E1.45561
G1 X131.713 Y78.702 E1.47384
G1 X131.232 Y78.574 E1.49206
G1 X130.780 Y78.363 E1.51029
G1 X130.372 Y78.077 E1.52851
G1 X130.020 Y77.725 E1.54674
G1 X129.734 Y77.317 E1.56496
G1 X129.524 Y76.866 E1.58319
G1 X129.395 Y76.384 E1.60141
G1 X129.351 Y75.888 E1.61964
G1 X129.395 Y75.392 E1.63786
G1 X129.495 Y75.017 E1.65205
G1 X130.218 Y75.163 F9900.000
G1 X130.374 Y74.829 F540.000 E1.66556
G1 X130.586 Y74.526 E1.67908
G1 X130.847 Y74.265 E1.69259
G1 X131.149 Y74.053 E1.70611
G1 X131.484 Y73.897 E1.71962
G1 X131.841 Y73.801 E1.73314
G1 X132.209 Y73.769 E1.74665
G1 X132.577 Y73.801 E1.76017
G1 X132.934 Y73.897 E1.77369
G1 X133.269 Y74.053 E1.78720
G1 X133.571 Y74.265 E1.80072
G1 X133.832 Y74.526 E1.81423
G1 X134.065 Y74.874 E1.82954
G1 X134.200 Y75.163 E1.84124
G1 X134.296 Y75.520 E1.85475
G1 X134.328 Y75.888 E1.86827
G1 X134.296 Y76.256 E1.88178
G1 X134.200 Y76.613 E1.89530
G1 X134.044 Y76.948 E1.90881
G1 X133.832 Y77.250 E1.92233
G1 X133.571 Y77.512 E1.93584
G1 X133.224 Y77.744 E1.95115
G1 X132.934 Y77.880 E1.96285
G1 X132.577 Y77.975 E1.97636
G1 X132.209 Y78.007 E1.98988
G1 X131.841 Y77.975 E2.00339
G1 X131.484 Y77.880 E2.01691
G1 X131.149 Y77.724 E2.03043
G1 X130.847 Y77.512 E2.04394
G1 X130.586 Y77.250 E2.05746
G1 X130.374 Y76.948 E2.07097
G1 X130.218 Y76.613 E2.08449
G1 X130.122 Y76.256 E2.09800
G1 X130.090 Y75.888 E2.11152
G1 X130.122 Y75.520 E2.12503
G1 X130.189 Y75.270 E2.13451
G1 X129.988 Y74.874 F9900.000
G1 X127.317 Y89.657
G1 X127.798 Y89.786 F540.000 E2.15273
G1 X128.249 Y89.997 E2.17096
G1 X128.658 Y90.283 E2.18919
G1 X129.010 Y90.635 E2.20741
G1 X129.295 Y91.043 E2.22563
G1 X129.506 Y91.494 E2.24386
G1 X129.635 Y91.976 E2.26209
G1 X129.678 Y92.472 E2.28031
G1 X129.635 Y92.968 E2.29853
G1 X129.506 Y93.449 E2.31675
G1 X129.295 Y93.901 E2.33498
G1 X129.010 Y94.309 E2.35321
G1 X128.657 Y94.661 E2.37143
G1 X128.249 Y94.946 E2.38966
G1 X127.798 Y95.157 E2.40788
G1 X127.317 Y95.286 E2.42611
G1 X126.821 Y95.329 E2.44433
G1 X126.324 Y95.286 E2.46256
G1 X125.843 Y95.157 E2.48078
G1 X125.392 Y94.946 E2.49900
G1 X124.984 Y94.661 E2.51723
G1 X124.632 Y94.309 E2.53545
G1 X124.346 Y93.901 E2.55368
G1 X124.135 Y93.449 E2.57190
G1 X124.006 Y92.968 E2.59013
G1 X123.996 Y92.854 E2.59430
G1 X123.963 Y92.472 E2.60835
G1 X124.006 Y91.976 E2.62657
G1 X124.135 Y91.494 E2.64480
G1 X124.346 Y91.043 E2.66302
G1 X124.632 Y90.635 E2.68125
G1 X124.984 Y90.283 E2.69948
G1 X125.392 Y89.997 E2.71770
G1 X125.843 Y89.786 E2.73592
G1 X126.324 Y89.657 E2.75415
G1 X126.821 Y89.614 E2.77237
G1 X127.207 Y89.648 E2.78656
G1 X127.189 Y90.385 F9900.000
G1 X127.545 Y90.480 F540.000 E2.80007
G1 X127.880 Y90.636 E2.81359
G1 X128.183 Y90.848 E2.82711
G1 X128.444 Y91.109 E2.84062
G1 X128.656 Y91.412 E2.85413
G1 X128.812 Y91.747 E2.86765
G1 X128.908 Y92.104 E2.88117
G1 X128.940 Y92.472 E2.89468
G1 X128.908 Y92.840 E2.90820
G1 X128.812 Y93.196 E2.92171
G1 X128.656 Y93.531 E2.93523
G1 X128.444 Y93.834 E2.94874
G1 X128.183 Y94.095 E2.96226
G1 X127.880 Y94.307 E2.97577
G1 X127.545 Y94.463 E2.98929
G1 X127.189 Y94.559 E3.00280
G1 X126.821 Y94.591 E3.01632
G1 X126.453 Y94.559 E3.02983
G1 X126.096 Y94.463 E3.04335
G1 X125.761 Y94.307 E3.05686
G1 X125.458 Y94.095 E3.07038
G1 X125.197 Y93.834 E3.08390
G1 X124.964 Y93.486 E3.09920
G1 X124.829 Y93.196 E3.11090
G1 X124.734 Y92.840 E3.12442
G1 X124.701 Y92.472 E3.13793
G1 X124.734 Y92.104 E3.15145
G1 X124.829 Y91.747 E3.16496
G1 X124.985 Y91.412 E3.17848
G1 X125.197 Y91.109 E3.19199
G1 X125.458 Y90.848 E3.20551
G1 X125.761 Y90.636 E3.21902
G1 X126.096 Y90.480 E3.23254
G1 X126.453 Y90.385 E3.24605
G1 X126.821 Y90.352 E3.25957
G1 X127.079 Y90.375 E3.26905
G1 X127.434 Y90.109 F9900.000
G1 X106.710 Y77.929
G1 X106.424 Y78.337 F540.000 E3.28727
G1 X106.072 Y78.689 E3.30550
G1 X105.664 Y78.975 E3.32372
G1 X105.212 Y79.185 E3.34195
G1 X104.731 Y79.314 E3.36017
G1 X104.235 Y79.358 E3.37840
G1 X103.739 Y79.314 E3.39662
G1 X103.258 Y79.185 E3.41484
G1 X102.806 Y78.975 E3.43307
G1 X102.398 Y78.689 E3.45129
G1 X102.046 Y78.337 E3.46952
G1 X101.760 Y77.929 E3.48774
G1 X101.550 Y77.477 E3.50597
G1 X101.421 Y76.996 E3.52419
G1 X101.377 Y76.500 E3.54242
G1 X101.421 Y76.004 E3.56064
G1 X101.550 Y75.523 E3.57886
G1 X101.760 Y75.071 E3.59709
G1 X102.046 Y74.663 E3.61532
G1 X102.398 Y74.311 E3.63354
G1 X102.806 Y74.025 E3.65177
G1 X103.258 Y73.815 E3.66999
G1 X103.739 Y73.686 E3.68821
G1 X104.235 Y73.642 E3.70644
G1 X104.731 Y73.686 E3.72466
G1 X105.212 Y73.815 E3.74289
G1 X105.664 Y74.025 E3.76111
G1 X106.072 Y74.311 E3.77934
G1 X106.424 Y74.663 E3.79756
G1 X106.710 Y75.071 E3.81579
G1 X106.920 Y75.523 E3.83401
G1 X107.049 Y76.004 E3.85223
G1 X107.093 Y76.500 E3.87046
G1 X107.049 Y76.996 E3.88868
G1 X106.920 Y77.477 E3.90691
G1 X106.756 Y77.829 E3.92109
G1 X106.070 Y77.560 F9900.000
G1 X105.858 Y77.862 F540.000 E3.93461
G1 X105.597 Y78.123 E3.94813
G1 X105.295 Y78.335 E3.96164
G1 X104.960 Y78.491 E3.97516
G1 X104.603 Y78.587 E3.98867
G1 X104.235 Y78.619 E4.00219
G1 X103.867 Y78.587 E4.01570
G1 X103.510 Y78.491 E4.02922
G1 X103.175 Y78.335 E4.04273
G1 X102.873 Y78.123 E4.05625
G1 X102.612 Y77.862 E4.06976
G1 X102.400 Y77.560 E4.08328
G1 X102.244 Y77.225 E4.09679
G1 X102.148 Y76.868 E4.11031
G1 X102.116 Y76.500 E4.12382
G1 X102.148 Y76.132 E4.13734
G1 X102.244 Y75.775 E4.15085
G1 X102.400 Y75.440 E4.16437
G1 X102.612 Y75.138 E4.17789
G1 X102.873 Y74.877 E4.19140
G1 X103.175 Y74.665 E4.20492
G1 X103.510 Y74.509 E4.21843
G1 X103.867 Y74.413 E4.23195
G1 X104.235 Y74.381 E4.24546
G1 X104.603 Y74.413 E4.25898
G1 X104.960 Y74.509 E4.27249
G1 X105.295 Y74.665 E4.28601
G1 X105.597 Y74.877 E4.29952
G1 X105.858 Y75.138 E4.31304
G1 X106.070 Y75.440 E4.32655
G1 X106.226 Y75.775 E4.34007
G1 X106.322 Y76.132 E4.35358
G1 X106.354 Y76.500 E4.36710
G1 X106.322 Y76.868 E4.38061
G1 X106.226 Y77.225 E4.39413
G1 X106.117 Y77.460 E4.40361
G1 X106.246 Y77.885 F9900.000
G1 X104.731 Y96.686
G1 X105.212 Y96.815 F540.000 E4.42183
G1 X105.664 Y97.025 E4.44005
G1 X105.757 Y97.091 E4.44422
G1 X106.072 Y97.311 E4.45828
G1 X106.424 Y97.663 E4.47650
G1 X106.710 Y98.071 E4.49473
G1 X106.920 Y98.523 E4.51295
G1 X107.049 Y99.004 E4.53118
G1 X107.093 Y99.500 E4.54940
G1 X107.049 Y99.996 E4.56763
G1 X106.920 Y100.477 E4.58585
G1 X106.710 Y100.929 E4.60408
G1 X106.644 Y101.022 E4.60825
G1 X106.424 Y101.337 E4.62230
G1 X106.072 Y101.689 E4.64052
G1 X105.664 Y101.975 E4.65875
G1 X105.212 Y102.185 E4.67697
G1 X104.731 Y102.314 E4.69520
G1 X104.235 Y102.358 E4.71342
G1 X103.739 Y102.314 E4.73165
G1 X103.258 Y102.185 E4.74987
G1 X102.806 Y101.975 E4.76810
G1 X102.713 Y101.909 E4.77227
G1 X102.398 Y101.689 E4.78632
G1 X102.046 Y101.337 E4.80454
G1 X101.760 Y100.929 E4.82277
G1 X101.550 Y100.477 E4.84099
G1 X101.421 Y99.996 E4.85922
G1 X101.377 Y99.500 E4.87745
G1 X101.421 Y99.004 E4.89567
G1 X101.550 Y98.523 E4.91389
G1 X101.760 Y98.071 E4.93212
G1 X102.046 Y97.663 E4.95034
G1 X102.398 Y97.311 E4.96856
G1 X102.806 Y97.025 E4.98679
G1 X103.258 Y96.815 E5.00502
G1 X103.739 Y96.686 E5.02324
G1 X104.235 Y96.642 E5.04147
G1 X104.621 Y96.676 E5.05565
G1 X104.603 Y97.413 F9900.000
G1 X104.960 Y97.509 F540.000 E5.06917
G1 X105.335 Y97.693 E5.08447
G1 X105.597 Y97.877 E5.09617
G1 X105.858 Y98.138 E5.10969
G1 X106.070 Y98.440 E5.12321
G1 X106.226 Y98.775 E5.13672
G1 X106.322 Y99.132 E5.15024
G1 X106.354 Y99.500 E5.16375
G1 X106.322 Y99.868 E5.17727
G1 X106.226 Y100.225 E5.19078
G1 X106.042 Y100.600 E5.20609
G1 X105.858 Y100.862 E5.21779
G1 X105.597 Y101.123 E5.23130
G1 X105.295 Y101.335 E5.24482
G1 X104.960 Y101.491 E5.25833
G1 X104.603 Y101.587 E5.27185
G1 X104.235 Y101.619 E5.28536
G1 X103.867 Y101.587 E5.29888
G1 X103.510 Y101.491 E5.31240
G1 X103.135 Y101.307 E5.32770
G1 X102.873 Y101.123 E5.33940
G1 X102.612 Y100.862 E5.35292
G1 X102.400 Y100.560 E5.36643
G1 X102.244 Y100.225 E5.37995
G1 X102.148 Y99.868 E5.39346
G1 X102.116 Y99.500 E5.40698
G1 X102.148 Y99.132 E5.42049
G1 X102.244 Y98.775 E5.43401
G1 X102.400 Y98.440 E5.44752
G1 X102.612 Y98.138 E5.46104
G1 X102.873 Y97.877 E5.47455
G1 X103.175 Y97.665 E5.48807
G1 X103.510 Y97.509 E5.50158
G1 X103.867 Y97.413 E5.51510
G1 X104.235 Y97.381 E5.52862
G1 X104.493 Y97.403 E5.53809
G1 X104.849 Y97.137 F9900.000
G1 X104.214 Y97.209
G1 X102.510 Y97.995
G1 X101.952 Y99.498
G1 X101.422 Y111.099
G1 X101.406 Y110.496
G1 X94.740 Y110.495 F900.000 E5.78197
G1 X94.740 Y65.505 E7.42800
G1 X143.719 Y65.509 E9.21997
G1 X144.872 Y65.884 E9.26433
G1 X144.995 Y65.936 E9.26920
G1 X145.128 Y66.040 E9.27538
G1 X145.179 Y66.108 E9.27849
G1 X145.242 Y66.264 E9.28467
G1 X145.248 Y66.433 E9.29085
G1 X145.218 Y66.563 E9.29573
G1 X131.742 Y108.037 E10.89123
G1 X131.516 Y108.583 E10.91284
G1 X131.230 Y109.050 E10.93286
G1 X130.875 Y109.466 E10.95288
G1 X130.459 Y109.821 E10.97291
G1 X129.992 Y110.107 E10.99293
G1 X129.487 Y110.317 E11.01295
G1 X128.954 Y110.445 E11.03297
G1 X128.365 Y110.491 E11.05459
G1 X101.516 Y110.496 E12.03692
G1 X101.406 Y111.232 F9900.000
G1 X94.251 Y111.231 F630.000 E12.29868
G1 X94.157 Y111.215 E12.30218
G1 X94.088 Y111.176 E12.30509
G1 X94.037 Y111.115 E12.30800
G1 X94.009 Y111.040 E12.31092
G1 X94.005 Y65.016 E13.99477
G1 X94.020 Y64.922 E13.99827
G1 X94.060 Y64.853 E14.00118
G1 X94.157 Y64.785 E14.00552
G1 X94.251 Y64.769 E14.00902
G1 X143.835 Y64.774 E15.82314
G1 X145.130 Y65.194 E15.87294
G1 X145.341 Y65.284 E15.88135
G1 X145.520 Y65.400 E15.88916
G1 X145.677 Y65.546 E15.89697
G1 X145.805 Y65.716 E15.90478
G1 X145.902 Y65.907 E15.91260
G1 X145.964 Y66.111 E15.92041
G1 X145.990 Y66.323 E15.92822
G1 X145.979 Y66.536 E15.93604
G1 X145.928 Y66.760 E15.94444
G1 X132.433 Y108.292 E17.54217
G1 X132.174 Y108.918 E17.56696
G1 X131.827 Y109.484 E17.59122
G1 X131.397 Y109.988 E17.61548
G1 X130.892 Y110.418 E17.63973
G1 X130.327 Y110.765 E17.66399
G1 X129.715 Y111.019 E17.68825
G1 X129.070 Y111.173 E17.71251
G1 X128.394 Y111.226 E17.73730
G1 X101.516 Y111.231 E18.72069
G1 X101.038 Y110.594 F9900.000
G1 X95.274 Y109.962
G1 X95.273 Y108.917 F900.000 E18.75910
G1 X96.319 Y109.962 E18.81344
G1 X97.364 Y109.962 E18.85185
G1 X95.273 Y107.872 E18.96051
G1 X95.273 Y106.827 E18.99891
G1 X98.409 Y109.962 E19.16190
G1 X99.454 Y109.962 E19.20031
G1 X95.273 Y105.782 E19.41762
G1 X95.273 Y104.736 E19.45602
G1 X100.499 Y109.963 E19.72765
G1 X101.545 Y109.963 E19.76607
G1 X95.273 Y103.691 E20.09202
G1 X95.273 Y102.646 E20.13043
G1 X102.589 Y109.962 E20.51068
G1 X103.634 Y109.962 E20.54908
G1 X95.273 Y101.601 E20.98365
G1 X95.273 Y100.556 E21.02206
G1 X104.679 Y109.962 E21.51093
G1 X105.724 Y109.962 E21.54933
G1 X95.273 Y99.511 E22.09251
G1 X95.273 Y98.466 E22.13091
G1 X106.769 Y109.962 E22.72840
G1 X107.814 Y109.961 E22.76680
G1 X95.273 Y97.421 E23.41859
G1 X95.273 Y96.376 E23.45700
G1 X108.858 Y109.961 E24.16309
G1 X109.903 Y109.961 E24.20150
G1 X95.273 Y95.331 E24.96190
G1 X95.273 Y94.286 E25.00031
G1 X100.876 Y99.889 E25.29152
G1 X100.904 Y98.872 E25.32891
G1 X95.273 Y93.241 E25.62158
G1 X95.273 Y92.196 E25.65999
G1 X101.164 Y98.087 E25.96618
G1 X101.556 Y97.434 E25.99418
G1 X95.273 Y91.151 E26.32072
G1 X95.273 Y90.106 E26.35913
G1 X102.062 Y96.895 E26.71200
G1 X102.699 Y96.487 E26.73980
G1 X95.273 Y89.061 E27.12576
G1 X95.273 Y88.016 E27.16417
G1 X103.465 Y96.207 E27.58992
G1 X104.426 Y96.124 E27.62540
G1 X95.273 Y86.971 E28.10113
G1 X95.273 Y85.926 E28.13954
G1 X105.890 Y96.542 E28.69133
G1 X107.193 Y97.845 F9900.000
G1 X119.307 Y109.959 F900.000 E29.32096
G1 X120.352 Y109.959 E29.35936
G1 X95.273 Y84.881 E30.66283
G1 X95.273 Y83.836 E30.70124
G1 X121.397 Y109.959 E32.05901
G1 X122.441 Y109.959 E32.09741
G1 X95.273 Y82.791 E33.50949
G1 X95.273 Y81.746 E33.54790
G1 X123.486 Y109.959 E35.01429
G1 X124.531 Y109.958 E35.05269
G1 X95.273 Y80.701 E36.57338
G1 X95.273 Y79.656 E36.61179
G1 X125.576 Y109.958 E38.18679
G1 X126.621 Y109.958 E38.22519
G1 X95.273 Y78.611 E39.85450
G1 X95.273 Y77.566 E39.89291
G1 X127.666 Y109.958 E41.57652
G1 X128.684 Y109.931 E41.61395
G1 X95.273 Y76.521 E43.35049
G1 X95.273 Y75.475 E43.38889
G1 X129.523 Y109.725 E45.16903
G1 X130.191 Y109.349 E45.19723
G1 X95.273 Y74.430 E47.01212
G1 X95.273 Y73.385 E47.05053
G1 X130.717 Y108.829 E48.89276
