; generated by Slic3r 0.9.9-dev on 2013-09-14 at 16:38:45

; layer_height = 0.3
; perimeters = 2
; top_solid_layers = 4
; bottom_solid_layers = 4
; fill_density = 0.25
; perimeter_speed = 50
; infill_speed = 50
; travel_speed = 165
; nozzle_diameter = 0.5
; filament_diameter = 3.2
; extrusion_multiplier = 1
; perimeters extrusion width = 0.70mm
; infill extrusion width = 0.70mm
; solid infill extrusion width = 0.70mm
; top infill extrusion width = 0.70mm
; first layer extrusion width = 0.80mm

G21 ; set units to millimeters
M107
M190 S65 ; wait for bed temperature to be reached
M104 S185 ; set temperature
;G28 ; home all axes
;G1 Z5 F5000 ; lift nozzle
M109 S185 ; wait for temperature to be reached
G90 ; use absolute coordinates
G92 E0
M82 ; use absolute distances for extrusion
G1 F1800.000 E-1.00000
G1 Z0.700
G92 E0
G1 X88.215 Y60.810 F9900.000
G1 Z0.400
G1 F1800.000 E1.00000
G1 X88.395 Y60.550 F900.000 E1.01157
G1 X88.795 Y60.070 E1.03443
G1 X89.305 Y59.560 E1.06082
G1 X89.785 Y59.160 E1.08368
G1 X90.045 Y58.980 E1.09525
G1 X90.575 Y58.650 E1.11809
G1 X91.015 Y58.410 E1.13643
G1 X91.565 Y58.170 E1.15838
G1 X92.415 Y57.900 E1.19101
G1 X93.425 Y57.710 E1.22861
G1 X94.225 Y57.660 E1.25794
G1 X128.405 Y57.660 E2.50847
G1 X128.965 Y57.690 E2.52899
G1 X129.685 Y57.750 E2.55543
G1 X130.715 Y57.910 E2.59356
G1 X131.415 Y58.080 E2.61992
G1 X132.375 Y58.400 E2.65694
G1 X133.035 Y58.670 E2.68303
G1 X134.005 Y59.160 E2.72279
G1 X134.625 Y59.540 E2.74939
G1 X135.485 Y60.160 E2.78818
G1 X136.035 Y60.630 E2.81465
G1 X136.735 Y61.330 E2.85087
G1 X137.365 Y62.050 E2.88587
G1 X137.785 Y62.630 E2.91207
G1 X138.275 Y63.460 E2.94734
G1 X138.705 Y64.310 E2.98219
G1 X139.185 Y65.500 E3.02914
G1 X152.685 Y107.060 E4.62789
G1 X152.855 Y107.680 E4.65141
G1 X152.915 Y107.950 E4.66153
G1 X153.055 Y108.910 E4.69702
G1 X153.095 Y109.670 E4.72487
G1 X153.075 Y110.160 E4.74281
G1 X153.025 Y110.680 E4.76192
G1 X152.935 Y111.250 E4.78304
G1 X152.805 Y111.810 E4.80407
G1 X152.625 Y112.360 E4.82524
G1 X152.245 Y113.270 E4.86132
G1 X151.675 Y114.260 E4.90312
G1 X151.305 Y114.780 E4.92647
G1 X150.965 Y115.200 E4.94624
G1 X150.185 Y115.960 E4.98608
G1 X149.765 Y116.300 E5.00585
G1 X149.075 Y116.750 E5.03599
G1 X148.215 Y117.210 E5.07168
G1 X147.315 Y117.560 E5.10701
G1 X145.655 Y118.090 E5.17076
G1 X144.775 Y118.270 E5.20362
G1 X143.885 Y118.330 E5.23626
G1 X94.235 Y118.330 E7.05279
G1 X93.725 Y118.310 E7.07146
G1 X92.975 Y118.210 E7.09915
G1 X92.165 Y118.020 E7.12959
G1 X91.585 Y117.830 E7.15192
G1 X91.025 Y117.580 E7.17435
G1 X90.305 Y117.180 E7.20449
G1 X89.785 Y116.830 E7.22742
G1 X89.305 Y116.430 E7.25028
G1 X88.785 Y115.900 E7.27745
G1 X88.365 Y115.390 E7.30162
G1 X87.905 Y114.700 E7.33196
G1 X87.485 Y113.860 E7.36632
G1 X87.365 Y113.560 E7.37814
G1 X87.175 Y112.970 E7.40082
G1 X86.995 Y112.150 E7.43153
G1 X86.925 Y111.580 E7.45255
G1 X86.895 Y111.000 E7.47379
G1 X86.895 Y64.990 E9.15715
G1 X86.945 Y64.190 E9.18647
G1 X87.135 Y63.180 E9.22408
G1 X87.215 Y62.890 E9.23508
G1 X87.405 Y62.330 E9.25672
G1 X87.645 Y61.780 E9.27867
G1 X87.885 Y61.340 E9.29701
G1 X88.155 Y60.902 E9.31582
G1 F1800.000 E8.31582
G1 Z0.700
G92 E0
G1 X103.258 Y96.815 F9900.000
G1 Z0.400
G1 F1800.000 E1.00000
G1 X103.739 Y96.686 F540.000 E1.01822
G1 X104.235 Y96.642 E1.03645
G1 X104.731 Y96.686 E1.05468
G1 X105.212 Y96.815 E1.07290
G1 X105.664 Y97.025 E1.09112
G1 X106.072 Y97.311 E1.10935
G1 X106.152 Y97.391 E1.11352
G1 X106.424 Y97.663 E1.12757
G1 X106.710 Y98.071 E1.14580
G1 X106.920 Y98.523 E1.16402
G1 X107.049 Y99.004 E1.18225
G1 X107.093 Y99.500 E1.20047
G1 X107.049 Y99.996 E1.21870
G1 X106.920 Y100.477 E1.23692
G1 X106.710 Y100.929 E1.25515
G1 X106.424 Y101.337 E1.27337
G1 X106.072 Y101.689 E1.29159
G1 X105.664 Y101.975 E1.30982
G1 X105.212 Y102.185 E1.32805
G1 X104.731 Y102.314 E1.34627
G1 X104.235 Y102.358 E1.36449
G1 X103.739 Y102.314 E1.38272
G1 X103.258 Y102.185 E1.40094
G1 X102.806 Y101.975 E1.41916
G1 X102.398 Y101.689 E1.43739
G1 X102.046 Y101.337 E1.45561
G1 X101.760 Y100.929 E1.47384
G1 X101.550 Y100.477 E1.49206
G1 X101.421 Y99.996 E1.51029
G1 X101.377 Y99.500 E1.52851
G1 X101.421 Y99.004 E1.54674
G1 X101.550 Y98.523 E1.56496
G1 X101.760 Y98.071 E1.58319
G1 X102.046 Y97.663 E1.60141
G1 X102.398 Y97.311 E1.61963
G1 X102.806 Y97.025 E1.63786
G1 X103.158 Y96.861 E1.65205
G1 X103.510 Y97.509 F9900.000
G1 X103.867 Y97.413 F540.000 E1.66556
G1 X104.235 Y97.381 E1.67908
G1 X104.603 Y97.413 E1.69259
G1 X104.960 Y97.509 E1.70611
G1 X105.295 Y97.665 E1.71962
G1 X105.632 Y97.912 E1.73493
G1 X105.858 Y98.138 E1.74663
G1 X106.070 Y98.440 E1.76014
G1 X106.226 Y98.775 E1.77366
G1 X106.322 Y99.132 E1.78718
G1 X106.354 Y99.500 E1.80069
G1 X106.322 Y99.868 E1.81421
G1 X106.226 Y100.225 E1.82772
G1 X106.070 Y100.560 E1.84124
G1 X105.858 Y100.862 E1.85475
G1 X105.597 Y101.123 E1.86827
G1 X105.295 Y101.335 E1.88178
G1 X104.960 Y101.491 E1.89530
G1 X104.603 Y101.587 E1.90881
G1 X104.235 Y101.619 E1.92233
G1 X103.867 Y101.587 E1.93584
G1 X103.510 Y101.491 E1.94936
G1 X103.175 Y101.335 E1.96287
G1 X102.873 Y101.123 E1.97639
G1 X102.612 Y100.862 E1.98990
G1 X102.400 Y100.560 E2.00342
G1 X102.244 Y100.225 E2.01694
G1 X102.148 Y99.868 E2.03045
G1 X102.116 Y99.500 E2.04397
G1 X102.148 Y99.132 E2.05748
G1 X102.244 Y98.775 E2.07100
G1 X102.400 Y98.440 E2.08451
G1 X102.612 Y98.138 E2.09802
G1 X102.873 Y97.877 E2.11154
G1 X103.175 Y97.665 E2.12506
G1 X103.410 Y97.555 E2.13453
G1 X103.585 Y97.147 F9900.000
G1 X104.235 Y79.358
G1 X103.739 Y79.314 F540.000 E2.15276
G1 X103.258 Y79.185 E2.17098
G1 X102.806 Y78.975 E2.18921
G1 X102.398 Y78.689 E2.20743
G1 X102.046 Y78.337 E2.22566
G1 X101.760 Y77.929 E2.24388
G1 X101.550 Y77.477 E2.26211
G1 X101.421 Y76.996 E2.28033
G1 X101.377 Y76.500 E2.29856
G1 X101.421 Y76.004 E2.31678
G1 X101.550 Y75.523 E2.33500
G1 X101.598 Y75.419 E2.33917
G1 X101.760 Y75.071 E2.35323
G1 X102.046 Y74.663 E2.37145
G1 X102.398 Y74.311 E2.38968
G1 X102.806 Y74.025 E2.40790
G1 X103.258 Y73.815 E2.42613
G1 X103.739 Y73.686 E2.44435
G1 X104.235 Y73.642 E2.46258
G1 X104.731 Y73.686 E2.48080
G1 X104.841 Y73.715 E2.48497
G1 X105.212 Y73.815 E2.49903
G1 X105.664 Y74.025 E2.51725
G1 X106.072 Y74.311 E2.53548
G1 X106.424 Y74.663 E2.55370
G1 X106.710 Y75.071 E2.57193
G1 X106.920 Y75.523 E2.59015
G1 X107.049 Y76.004 E2.60837
G1 X107.093 Y76.500 E2.62660
G1 X107.049 Y76.996 E2.64482
G1 X106.920 Y77.477 E2.66305
G1 X106.710 Y77.929 E2.68127
G1 X106.424 Y78.337 E2.69950
G1 X106.072 Y78.689 E2.71772
G1 X105.664 Y78.975 E2.73595
G1 X105.212 Y79.185 E2.75417
G1 X104.731 Y79.314 E2.77239
G1 X104.345 Y79.348 E2.78658
G1 X104.235 Y78.619 F9900.000
G1 X103.867 Y78.587 F540.000 E2.80010
G1 X103.510 Y78.491 E2.81361
G1 X103.175 Y78.335 E2.82713
G1 X102.873 Y78.123 E2.84064
G1 X102.612 Y77.862 E2.85416
G1 X102.400 Y77.560 E2.86767
G1 X102.244 Y77.225 E2.88119
G1 X102.148 Y76.868 E2.89470
G1 X102.116 Y76.500 E2.90822
G1 X102.148 Y76.132 E2.92174
G1 X102.265 Y75.730 E2.93704
G1 X102.400 Y75.440 E2.94874
G1 X102.612 Y75.138 E2.96226
G1 X102.873 Y74.877 E2.97577
G1 X103.175 Y74.665 E2.98929
G1 X103.510 Y74.509 E3.00280
G1 X103.867 Y74.413 E3.01632
G1 X104.235 Y74.381 E3.02983
G1 X104.603 Y74.413 E3.04335
G1 X104.960 Y74.509 E3.05686
G1 X105.295 Y74.665 E3.07038
G1 X105.597 Y74.877 E3.08389
G1 X105.858 Y75.138 E3.09741
G1 X106.070 Y75.440 E3.11092
G1 X106.226 Y75.775 E3.12444
G1 X106.322 Y76.132 E3.13795
G1 X106.354 Y76.500 E3.15147
G1 X106.322 Y76.868 E3.16498
G1 X106.226 Y77.225 E3.17850
G1 X106.070 Y77.560 E3.19202
G1 X105.858 Y77.862 E3.20553
G1 X105.597 Y78.123 E3.21905
G1 X105.295 Y78.335 E3.23256
G1 X104.960 Y78.491 E3.24608
G1 X104.603 Y78.587 E3.25959
G1 X104.345 Y78.610 E3.26907
G1 X104.041 Y78.934 F9900.000
G1 X124.006 Y83.032
G1 X124.135 Y82.551 F540.000 E3.28730
G1 X124.346 Y82.100 E3.30552
G1 X124.632 Y81.691 E3.32375
G1 X124.984 Y81.339 E3.34197
G1 X125.392 Y81.054 E3.36019
G1 X125.843 Y80.843 E3.37842
G1 X125.953 Y80.814 E3.38259
G1 X126.324 Y80.714 E3.39665
G1 X126.821 Y80.671 E3.41487
G1 X127.317 Y80.714 E3.43309
G1 X127.798 Y80.843 E3.45132
G1 X128.249 Y81.054 E3.46954
G1 X128.658 Y81.339 E3.48777
G1 X129.010 Y81.692 E3.50600
G1 X129.295 Y82.099 E3.52421
G1 X129.506 Y82.551 E3.54244
G1 X129.635 Y83.032 E3.56067
G1 X129.678 Y83.528 E3.57889
G1 X129.635 Y84.025 E3.59712
G1 X129.506 Y84.506 E3.61534
G1 X129.295 Y84.957 E3.63357
G1 X129.010 Y85.365 E3.65179
G1 X128.657 Y85.717 E3.67002
G1 X128.249 Y86.003 E3.68824
G1 X127.798 Y86.214 E3.70646
G1 X127.317 Y86.343 E3.72469
G1 X126.821 Y86.386 E3.74291
G1 X126.324 Y86.343 E3.76114
G1 X125.843 Y86.214 E3.77936
G1 X125.392 Y86.003 E3.79759
G1 X124.984 Y85.717 E3.81581
G1 X124.632 Y85.365 E3.83403
G1 X124.346 Y84.957 E3.85226
G1 X124.135 Y84.506 E3.87048
G1 X124.006 Y84.025 E3.88871
G1 X123.963 Y83.528 E3.90693
G1 X123.997 Y83.142 E3.92112
G1 X124.734 Y83.160 F9900.000
G1 X124.829 Y82.803 F540.000 E3.93464
G1 X124.985 Y82.469 E3.94815
G1 X125.197 Y82.166 E3.96166
G1 X125.458 Y81.905 E3.97518
G1 X125.761 Y81.693 E3.98869
G1 X126.096 Y81.537 E4.00221
G1 X126.453 Y81.441 E4.01573
G1 X126.821 Y81.409 E4.02924
G1 X127.189 Y81.441 E4.04276
G1 X127.545 Y81.537 E4.05627
G1 X127.880 Y81.693 E4.06979
G1 X128.183 Y81.905 E4.08330
G1 X128.444 Y82.166 E4.09682
G1 X128.656 Y82.469 E4.11033
G1 X128.812 Y82.804 E4.12385
G1 X128.908 Y83.160 E4.13736
G1 X128.940 Y83.528 E4.15088
G1 X128.908 Y83.896 E4.16439
G1 X128.812 Y84.253 E4.17791
G1 X128.656 Y84.588 E4.19142
G1 X128.444 Y84.891 E4.20494
G1 X128.183 Y85.152 E4.21846
G1 X127.880 Y85.364 E4.23197
G1 X127.545 Y85.520 E4.24549
G1 X127.189 Y85.615 E4.25900
G1 X126.821 Y85.648 E4.27252
G1 X126.453 Y85.615 E4.28603
G1 X126.096 Y85.520 E4.29955
G1 X125.761 Y85.364 E4.31306
G1 X125.458 Y85.152 E4.32658
G1 X125.197 Y84.891 E4.34009
G1 X124.985 Y84.588 E4.35361
G1 X124.829 Y84.253 E4.36712
G1 X124.734 Y83.896 E4.38064
G1 X124.701 Y83.528 E4.39415
G1 X124.724 Y83.270 E4.40363
G1 X124.458 Y82.915 F9900.000
G1 X131.232 Y97.426
G1 X131.713 Y97.298 F540.000 E4.42186
G1 X132.209 Y97.254 E4.44008
G1 X132.705 Y97.298 E4.45830
G1 X133.186 Y97.426 E4.47653
G1 X133.290 Y97.475 E4.48070
G1 X133.638 Y97.637 E4.49475
G1 X134.046 Y97.923 E4.51298
G1 X134.398 Y98.275 E4.53120
G1 X134.684 Y98.683 E4.54943
G1 X134.894 Y99.134 E4.56765
G1 X135.023 Y99.616 E4.58587
G1 X135.067 Y100.112 E4.60410
G1 X135.023 Y100.608 E4.62232
G1 X134.894 Y101.089 E4.64055
G1 X134.684 Y101.541 E4.65877
G1 X134.618 Y101.634 E4.66294
G1 X134.398 Y101.949 E4.67700
G1 X134.046 Y102.301 E4.69522
G1 X133.638 Y102.587 E4.71345
G1 X133.186 Y102.797 E4.73167
G1 X132.705 Y102.926 E4.74990
G1 X132.209 Y102.969 E4.76812
G1 X131.713 Y102.926 E4.78634
G1 X131.232 Y102.797 E4.80457
G1 X130.780 Y102.587 E4.82280
G1 X130.372 Y102.301 E4.84102
G1 X130.020 Y101.949 E4.85925
G1 X129.734 Y101.541 E4.87747
G1 X129.524 Y101.089 E4.89570
G1 X129.395 Y100.608 E4.91392
G1 X129.351 Y100.112 E4.93214
G1 X129.395 Y99.616 E4.95036
G1 X129.524 Y99.134 E4.96859
G1 X129.734 Y98.683 E4.98681
G1 X130.020 Y98.275 E5.00504
G1 X130.372 Y97.923 E5.02326
G1 X130.780 Y97.637 E5.04149
G1 X131.132 Y97.473 E5.05568
G1 X131.484 Y98.120 F9900.000
G1 X131.841 Y98.025 F540.000 E5.06919
G1 X132.209 Y97.993 E5.08271
G1 X132.577 Y98.025 E5.09622
G1 X132.979 Y98.141 E5.11153
G1 X133.269 Y98.276 E5.12323
G1 X133.571 Y98.488 E5.13675
G1 X133.832 Y98.750 E5.15026
G1 X134.044 Y99.052 E5.16378
G1 X134.200 Y99.387 E5.17729
G1 X134.296 Y99.744 E5.19081
G1 X134.328 Y100.112 E5.20432
G1 X134.296 Y100.480 E5.21784
G1 X134.200 Y100.837 E5.23135
G1 X134.016 Y101.212 E5.24666
G1 X133.832 Y101.474 E5.25836
G1 X133.571 Y101.735 E5.27187
G1 X133.269 Y101.947 E5.28539
G1 X132.934 Y102.103 E5.29890
G1 X132.577 Y102.199 E5.31242
G1 X132.209 Y102.231 E5.32593
G1 X131.841 Y102.199 E5.33945
G1 X131.484 Y102.103 E5.35297
G1 X131.149 Y101.947 E5.36648
G1 X130.847 Y101.735 E5.37999
G1 X130.586 Y101.474 E5.39351
G1 X130.374 Y101.171 E5.40703
G1 X130.218 Y100.837 E5.42054
G1 X130.122 Y100.480 E5.43406
G1 X130.090 Y100.112 E5.44757
G1 X130.122 Y99.744 E5.46109
G1 X130.218 Y99.387 E5.47460
G1 X130.374 Y99.052 E5.48812
G1 X130.586 Y98.750 E5.50163
G1 X130.847 Y98.488 E5.51515
G1 X131.149 Y98.276 E5.52866
G1 X131.384 Y98.167 E5.53814
G1 X131.559 Y97.759 F9900.000
G1 X140.646 Y95.367
G1 X145.218 Y109.437 F900.000 E6.07942
G1 X145.253 Y109.651 E6.08736
G1 X145.217 Y109.817 E6.09355
G1 X145.128 Y109.960 E6.09973
G1 X145.066 Y110.018 E6.10284
G1 X144.872 Y110.116 E6.11078
G1 X143.719 Y110.491 E6.15514
G1 X94.744 Y110.491 E7.94696
G1 X94.744 Y65.509 E9.59270
G1 X128.366 Y65.509 E10.82279
G1 X128.954 Y65.555 E10.84440
G1 X129.487 Y65.683 E10.86443
G1 X129.992 Y65.893 E10.88445
G1 X130.459 Y66.179 E10.90447
G1 X130.875 Y66.534 E10.92449
G1 X131.230 Y66.950 E10.94451
G1 X131.516 Y67.417 E10.96453
G1 X131.742 Y67.962 E10.98615
G1 X140.612 Y95.262 E12.03634
G1 X141.346 Y95.139 F9900.000
G1 X145.928 Y109.240 F630.000 E12.57879
G1 X145.979 Y109.464 E12.58719
G1 X145.990 Y109.677 E12.59500
G1 X145.964 Y109.889 E12.60281
G1 X145.902 Y110.093 E12.61063
G1 X145.805 Y110.284 E12.61844
G1 X145.711 Y110.409 E12.62418
G1 X145.520 Y110.600 E12.63404
G1 X145.341 Y110.716 E12.64185
G1 X145.130 Y110.806 E12.65026
G1 X143.835 Y111.226 E12.70006
G1 X94.251 Y111.226 E14.51418
G1 X94.123 Y111.195 E14.51902
G1 X94.040 Y111.113 E14.52328
G1 X94.009 Y110.984 E14.52813
G1 X94.009 Y65.016 E16.20994
G1 X94.040 Y64.887 E16.21479
G1 X94.123 Y64.805 E16.21905
G1 X94.251 Y64.774 E16.22389
G1 X128.394 Y64.774 E17.47309
G1 X129.070 Y64.827 E17.49788
G1 X129.715 Y64.981 E17.52213
G1 X130.327 Y65.235 E17.54639
G1 X130.892 Y65.582 E17.57065
G1 X131.397 Y66.012 E17.59491
G1 X131.827 Y66.516 E17.61917
G1 X132.174 Y67.082 E17.64342
G1 X132.433 Y67.708 E17.66821
G1 X141.312 Y95.034 E18.71946
G1 X140.854 Y95.686 F9900.000
G1 X131.535 Y103.430
G1 X138.062 Y109.957 F900.000 E19.05821
G1 X139.105 Y109.957 E19.09651
G1 X132.617 Y103.469 E19.43325
G1 X133.453 Y103.261 E19.46486
G1 X140.149 Y109.957 E19.81239
G1 X141.192 Y109.957 E19.85069
G1 X134.129 Y102.894 E20.21729
G1 X134.690 Y102.411 E20.24445
G1 X142.236 Y109.957 E20.63611
G1 X143.279 Y109.957 E20.67441
G1 X135.140 Y101.818 E21.09684
G1 X135.448 Y101.082 E21.12610
G1 X144.154 Y109.789 E21.57796
G1 X144.567 Y109.158 E21.60563
G1 X135.595 Y100.186 E22.07125
G1 X135.391 Y98.938 E22.11765
G1 X144.064 Y107.612 E22.56779
G1 X143.562 Y106.066 E22.62744
G1 X103.539 Y66.042 E24.70470
G1 X102.495 Y66.042 E24.74299
G1 X133.382 Y96.930 E26.34606
G1 X132.135 Y96.725 E26.39246
G1 X101.452 Y66.042 E27.98493
G1 X100.408 Y66.042 E28.02323
G1 X131.238 Y96.873 E29.62335
G1 X130.503 Y97.180 E29.65262
G1 X99.364 Y66.042 E31.26870
G1 X104.582 Y66.042 F9900.000
G1 X124.157 Y85.618 F900.000 E32.28468
G1 X124.731 Y86.192 F9900.000
G1 X143.060 Y104.520 F900.000 E33.23595
G1 X142.558 Y102.974 E33.29560
G1 X126.474 Y86.891 E34.13034
G1 X127.478 Y86.851 E34.16721
G1 X142.055 Y101.429 E34.92378
G1 X141.553 Y99.883 E34.98343
G1 X128.258 Y86.588 E35.67347
G1 X128.907 Y86.193 E35.70135
G1 X141.051 Y98.337 E36.33161
G1 X140.549 Y96.791 E36.39126
G1 X129.439 Y85.682 E36.96786
G1 X129.844 Y85.043 E36.99561
G1 X140.046 Y95.245 E37.52513
G1 X139.544 Y93.700 E37.58478
G1 X130.120 Y84.275 E38.07392
G1 X130.194 Y83.306 E38.10959
G1 X139.042 Y92.154 E38.56880
G1 X138.540 Y90.608 E38.62844
G1 X129.749 Y81.817 E39.08470
G1 X128.532 Y80.600 F9900.000
G1 X113.974 Y66.042 F900.000 E39.84027
G1 X112.930 Y66.042 E39.87857
G1 X127.043 Y80.155 E40.61102
G1 X126.074 Y80.229 E40.64669
G1 X111.887 Y66.042 E41.38300
G1 X110.843 Y66.042 E41.42130
G1 X125.306 Y80.505 E42.17193
G1 X124.667 Y80.910 E42.19968
G1 X109.800 Y66.042 E42.97132
G1 X108.756 Y66.042 E43.00962
G1 X124.156 Y81.442 E43.80885
G1 X123.761 Y82.091 E43.83673
G1 X107.713 Y66.042 E44.66967
G1 X106.669 Y66.042 E44.70797
G1 X123.498 Y82.871 E45.58138
G1 X123.458 Y83.875 E45.61825
G1 X105.626 Y66.042 E46.54377
G1 X105.761 Y73.482 F9900.000
G1 X98.321 Y66.042 F900.000 E46.92989
G1 X97.277 Y66.042 E46.96819
G1 X104.352 Y73.117 E47.33539
G1 X103.413 Y73.221 E47.37009
G1 X96.234 Y66.042 E47.74267
