; generated by Slic3r 0.9.9-dev on 2013-09-01 at 15:50:19

; layer_height = 0.3
; perimeters = 2
; top_solid_layers = 4
; bottom_solid_layers = 4
; fill_density = 0.25
; perimeter_speed = 50
; infill_speed = 50
; travel_speed = 165
; nozzle_diameter = 0.5
; filament_diameter = 3.2
; extrusion_multiplier = 1
; perimeters extrusion width = 0.70mm
; infill extrusion width = 0.70mm
; solid infill extrusion width = 0.70mm
; top infill extrusion width = 0.70mm
; first layer extrusion width = 0.80mm

G21 ; set units to millimeters
M107
M190 S65 ; wait for bed temperature to be reached
M104 S185 ; set temperature
;G28 ; home all axes
;G1 Z5 F5000 ; lift nozzle
M109 S185 ; wait for temperature to be reached
G90 ; use absolute coordinates
G92 E0
M82 ; use absolute distances for extrusion
G1 F1800.000 E-1.00000
G1 Z0.700
G92 E0
G1 X99.727 Y65.170 F9900.000
G1 Z0.400
G1 F1800.000 E1.00000
G1 X100.047 Y64.740 F900.000 E1.01961
G1 X100.407 Y64.330 E1.03957
G1 X101.007 Y63.780 E1.06935
G1 X101.667 Y63.310 E1.09900
G1 X102.377 Y62.910 E1.12881
G1 X103.137 Y62.610 E1.15871
G1 X103.917 Y62.400 E1.18826
G1 X104.457 Y62.310 E1.20829
G1 X105.267 Y62.260 E1.23798
G1 X134.727 Y62.260 E2.31583
G1 X135.537 Y62.310 E2.34552
G1 X136.077 Y62.400 E2.36555
G1 X136.857 Y62.610 E2.39510
G1 X137.617 Y62.910 E2.42499
G1 X138.097 Y63.170 E2.44497
G1 X138.777 Y63.620 E2.47480
G1 X139.397 Y64.140 E2.50441
G1 X139.947 Y64.740 E2.53418
G1 X140.267 Y65.170 E2.55380
G1 X140.557 Y65.630 E2.57369
G1 X140.817 Y66.110 E2.59366
G1 X141.117 Y66.870 E2.62356
G1 X141.267 Y67.390 E2.64336
G1 X141.377 Y67.920 E2.66316
G1 X141.417 Y68.190 E2.67315
G1 X141.467 Y69.000 E2.70284
G1 X141.467 Y101.000 E3.87361
G1 X141.437 Y101.560 E3.89413
G1 X141.367 Y102.110 E3.91442
G1 X141.187 Y102.920 E3.94478
G1 X140.897 Y103.710 E3.97557
G1 X140.517 Y104.450 E4.00600
G1 X140.047 Y105.140 E4.03655
G1 X139.687 Y105.560 E4.05678
G1 X133.287 Y111.960 E4.38793
G1 X132.867 Y112.320 E4.40817
G1 X132.177 Y112.790 E4.43871
G1 X131.937 Y112.920 E4.44870
G1 X131.437 Y113.170 E4.46915
G1 X130.917 Y113.370 E4.48954
G1 X130.647 Y113.460 E4.49995
G1 X130.107 Y113.590 E4.52027
G1 X129.557 Y113.680 E4.54066
G1 X129.007 Y113.730 E4.56087
G1 X104.997 Y113.730 E5.43931
G1 X104.457 Y113.690 E5.45912
G1 X104.187 Y113.650 E5.46911
G1 X103.397 Y113.470 E5.49875
G1 X102.627 Y113.200 E5.52861
G1 X102.377 Y113.090 E5.53860
G1 X101.897 Y112.830 E5.55857
G1 X101.217 Y112.380 E5.58841
G1 X100.597 Y111.860 E5.61801
G1 X100.047 Y111.260 E5.64779
G1 X99.727 Y110.830 E5.66740
G1 X99.437 Y110.370 E5.68730
G1 X99.177 Y109.890 E5.70727
G1 X98.877 Y109.130 E5.73716
G1 X98.727 Y108.610 E5.75696
G1 X98.617 Y108.080 E5.77677
G1 X98.577 Y107.810 E5.78675
G1 X98.527 Y107.000 E5.81645
G1 X98.527 Y69.000 E7.20674
G1 X98.577 Y68.190 E7.23643
G1 X98.667 Y67.650 E7.25646
G1 X98.797 Y67.130 E7.27607
G1 X98.967 Y66.610 E7.29609
G1 X99.177 Y66.110 E7.31593
G1 X99.437 Y65.630 E7.33590
G1 X99.667 Y65.262 E7.35176
G1 F1800.000 E6.35176
G1 Z0.700
G92 E0
G1 X114.502 Y75.661 F9900.000
G1 Z0.400
G1 F1800.000 E1.00000
G1 X126.959 Y75.661 F900.000 E1.45577
G1 X126.959 Y85.339 E1.80986
G1 X114.502 Y85.339 E2.26563
G1 X114.502 Y75.771 E2.61568
G1 X115.238 Y76.397 F9900.000
G1 X126.224 Y76.397 F540.000 E3.01762
G1 X126.224 Y84.603 E3.31788
G1 X115.238 Y84.603 E3.71982
G1 X115.238 Y76.507 E4.01605
G1 X115.973 Y77.132 F9900.000
G1 X125.488 Y77.132 F540.000 E4.36416
G1 X125.488 Y83.868 E4.61059
G1 X115.973 Y83.868 E4.95871
G1 X115.973 Y77.243 E5.20111
G1 X115.973 Y76.397 F9900.000
G1 X114.502 Y90.661
G1 X126.959 Y90.661 F900.000 E5.65687
G1 X126.959 Y100.339 E6.01096
G1 X114.502 Y100.339 E6.46673
G1 X114.502 Y90.771 E6.81678
G1 X115.238 Y91.397 F9900.000
G1 X126.224 Y91.397 F540.000 E7.21873
G1 X126.224 Y99.603 E7.51899
G1 X115.238 Y99.603 E7.92093
G1 X115.238 Y91.507 E8.21715
G1 X115.973 Y92.132 F9900.000
G1 X125.488 Y92.132 F540.000 E8.56527
G1 X125.488 Y98.868 E8.81170
G1 X115.973 Y98.868 E9.15981
G1 X115.973 Y92.243 E9.40221
G1 X115.973 Y91.397 F9900.000
G1 X107.106 Y105.161
G1 X107.106 Y70.839 F900.000 E10.65794
G1 X132.894 Y70.839 E11.60142
G1 X132.894 Y100.238 E12.67704
G1 X127.971 Y105.161 E12.93175
G1 X107.217 Y105.161 E13.69109
G1 X106.371 Y105.897 F9900.000
G1 X106.371 Y70.103 F900.000 E15.00064
G1 X133.629 Y70.103 E15.99795
G1 X133.629 Y100.543 E17.11163
G1 X128.276 Y105.897 E17.38864
G1 X106.481 Y105.897 E18.18604
G1 X105.635 Y106.632 F9900.000
G1 X105.635 Y69.368 F630.000 E19.54942
G1 X134.365 Y69.368 E20.60056
G1 X134.365 Y100.848 E21.75230
G1 X128.580 Y106.632 E22.05160
G1 X105.745 Y106.632 E22.88706
G1 X106.003 Y105.995 F9900.000
G1 X107.640 Y104.628
G1 X107.639 Y103.573 F900.000 E22.92615
G1 X108.694 Y104.628 E22.98142
G1 X109.748 Y104.628 E23.02050
G1 X107.639 Y102.519 E23.13104
G1 X107.639 Y101.465 E23.17012
G1 X110.802 Y104.628 E23.33592
G1 X111.856 Y104.628 E23.37500
G1 X107.639 Y100.411 E23.59607
G1 X107.639 Y99.357 E23.63515
G1 X112.910 Y104.628 E23.91148
G1 X113.964 Y104.628 E23.95056
G1 X107.639 Y98.303 E24.28216
G1 X107.639 Y97.249 E24.32123
G1 X115.018 Y104.628 E24.70809
G1 X116.073 Y104.628 E24.74717
G1 X107.639 Y96.195 E25.18930
G1 X107.639 Y95.141 E25.22838
G1 X117.127 Y104.628 E25.72577
G1 X118.181 Y104.628 E25.76484
G1 X114.425 Y100.872 E25.96174
G1 X113.969 Y100.416 F9900.000
G1 X107.639 Y94.086 F900.000 E26.29358
G1 X107.639 Y93.032 E26.33265
G1 X113.969 Y99.362 E26.66450
G1 X113.969 Y98.308 E26.70357
G1 X107.639 Y91.978 E27.03541
G1 X107.639 Y90.924 E27.07449
G1 X113.969 Y97.254 E27.40633
G1 X113.969 Y96.199 E27.44541
G1 X107.639 Y89.870 E27.77725
G1 X107.639 Y88.816 E27.81633
G1 X113.969 Y95.145 E28.14817
G1 X113.969 Y94.091 E28.18725
G1 X107.639 Y87.762 E28.51909
G1 X107.639 Y86.708 E28.55817
G1 X113.969 Y93.037 E28.89001
G1 X113.969 Y91.983 E28.92909
G1 X107.639 Y85.653 E29.26093
G1 X107.639 Y84.599 E29.30001
G1 X113.969 Y90.929 E29.63185
G1 X114.222 Y90.128 E29.66299
G1 X107.639 Y83.545 E30.00810
G1 X107.639 Y82.491 E30.04717
G1 X115.276 Y90.128 E30.44754
G1 X116.330 Y90.128 E30.48662
G1 X107.639 Y81.437 E30.94225
G1 X107.639 Y80.383 E30.98133
G1 X117.384 Y90.128 E31.49222
G1 X118.438 Y90.128 E31.53130
G1 X114.183 Y85.872 E31.75441
G1 X113.969 Y85.658 F9900.000
G1 X107.639 Y79.329 F900.000 E32.08625
G1 X107.639 Y78.275 E32.12532
G1 X113.969 Y84.604 E32.45717
G1 X113.969 Y83.550 E32.49624
G1 X107.639 Y77.221 E32.82809
G1 X107.639 Y76.166 E32.86716
G1 X113.969 Y82.496 E33.19900
G1 X113.969 Y81.442 E33.23808
G1 X107.639 Y75.112 E33.56992
G1 X107.639 Y74.058 E33.60900
G1 X113.969 Y80.388 E33.94084
G1 X113.969 Y79.334 E33.97992
G1 X107.639 Y73.004 E34.31176
G1 X107.639 Y71.950 E34.35084
G1 X113.969 Y78.280 E34.68268
G1 X113.969 Y77.225 E34.72176
G1 X108.116 Y71.372 E35.02862
G1 X109.170 Y71.372 E35.06770
G1 X113.969 Y76.171 E35.31930
G1 X113.980 Y75.128 E35.35799
G1 X110.224 Y71.372 E35.55488
G1 X111.278 Y71.372 E35.59396
G1 X115.034 Y75.128 E35.79085
G1 X116.088 Y75.128 E35.82993
G1 X112.332 Y71.372 E36.02682
G1 X113.386 Y71.372 E36.06590
G1 X117.142 Y75.128 E36.26279
G1 X118.196 Y75.128 E36.30187
G1 X114.440 Y71.372 E36.49876
G1 X115.495 Y71.372 E36.53784
G1 X119.250 Y75.128 E36.73473
G1 X120.304 Y75.128 E36.77381
G1 X116.549 Y71.372 E36.97070
G1 X117.603 Y71.372 E37.00977
G1 X121.358 Y75.128 E37.20667
G1 X122.412 Y75.128 E37.24574
G1 X118.657 Y71.372 E37.44263
G1 X119.711 Y71.372 E37.48171
G1 X123.467 Y75.128 E37.67860
G1 X124.521 Y75.128 E37.71768
G1 X120.765 Y71.372 E37.91457
G1 X121.819 Y71.372 E37.95365
G1 X125.575 Y75.128 E38.15054
G1 X126.629 Y75.128 E38.18962
G1 X122.873 Y71.372 E38.38651
G1 X123.927 Y71.372 E38.42559
G1 X132.361 Y79.805 E38.86771
G1 X132.361 Y80.859 E38.90679
G1 X127.493 Y75.991 E39.16201
G1 X127.493 Y77.046 E39.20108
G1 X132.361 Y81.914 E39.45630
G1 X132.361 Y82.968 E39.49538
G1 X127.493 Y78.100 E39.75059
G1 X127.493 Y79.154 E39.78967
G1 X132.361 Y84.022 E40.04489
G1 X132.361 Y85.076 E40.08397
G1 X127.493 Y80.208 E40.33918
G1 X127.493 Y81.262 E40.37826
G1 X132.361 Y86.130 E40.63348
G1 X132.361 Y87.184 E40.67255
G1 X127.493 Y82.316 E40.92777
G1 X127.493 Y83.370 E40.96685
G1 X132.361 Y88.238 E41.22206
G1 X132.361 Y89.292 E41.26114
G1 X127.493 Y84.424 E41.51636
G1 X127.493 Y85.478 E41.55544
G1 X132.361 Y90.346 E41.81065
G1 X132.361 Y91.401 E41.84973
G1 X126.832 Y85.872 E42.13957
G1 X125.778 Y85.872 E42.17864
G1 X132.361 Y92.455 E42.52374
G1 X132.361 Y93.509 E42.56282
G1 X124.724 Y85.872 E42.96319
G1 X123.670 Y85.872 E43.00226
G1 X132.361 Y94.563 E43.45789
G1 X132.361 Y95.617 E43.49697
G1 X127.493 Y90.749 E43.75219
G1 X126.871 Y90.128 F9900.000
G1 X122.616 Y85.872 F900.000 E43.97529
G1 X121.562 Y85.872 E44.01437
G1 X125.817 Y90.128 E44.23748
G1 X124.763 Y90.128 E44.27655
G1 X120.508 Y85.872 E44.49966
G1 X119.453 Y85.872 E44.53874
G1 X123.709 Y90.128 E44.76184
G1 X122.655 Y90.128 E44.80092
G1 X118.399 Y85.872 E45.02402
G1 X117.345 Y85.872 E45.06310
G1 X121.601 Y90.128 E45.28620
G1 X120.547 Y90.128 E45.32528
G1 X116.291 Y85.872 E45.54839
G1 X115.237 Y85.872 E45.58746
G1 X119.492 Y90.128 E45.81057
G1 X127.493 Y91.803 F9900.000
G1 X132.361 Y96.671 F900.000 E46.06578
G1 X132.361 Y97.725 E46.10486
G1 X127.493 Y92.857 E46.36008
G1 X127.493 Y93.911 E46.39916
G1 X132.361 Y98.779 E46.65437
G1 X132.361 Y99.834 E46.69345
G1 X127.493 Y94.966 E46.94867
G1 X127.493 Y96.020 E46.98775
G1 X131.925 Y100.452 E47.22015
G1 X131.398 Y100.979 E47.24778
G1 X127.493 Y97.074 E47.45255
G1 X127.493 Y98.128 E47.49162
G1 X130.871 Y101.507 E47.66876
G1 X130.344 Y102.034 E47.69639
G1 X127.493 Y99.182 E47.84590
G1 X127.493 Y100.236 E47.88497
G1 X129.817 Y102.561 E48.00685
G1 X129.290 Y103.088 E48.03448
G1 X127.075 Y100.872 E48.15063
G1 X126.021 Y100.872 E48.18971
G1 X128.763 Y103.615 E48.33349
G1 X128.236 Y104.142 E48.36112
G1 X124.966 Y100.872 E48.53254
G1 X123.912 Y100.872 E48.57162
G1 X127.668 Y104.628 E48.76851
G1 X126.614 Y104.628 E48.80758
G1 X122.858 Y100.872 E49.00447
G1 X121.804 Y100.872 E49.04355
G1 X125.560 Y104.628 E49.24044
G1 X124.505 Y104.628 E49.27952
G1 X120.750 Y100.872 E49.47641
G1 X119.696 Y100.872 E49.51549
G1 X123.451 Y104.628 E49.71238
G1 X122.397 Y104.628 E49.75146
G1 X118.642 Y100.872 E49.94835
G1 X117.588 Y100.872 E49.98743
G1 X121.343 Y104.628 E50.18432
G1 X120.289 Y104.628 E50.22340
G1 X116.533 Y100.872 E50.42029
G1 X115.479 Y100.872 E50.45936
G1 X119.235 Y104.628 E50.65626
G1 X115.841 Y99.000 F9900.000
G1 X115.841 Y92.000
G1 X125.620 Y84.000
G1 X125.620 Y77.000
G1 X132.361 Y78.751
G1 X124.982 Y71.372 F900.000 E51.04312
G1 X126.036 Y71.372 E51.08219
G1 X132.361 Y77.697 E51.41379
G1 X132.361 Y76.643 E51.45287
G1 X127.090 Y71.372 E51.72920
G1 X128.144 Y71.372 E51.76827
G1 X132.361 Y75.589 E51.98934
G1 X132.361 Y74.535 E52.02842
G1 X129.198 Y71.372 E52.19422
G1 X130.252 Y71.372 E52.23330
G1 X132.361 Y73.481 E52.34384
G1 X132.361 Y72.427 E52.38291
G1 X131.306 Y71.372 E52.43819
G1 X132.361 Y71.372 E52.47727
M106 S240
M140 S60 ; set bed temperature
G1 F1800.000 E51.47727
G1 Z1.000
G92 E0
G1 X127.762 Y75.864 F9900.000
G1 Z0.700
G1 F1800.000 E1.00000
G1 X127.762 Y85.136 F3000.000 E1.22638
G1 X113.707 Y85.136 E1.56952
G1 X113.707 Y75.864 E1.79590
G1 X127.664 Y75.864 E2.13665
G1 X127.108 Y76.518 F9900.000
G1 X127.108 Y84.482 F3000.000 E2.33107
G1 X114.362 Y84.482 E2.64226
G1 X114.362 Y76.518 E2.83668
G1 X127.010 Y76.518 E3.14547
G1 X126.453 Y77.173 F9900.000
G1 X126.453 Y83.827 F1800.000 E3.30793
G1 X115.016 Y83.827 E3.58716
G1 X115.016 Y77.173 E3.74963
G1 X126.355 Y77.173 E4.02646
G1 X127.108 Y77.173 F9900.000
G1 X127.762 Y90.864
G1 X127.762 Y100.136 F3000.000 E4.25284
G1 X113.707 Y100.136 E4.59598
G1 X113.707 Y90.864 E4.82236
G1 X127.664 Y90.864 E5.16311
G1 X127.108 Y91.518 F9900.000
G1 X127.108 Y99.482 F3000.000 E5.35753
G1 X114.362 Y99.482 E5.66872
G1 X114.362 Y91.518 E5.86314
G1 X127.010 Y91.518 E6.17193
G1 X126.453 Y92.173 F9900.000
G1 X126.453 Y98.827 F1800.000 E6.33439
G1 X115.016 Y98.827 E6.61362
G1 X115.016 Y92.173 E6.77608
G1 X126.355 Y92.173 E7.05291
G1 X127.108 Y92.173 F9900.000
G1 X133.097 Y100.322
G1 X128.055 Y105.364 F3000.000 E7.22698
G1 X106.903 Y105.364 E7.74338
G1 X106.903 Y70.636 E8.59122
G1 X133.097 Y70.636 E9.23070
G1 X133.097 Y100.224 E9.95306
G1 X133.751 Y100.593 F9900.000
G1 X128.326 Y106.018 F3000.000 E10.14036
G1 X106.249 Y106.018 E10.67936
G1 X106.249 Y69.982 E11.55916
G1 X133.751 Y69.982 E12.23060
G1 X133.751 Y100.495 E12.97555
G1 X134.217 Y101.053 F9900.000
G1 X128.597 Y106.673 F2100.000 E13.16958
G1 X105.594 Y106.673 E13.73117
G1 X105.594 Y69.327 E14.64293
G1 X134.406 Y69.327 E15.34633
G1 X134.406 Y100.864 E16.11628
G1 X134.286 Y100.984 E16.12040
G1 X133.585 Y100.884 F9900.000
G1 X132.622 Y100.126
G1 X127.858 Y104.889 F3000.000 E16.28663
G1 X126.923 Y104.889 E16.30972
G1 X132.622 Y99.190 E16.50860
G1 X132.622 Y98.255 E16.53168
G1 X125.987 Y104.889 E16.76321
G1 X125.052 Y104.889 E16.78629
G1 X132.622 Y97.319 E17.05047
G1 X132.622 Y96.384 E17.07355
G1 X124.116 Y104.889 E17.37037
G1 X123.181 Y104.889 E17.39345
G1 X127.460 Y100.611 E17.54276
G1 X126.524 Y100.611 E17.56585
G1 X122.245 Y104.889 E17.71516
G1 X121.310 Y104.889 E17.73824
G1 X125.589 Y100.611 E17.88755
G1 X124.653 Y100.611 E17.91064
G1 X120.374 Y104.889 E18.05995
G1 X119.439 Y104.889 E18.08303
G1 X123.718 Y100.611 E18.23234
G1 X122.782 Y100.611 E18.25542
G1 X118.503 Y104.889 E18.40474
G1 X117.568 Y104.889 E18.42782
G1 X121.847 Y100.611 E18.57713
G1 X120.911 Y100.611 E18.60021
G1 X116.632 Y104.889 E18.74952
G1 X115.697 Y104.889 E18.77261
G1 X119.976 Y100.611 E18.92192
G1 X119.040 Y100.611 E18.94500
G1 X114.761 Y104.889 E19.09431
G1 X113.826 Y104.889 E19.11740
G1 X118.105 Y100.611 E19.26671
G1 X117.169 Y100.611 E19.28979
G1 X112.890 Y104.889 E19.43910
G1 X111.955 Y104.889 E19.46219
G1 X116.234 Y100.611 E19.61150
G1 X115.298 Y100.611 E19.63458
G1 X111.019 Y104.889 E19.78389
G1 X110.084 Y104.889 E19.80698
G1 X114.363 Y100.611 E19.95629
G1 X113.427 Y100.611 E19.97937
G1 X109.148 Y104.889 E20.12868
G1 X108.213 Y104.889 E20.15177
G1 X113.233 Y99.869 E20.32694
G1 X113.233 Y98.934 E20.35003
G1 X107.378 Y104.789 E20.55434
G1 X107.378 Y103.853 E20.57743
G1 X113.233 Y97.998 E20.78174
G1 X113.233 Y97.063 E20.80483
G1 X107.378 Y102.918 E21.00915
G1 X107.378 Y101.982 E21.03223
G1 X113.233 Y96.127 E21.23655
G1 X113.233 Y95.192 E21.25963
G1 X107.378 Y101.047 E21.46395
G1 X107.378 Y100.111 E21.48703
G1 X113.233 Y94.256 E21.69135
G1 X113.233 Y93.321 E21.71443
G1 X107.378 Y99.176 E21.91875
G1 X107.378 Y98.240 E21.94183
G1 X113.233 Y92.385 E22.14615
G1 X113.233 Y91.450 E22.16924
G1 X107.378 Y97.305 E22.37355
G1 X107.378 Y96.369 E22.39664
G1 X113.233 Y90.514 E22.60096
G1 X113.358 Y90.389 F9900.000
G1 X118.137 Y85.611 F3000.000 E22.76771
G1 X119.072 Y85.611 E22.79080
G1 X114.293 Y90.389 E22.95756
G1 X115.229 Y90.389 E22.98064
G1 X120.008 Y85.611 E23.14740
G1 X120.943 Y85.611 E23.17048
G1 X116.164 Y90.389 E23.33724
G1 X117.100 Y90.389 E23.36033
G1 X121.879 Y85.611 E23.52708
G1 X122.814 Y85.611 E23.55017
G1 X118.035 Y90.389 E23.71693
G1 X118.971 Y90.389 E23.74001
G1 X123.750 Y85.611 E23.90677
G1 X124.685 Y85.611 E23.92985
G1 X119.906 Y90.389 E24.09661
G1 X120.842 Y90.389 E24.11970
G1 X125.621 Y85.611 E24.28645
G1 X126.556 Y85.611 E24.30954
G1 X121.777 Y90.389 E24.47630
G1 X122.713 Y90.389 E24.49938
G1 X127.492 Y85.611 E24.66614
G1 X128.237 Y84.865 F9900.000
G1 X132.622 Y80.480 F3000.000 E24.81917
G1 X132.622 Y81.416 E24.84226
G1 X123.648 Y90.389 E25.15541
G1 X124.584 Y90.389 E25.17849
G1 X132.622 Y82.351 E25.45900
G1 X132.622 Y83.287 E25.48208
G1 X125.519 Y90.389 E25.72994
G1 X126.455 Y90.389 E25.75303
G1 X132.622 Y84.222 E25.96824
G1 X132.622 Y85.158 E25.99132
G1 X127.390 Y90.389 E26.17389
G1 X128.237 Y90.478 E26.19490
G1 X132.622 Y86.093 E26.34793
G1 X132.622 Y87.029 E26.37101
G1 X128.237 Y91.414 E26.52405
G1 X128.237 Y92.349 E26.54713
G1 X132.622 Y87.964 E26.70016
G1 X132.622 Y88.900 E26.72325
G1 X128.237 Y93.285 E26.87628
G1 X128.237 Y94.220 E26.89936
G1 X132.622 Y89.835 E27.05239
G1 X132.622 Y90.771 E27.07548
G1 X128.237 Y95.156 E27.22851
G1 X128.237 Y96.091 E27.25160
G1 X132.622 Y91.706 E27.40463
